njanwani/something/primitives/data/Double_Wave.csv
,left_hip_pitch_joint,left_hip_roll_joint,left_hip_yaw_joint,left_knee_joint,left_ankle_pitch_joint,left_ankle_roll_joint,right_hip_pitch_joint,right_hip_roll_joint,right_hip_yaw_joint,right_knee_joint,right_ankle_pitch_joint,right_ankle_roll_joint,waist_yaw_joint,waist_roll_joint,waist_pitch_joint,head_pitch_joint,head_yaw_joint,head_roll_joint,left_shoulder_pitch_joint,left_shoulder_roll_joint,left_shoulder_yaw_joint,left_elbow_joint,left_wrist_roll_joint,left_wrist_pitch_joint,left_wrist_yaw_joint,right_shoulder_pitch_joint,right_shoulder_roll_joint,right_shoulder_yaw_joint,right_elbow_joint,right_wrist_roll_joint,right_wrist_pitch_joint,right_wrist_yaw_joint
0,0.0,0.0,0.0,0.0,0.0,0.0,0.0,0.0,0.0,0.0,0.0,0.0,0.0,0.0,0.0,0.0,0.0,0.0,0.056743240040440165,-0.0024478770878464317,0.67696322697268,1.4143177057835434,0.8438780570470368,-0.23047165868816724,-0.16323176244781304,0.06467968128077382,-0.017133514956397002,-0.5145951271602138,1.4496340038683377,-1.0639499563628145,-0.30682297780809226,0.09890469337735013
1,0.0,0.0,0.0,0.0,0.0,0.0,0.0,0.0,0.0,0.0,0.0,0.0,0.0,0.0,0.0,0.0,0.0,0.0,0.060200139065697655,0.0017601349349006309,0.6708428184087245,1.4135157964007286,0.8292604256511441,-0.2224003815806532,-0.17706414738617576,0.06490018302834001,-0.012521366715731539,-0.545305856453152,1.4478314573115811,-1.0575718801121572,-0.29254407046700676,0.12733438901866392
2,0.0,0.0,0.0,0.0,0.0,0.0,0.0,0.0,0.0,0.0,0.0,0.0,0.0,0.0,0.0,0.0,0.0,0.0,0.0610890239639019,0.022277522794326092,0.6703985753799493,1.4152177624270714,0.7983646844918546,-0.21337954226774605,-0.19878109605567312,0.06349372836086592,-0.011737540704957458,-0.5683303718593864,1.4481239870157931,-1.0634492133126536,-0.28282562704078074,0.1552114365716765
3,0.0,0.0,0.0,0.0,0.0,0.0,0.0,0.0,0.0,0.0,0.0,0.0,0.0,0.0,0.0,0.0,0.0,0.0,0.06067102061193415,0.049541236127054994,0.6714297262074388,1.4183916554248468,0.7850984723930491,-0.20492036540083225,-0.2243959782758975,0.062254414161789604,-0.017190487780402487,-0.5777786153623137,1.4511153417550708,-1.079673178630161,-0.2815685042507963,0.17796568279766128
4,0.0,0.0,0.0,0.0,0.0,0.0,0.0,0.0,0.0,0.0,0.0,0.0,0.0,0.0,0.0,0.0,0.0,0.0,0.05871620153692757,0.08359051536015355,0.7050395559218817,1.4161117917933201,0.7551463892399726,-0.1880333528621988,-0.2493042122296464,0.061521165359147464,-0.035494314269715305,-0.4567554443642652,1.4622804267828804,-0.9631671555084993,-0.2807346694780866,0.19372744024126753
5,0.0,0.0,0.0,0.0,0.0,0.0,0.0,0.0,0.0,0.0,0.0,0.0,0.0,0.0,0.0,0.0,0.0,0.0,0.05719884957182344,0.11731188561259784,0.7438927836068402,1.4132125974816359,0.6966709505995593,-0.17141401651396138,-0.26385085495198873,0.06227044251487388,-0.06425305851614918,-0.3185066859426123,1.466832906920405,-0.8551936894249019,-0.2862548710038799,0.22248281494262703
6,0.0,0.0,0.0,0.0,0.0,0.0,0.0,0.0,0.0,0.0,0.0,0.0,0.0,0.0,0.0,0.0,0.0,0.0,0.05458522437982908,0.17261269946735278,0.8372951853766016,1.397279663093556,0.5147341190527591,-0.13961621415278425,-0.24776466968369149,0.07166050982419046,-0.12499041832104607,0.022598240044821527,1.4463073682078706,-0.6567885194984381,-0.3043737782371623,0.24181495070535022
7,0.0,0.0,0.0,0.0,0.0,0.0,0.0,0.0,0.0,0.0,0.0,0.0,0.0,0.0,0.0,0.0,0.0,0.0,0.05361861542934158,0.20804297661844734,0.9801775209831504,1.3304018537385738,0.20840393199425822,-0.17647859361337326,-0.2270601620413478,0.07967694817982492,-0.20145430415611254,0.2856493498621337,1.4124104728042612,-0.5091931204557703,-0.3481234538730955,0.2960953376579383
8,0.0,0.0,0.0,0.0,0.0,0.0,0.0,0.0,0.0,0.0,0.0,0.0,0.0,0.0,0.0,0.0,0.0,0.0,0.04612872142077957,0.2507576560684613,1.1039925658251357,1.2754649649670164,0.040407133517029015,-0.37942596003273216,-0.19057737640924888,0.07517994421733395,-0.2915390405449602,0.49747600620158194,1.4151222325251704,-0.49393656604561986,-0.6905853238105825,0.3332604616924271
9,0.0,0.0,0.0,0.0,0.0,0.0,0.0,0.0,0.0,0.0,0.0,0.0,0.0,0.0,0.0,0.0,0.0,0.0,0.05042779209709621,0.27042161715282276,1.2149402681314543,0.9890214823841348,-0.014713264154715695,-0.7419077790569819,-0.151555388346451,0.0731192746800306,-0.33690391830181204,0.32640980326573743,1.4317377587281144,-0.6260573156659277,-1.3883147376685692,0.23460304204409607
10,0.0,0.0,0.0,0.0,0.0,0.0,0.0,0.0,0.0,0.0,0.0,0.0,0.0,0.0,0.0,0.0,0.0,0.0,0.040740844778023276,0.3111466687911941,1.321209473331583,0.663145411710923,-0.025702460890606862,-0.9098628584393873,-0.12869759806657738,0.07304344807317979,-0.40486113122146533,-0.05956583913311536,1.3719237915923872,-0.48345737255508203,-1.8455565525873654,-0.029794432445737623
11,0.0,0.0,0.0,0.0,0.0,0.0,0.0,0.0,0.0,0.0,0.0,0.0,0.0,0.0,0.0,0.0,0.0,0.0,0.013442405461466425,0.3711606514571968,1.4118632871087031,0.34574069164611687,-0.013429613412831928,-0.882837090853089,-0.13386748270098045,0.057553821696689676,-0.37065564614631774,-0.5382065180879421,0.7468255413552689,-0.27703239769078697,-1.7293973763605759,0.02486924260447749
12,0.0,0.0,0.0,0.0,0.0,0.0,0.0,0.0,0.0,0.0,0.0,0.0,0.0,0.0,0.0,0.0,0.0,0.0,-0.007786814047417774,0.4773380823951644,1.4660440330955693,0.05876109023095144,-0.02037183674540212,-0.7455652424241691,-0.15273792354950722,0.028255564787449176,-0.4370202072198641,-0.8740064032413214,0.20883379044347983,-0.1349573202150195,-1.3044662726145362,0.07621166874251584
13,0.0,0.0,0.0,0.0,0.0,0.0,0.0,0.0,0.0,0.0,0.0,0.0,0.0,0.0,0.0,0.0,0.0,0.0,-0.01729896259120525,0.6272968328631028,1.4985290709933305,-0.16035500209171427,-0.09371405833560462,-0.5329481620356507,-0.14810501568452308,0.0075073229335531205,-0.5785568952939429,-1.106284786178558,-0.1450003772452244,0.1384911181412033,-0.8518417866669865,0.08212526048720387
14,0.0,0.0,0.0,0.0,0.0,0.0,0.0,0.0,0.0,0.0,0.0,0.0,0.0,0.0,0.0,0.0,0.0,0.0,-0.019726611418347795,0.7846387330038254,1.5155499019923386,-0.31479734856067954,-0.2996140297033302,-0.3733585083911899,-0.15456347999219647,-0.002568681813708935,-0.763369043107653,-1.2578206449869147,-0.3334259439292011,0.8825381543339603,-0.5901291301116999,0.031101282361932846
15,0.0,0.0,0.0,0.0,0.0,0.0,0.0,0.0,0.0,0.0,0.0,0.0,0.0,0.0,0.0,0.0,0.0,0.0,-0.024516169720117113,0.9173682709646376,1.5283437997315419,-0.4379475045427834,-0.49156174167939715,-0.23980360731899322,-0.12045038568593033,-0.007278354914793094,-0.9457099030507794,-1.3555230277030903,-0.4062840606835252,1.3467165335544022,-0.4225360044772162,-0.04911605148189543
16,0.0,0.0,0.0,0.0,0.0,0.0,0.0,0.0,0.0,0.0,0.0,0.0,0.0,0.0,0.0,0.0,0.0,0.0,-0.026408224582028038,1.029756190953182,1.5361406723679956,-0.5437820048334349,-0.8949303750977265,-0.1475311683655127,-0.06392473333096464,-0.013981231167275792,-1.1045343402076275,-1.418701801701008,-0.39714473869199773,1.5940681296944421,-0.3003163880152191,-0.09084977329568444
17,0.0,0.0,0.0,0.0,0.0,0.0,0.0,0.0,0.0,0.0,0.0,0.0,0.0,0.0,0.0,0.0,0.0,0.0,-0.02663676410818774,1.125186541062863,1.5394210989565043,-0.6321061018723889,-1.3571517210881077,-0.10189062893103772,-0.027523629894239725,-0.02017866541591775,-1.2375482097099484,-1.4597262485046933,-0.36215277131725937,1.8540664413282397,-0.2325849213043736,-0.1005916162492622
18,0.0,0.0,0.0,0.0,0.0,0.0,0.0,0.0,0.0,0.0,0.0,0.0,0.0,0.0,0.0,0.0,0.0,0.0,-0.028596439013428825,1.2045672399754606,1.5399979674827766,-0.6995534915770155,-1.7859702593322577,-0.07760773628352312,-0.004523866100579813,-0.024875708269866147,-1.3299434474361413,-1.487345279635785,-0.32200706978874344,2.051076260147457,-0.16668165536926693,-0.08421044788701167
19,0.0,0.0,0.0,0.0,0.0,0.0,0.0,0.0,0.0,0.0,0.0,0.0,0.0,0.0,0.0,0.0,0.0,0.0,-0.03348780859850196,1.263978820244362,1.540668410804575,-0.7278241598559372,-1.9445272764430246,-0.04288742053951764,0.016183014200582185,-0.028513645496830397,-1.41074149137504,-1.5042778280969074,-0.2903859508845115,2.2348526127209665,-0.14123293291892838,-0.07302654893987667
20,0.0,0.0,0.0,0.0,0.0,0.0,0.0,0.0,0.0,0.0,0.0,0.0,0.0,0.0,0.0,0.0,0.0,0.0,-0.03811698156981806,1.3148705100358455,1.5400901958705362,-0.716332734610777,-2.031126926676018,-0.022863590951620584,0.03493034111770328,-0.03194266978984389,-1.4741716693486109,-1.5136023506871763,-0.2792841422128731,2.395574683268073,-0.1310139537059336,-0.05284346994192754
21,0.0,0.0,0.0,0.0,0.0,0.0,0.0,0.0,0.0,0.0,0.0,0.0,0.0,0.0,0.0,0.0,0.0,0.0,-0.0447180729543493,1.3538490147345996,1.5385834685164017,-0.6638830215021164,-1.8088663714773012,0.005606626125854386,0.031235475894967064,-0.03280246394128639,-1.5268291513355772,-1.518562149250511,-0.31437763481240255,2.5146762688091804,-0.14848908525145038,-0.04842712427853981
22,0.0,0.0,0.0,0.0,0.0,0.0,0.0,0.0,0.0,0.0,0.0,0.0,0.0,0.0,0.0,0.0,0.0,0.0,-0.04496434856086275,1.3575427612958333,1.5404759647390467,-0.5940209101253245,-1.4573046555245197,0.010260871950393817,-0.0019428029734515073,-0.04128456949041345,-1.4939217936754805,-1.521874120246361,-0.416355084150954,2.6268969680045826,-0.12418948620949347,-0.053858808274817004
23,0.0,0.0,0.0,0.0,0.0,0.0,0.0,0.0,0.0,0.0,0.0,0.0,0.0,0.0,0.0,0.0,0.0,0.0,-0.043885158083256014,1.3615841194179472,1.542606078144736,-0.5183557630892348,-1.28847051075339,0.021867103462430513,-0.015142953600062209,-0.04548018153626651,-1.470397037043351,-1.5236549462436177,-0.5419780207894367,2.7018199891824817,-0.13756573913024403,-0.06601259814990622
24,0.0,0.0,0.0,0.0,0.0,0.0,0.0,0.0,0.0,0.0,0.0,0.0,0.0,0.0,0.0,0.0,0.0,0.0,-0.04383517664348345,1.3501492258562553,1.5464312641578277,-0.46482949309075206,-1.0997628946268379,0.03527834810123677,-0.03258057956365126,-0.046441952011546835,-1.4399516628622888,-1.5257526475857581,-0.6651373438045065,2.766344181712879,-0.14940631209424954,-0.0828176193071418
25,0.0,0.0,0.0,0.0,0.0,0.0,0.0,0.0,0.0,0.0,0.0,0.0,0.0,0.0,0.0,0.0,0.0,0.0,-0.0408981607644141,1.3242833994228722,1.5516845763918614,-0.4539615763118043,-1.0247334066977773,0.04402171307156772,-0.04788910431504657,-0.04556775738409094,-1.3937413108708774,-1.5321916609917583,-0.7753661631206051,2.878044782819951,-0.14581402835765386,-0.07149354712254105
26,0.0,0.0,0.0,0.0,0.0,0.0,0.0,0.0,0.0,0.0,0.0,0.0,0.0,0.0,0.0,0.0,0.0,0.0,-0.03801209866979518,1.2944230295092074,1.5538683259526531,-0.47567272796446114,-0.9940789926417928,0.04320079153710461,-0.049493403242018084,-0.044540548969281564,-1.3597270046992902,-1.536564027725283,-0.8552353257166737,2.9580372351954205,-0.1329185389073344,-0.06066405022870757
27,0.0,0.0,0.0,0.0,0.0,0.0,0.0,0.0,0.0,0.0,0.0,0.0,0.0,0.0,0.0,0.0,0.0,0.0,-0.036519434580594416,1.2686878419254533,1.5543728921594706,-0.529194178872359,-0.9684368414213486,0.037468907787854576,-0.058776227443320506,-0.04420276730045366,-1.3463582198132855,-1.539145775840954,-0.896313546093324,2.989024887857138,-0.10419617460546791,-0.053733007002104094
28,0.0,0.0,0.0,0.0,0.0,0.0,0.0,0.0,0.0,0.0,0.0,0.0,0.0,0.0,0.0,0.0,0.0,0.0,-0.03761196989370404,1.2389442971575912,1.5519443540012376,-0.5989940758590578,-0.8919728696069195,0.0148066144086068,-0.07936221696699643,-0.04461757718279422,-1.341625752899946,-1.540769089686924,-0.8996175447148135,2.521877942462788,-0.053748228692474975,-0.056642215941988996
29,0.0,0.0,0.0,0.0,0.0,0.0,0.0,0.0,0.0,0.0,0.0,0.0,0.0,0.0,0.0,0.0,0.0,0.0,-0.039514271785792296,1.2456502894462715,1.5494143691151465,-0.6791718119832886,-0.9331075375570644,0.01835417758356126,-0.06928351784262042,-0.04611256823934474,-1.3580738378343784,-1.5399300348774314,-0.8836926155203636,2.318474757782886,-0.025531186470521654,-0.05743335603590429
30,0.0,0.0,0.0,0.0,0.0,0.0,0.0,0.0,0.0,0.0,0.0,0.0,0.0,0.0,0.0,0.0,0.0,0.0,-0.041575658769165594,1.2706930754429002,1.5473874843634259,-0.7550031389097211,-1.0673630054570644,0.02599559756641111,-0.04931016765522675,-0.045061279197572704,-1.3800687784333308,-1.5392506326270516,-0.865758103965496,2.364797034385618,-0.01885612832034118,-0.06426643226200307
31,0.0,0.0,0.0,0.0,0.0,0.0,0.0,0.0,0.0,0.0,0.0,0.0,0.0,0.0,0.0,0.0,0.0,0.0,-0.04781775783465311,1.2962457068487554,1.543522371439834,-0.8128490960103861,-1.0708383530981886,0.03312778009725028,-0.034096534205119586,-0.04407964083976987,-1.4089419446211928,-1.5377328824301713,-0.8521784910452341,2.541916055126701,-0.03257370914385994,-0.059071917699805486
32,0.0,0.0,0.0,0.0,0.0,0.0,0.0,0.0,0.0,0.0,0.0,0.0,0.0,0.0,0.0,0.0,0.0,0.0,-0.052593657092424986,1.3226520457636135,1.5395988171428998,-0.8366251654144049,-1.1438765805830657,0.03699407450336652,-0.01702773436278622,-0.04634290712700042,-1.4372917782300672,-1.5359498065244448,-0.8373104366310427,2.7076003220924183,-0.05439384925388328,-0.054754191303056775
33,0.0,0.0,0.0,0.0,0.0,0.0,0.0,0.0,0.0,0.0,0.0,0.0,0.0,0.0,0.0,0.0,0.0,0.0,-0.056562056960762795,1.336697189543486,1.5364084041982775,-0.8105952999941319,-1.1104036071400938,0.03250848481194138,-0.03528811056991108,-0.04792191787196438,-1.4447096294362494,-1.5352131881347386,-0.7968460321063794,2.6442831506199505,-0.03941564996883696,-0.06247338293763798
34,0.0,0.0,0.0,0.0,0.0,0.0,0.0,0.0,0.0,0.0,0.0,0.0,0.0,0.0,0.0,0.0,0.0,0.0,-0.059911541829742,1.3446884761105629,1.5337579560745973,-0.7375459946623281,-1.0019915851057024,0.009694277081048898,-0.07891518781769756,-0.051114292852169056,-1.4423688039895959,-1.5358354457191703,-0.7276559562182243,2.1640145455589304,-0.0027091132287094186,-0.04806963470610943
35,0.0,0.0,0.0,0.0,0.0,0.0,0.0,0.0,0.0,0.0,0.0,0.0,0.0,0.0,0.0,0.0,0.0,0.0,-0.06429411785611504,1.3611640018935347,1.5324876349771905,-0.6281626242549437,-0.8455826194413437,0.002782434279631921,-0.09362049863028431,-0.04929869325403952,-1.4304653093869693,-1.5384638316839871,-0.6354914651188012,1.7710006059173273,0.015619443187478765,-0.017232094246308137
36,0.0,0.0,0.0,0.0,0.0,0.0,0.0,0.0,0.0,0.0,0.0,0.0,0.0,0.0,0.0,0.0,0.0,0.0,-0.05601868819611963,1.3838694618395107,1.5352914953213397,-0.44575149880407694,-0.7739766094321231,-0.04493391781053933,-0.14096379794311947,-0.0459652449557414,-1.4244096483242588,-1.5421462768131737,-0.5384002038017809,1.5949101881181416,0.034627284872731326,-0.0076002935182786086
37,0.0,0.0,0.0,0.0,0.0,0.0,0.0,0.0,0.0,0.0,0.0,0.0,0.0,0.0,0.0,0.0,0.0,0.0,-0.057480607873172426,1.3966414044780031,1.534956775269079,-0.298343797791059,-0.5905035243032649,-0.07137210198434855,-0.14200475141174665,-0.042516476631899454,-1.3990371124830958,-1.5455299572090644,-0.4446196455604605,1.3190159402063053,0.03437488097613869,0.021715025762049603
38,0.0,0.0,0.0,0.0,0.0,0.0,0.0,0.0,0.0,0.0,0.0,0.0,0.0,0.0,0.0,0.0,0.0,0.0,-0.05325967774022271,1.3766690000293087,1.5385650042282417,-0.1980680747460296,-0.5465925363060022,-0.09580197644336029,-0.16212105506053187,-0.04022043025326239,-1.3789322519652973,-1.5471882693219114,-0.3591238638903751,1.0930928733894216,0.018247888847789266,0.05603236095411766
39,0.0,0.0,0.0,0.0,0.0,0.0,0.0,0.0,0.0,0.0,0.0,0.0,0.0,0.0,0.0,0.0,0.0,0.0,-0.05025080180383353,1.3614835963069194,1.5416376910643426,-0.12798352372712948,-0.4985721145303833,-0.11630725214994286,-0.17300875782692476,-0.0404202211160246,-1.3617361463353763,-1.5491750735755783,-0.31755936656843886,0.9372372672145166,0.021865566594611353,0.06997160808824726
40,0.0,0.0,0.0,0.0,0.0,0.0,0.0,0.0,0.0,0.0,0.0,0.0,0.0,0.0,0.0,0.0,0.0,0.0,-0.04961613840497975,1.3573272002644694,1.5446561647040107,-0.0987801114242538,-0.43544023398276455,-0.11920112224099856,-0.16692040300919042,-0.03894190487452858,-1.3503013532901025,-1.5514523999223253,-0.3181760246652449,0.9187785691265362,0.039346568032544,0.06119393852228594
41,0.0,0.0,0.0,0.0,0.0,0.0,0.0,0.0,0.0,0.0,0.0,0.0,0.0,0.0,0.0,0.0,0.0,0.0,-0.051409037119635695,1.360882762144443,1.545021730322825,-0.09428697110215566,-0.38932921484934413,-0.11658121811596747,-0.16342443482948227,-0.03661321485021127,-1.3577003603125515,-1.553332319219458,-0.3732923164894782,1.0337947787865494,0.06406781453158632,-0.012631054129390182
42,0.0,0.0,0.0,0.0,0.0,0.0,0.0,0.0,0.0,0.0,0.0,0.0,0.0,0.0,0.0,0.0,0.0,0.0,-0.042815613912362056,1.3513624784545082,1.5463739496246471,-0.1897322464585941,-0.47646164449628914,-0.09232291001159879,-0.13299890445292736,-0.038505953296945575,-1.3464221368534646,-1.5546037746776056,-0.4383835370784087,1.0516191991982102,0.07684819600768703,-0.02376606668003059
43,0.0,0.0,0.0,0.0,0.0,0.0,0.0,0.0,0.0,0.0,0.0,0.0,0.0,0.0,0.0,0.0,0.0,0.0,-0.04152537117991198,1.3422113804736269,1.5449906223835124,-0.31649954109950784,-0.6118943514806363,-0.0605694520636954,-0.10479975827885493,-0.036009154113962494,-1.3513277078712476,-1.5532023459041513,-0.5356588870778707,1.4123096238417179,0.04492215115290982,-0.07298383763783645
44,0.0,0.0,0.0,0.0,0.0,0.0,0.0,0.0,0.0,0.0,0.0,0.0,0.0,0.0,0.0,0.0,0.0,0.0,-0.03889466079721529,1.3363704846591118,1.543810447756643,-0.470273296429325,-0.8551588263869327,-0.03222052282272474,-0.05907360769361843,-0.03701045685293908,-1.3625913051316554,-1.549370090688397,-0.6312804099802871,1.9436936639328635,-0.00415576820809567,-0.05916365016316413
45,0.0,0.0,0.0,0.0,0.0,0.0,0.0,0.0,0.0,0.0,0.0,0.0,0.0,0.0,0.0,0.0,0.0,0.0,-0.04122094587513881,1.335842991378704,1.5433565785593348,-0.6205124641094459,-1.0593688641084082,-0.01159364248859832,-0.04615753462611484,-0.044389808925073444,-1.3684443584325021,-1.5435634285530258,-0.7353986673517378,2.403174971413337,-0.03915223440111246,-0.03815183023715668
46,0.0,0.0,0.0,0.0,0.0,0.0,0.0,0.0,0.0,0.0,0.0,0.0,0.0,0.0,0.0,0.0,0.0,0.0,-0.043446069031213966,1.3347062867749215,1.5449671294367051,-0.7519796321781124,-1.2609248458713331,0.012703865404139269,0.002323113785138775,-0.04913389715224903,-1.3732795484640115,-1.543005879459927,-0.827137087935605,2.6866553465126617,-0.07293555653011048,-0.036423799403129654
47,0.0,0.0,0.0,0.0,0.0,0.0,0.0,0.0,0.0,0.0,0.0,0.0,0.0,0.0,0.0,0.0,0.0,0.0,-0.044904415674781345,1.3344496337334237,1.545619781125548,-0.8407393003410969,-1.4274890051892835,0.023449051543962394,0.04335368630788422,-0.05002333565545136,-1.3768118585573466,-1.544294002904034,-0.8835493143800746,2.864230334473802,-0.0929525802718022,-0.04053413779683787
48,0.0,0.0,0.0,0.0,0.0,0.0,0.0,0.0,0.0,0.0,0.0,0.0,0.0,0.0,0.0,0.0,0.0,0.0,-0.046071003596544056,1.3481635249961976,1.5452690721165836,-0.87580826488747,-1.9880165456583176,-0.004220399596111847,0.04593343727585241,-0.046948922243940996,-1.3835767028217443,-1.5463181354900797,-0.8889968373725096,2.914532553275962,-0.09755601161843243,-0.05342368305375514
49,0.0,0.0,0.0,0.0,0.0,0.0,0.0,0.0,0.0,0.0,0.0,0.0,0.0,0.0,0.0,0.0,0.0,0.0,-0.041633276945509,1.3524688803406681,1.546302425603986,-0.836666399203267,-1.8989072931492132,0.007957636857581836,0.048976947139114824,-0.04163629811119139,-1.3812638716137318,-1.5463151625516387,-0.8513810000349992,2.876640461589772,-0.08963447997956286,-0.055332331170861025
50,0.0,0.0,0.0,0.0,0.0,0.0,0.0,0.0,0.0,0.0,0.0,0.0,0.0,0.0,0.0,0.0,0.0,0.0,-0.0438386030278664,1.354862779217974,1.5449704705526375,-0.7528132340664055,-1.5285817545850078,0.01726905971436699,0.016891900894264178,-0.03673070346089655,-1.3781490369268752,-1.5473066212228284,-0.7804793548794103,2.7196109414246075,-0.0694835662149258,-0.06322076051883034
51,0.0,0.0,0.0,0.0,0.0,0.0,0.0,0.0,0.0,0.0,0.0,0.0,0.0,0.0,0.0,0.0,0.0,0.0,-0.05177231354045732,1.3755232283851497,1.5414973743233662,-0.6354991954290702,-1.3155164976582023,0.03149986508531716,0.010959508696076845,-0.03783518090808219,-1.3708597524286747,-1.5488228918671265,-0.6736644378752581,2.1738558298696837,-0.02302063604566411,-0.036018221758652255
52,0.0,0.0,0.0,0.0,0.0,0.0,0.0,0.0,0.0,0.0,0.0,0.0,0.0,0.0,0.0,0.0,0.0,0.0,-0.05146177397373859,1.403932498313309,1.5408215711483524,-0.46229990230111495,-1.0638522502697123,0.0073710381827427895,-0.037777467857869604,-0.0349227302004158,-1.3744955292173213,-1.5495853160049409,-0.5725069165466746,2.191985088833068,-0.02207998664310772,-0.03928881823566804
53,0.0,0.0,0.0,0.0,0.0,0.0,0.0,0.0,0.0,0.0,0.0,0.0,0.0,0.0,0.0,0.0,0.0,0.0,-0.051148200767707624,1.4221976442590614,1.5398245877908976,-0.29203528225797415,-0.8144160185708702,-0.02884338432700498,-0.0581371825772962,-0.03414667441035084,-1.361450069858326,-1.5511571602728116,-0.460904290392808,1.700221642618885,-0.004304979819157246,0.0012778950552418053
54,0.0,0.0,0.0,0.0,0.0,0.0,0.0,0.0,0.0,0.0,0.0,0.0,0.0,0.0,0.0,0.0,0.0,0.0,-0.05074997353400262,1.4112503632907367,1.5424204333892395,-0.17215529722391515,-0.663260255908635,-0.06481871377065532,-0.10144150571136432,-0.03174836101802643,-1.3364404925641458,-1.5540301893396313,-0.3556668662404249,1.2895481379128615,-0.016595029994198367,0.06038919045430075
55,0.0,0.0,0.0,0.0,0.0,0.0,0.0,0.0,0.0,0.0,0.0,0.0,0.0,0.0,0.0,0.0,0.0,0.0,-0.04656589554775083,1.3928108522465463,1.5441936328074268,-0.08179136242198441,-0.5739503583830432,-0.09600382806175402,-0.12974025041289564,-0.03239792172488396,-1.3079639408605699,-1.5547772727973437,-0.2778474556912306,1.013986268137263,-0.025619469197242062,0.08804864069408319
56,0.0,0.0,0.0,0.0,0.0,0.0,0.0,0.0,0.0,0.0,0.0,0.0,0.0,0.0,0.0,0.0,0.0,0.0,-0.04566477665794184,1.3695357252690097,1.5472671408393837,-0.028639749399416582,-0.4874608438214847,-0.11843679307877691,-0.14646401816404156,-0.03307908426671934,-1.2896945180911086,-1.5556798351163061,-0.2268228768893248,0.8026146688664564,-0.02916219610620858,0.102576610551062
57,0.0,0.0,0.0,0.0,0.0,0.0,0.0,0.0,0.0,0.0,0.0,0.0,0.0,0.0,0.0,0.0,0.0,0.0,-0.04476500757675208,1.355641942845767,1.5486164166065506,0.009806754824423773,-0.4288756185031994,-0.13717188866737054,-0.1595924132756181,-0.035475218668450374,-1.2853421838718588,-1.5558485459330422,-0.19727333258997445,0.6444955964621385,-0.02948565984559338,0.11135833867310113
58,0.0,0.0,0.0,0.0,0.0,0.0,0.0,0.0,0.0,0.0,0.0,0.0,0.0,0.0,0.0,0.0,0.0,0.0,-0.046188276219066224,1.354438465888231,1.5484782190788098,0.011841356124765227,-0.4167762137721875,-0.12794118166916077,-0.1579736119424745,-0.03787066488215599,-1.2870192565943122,-1.555871957463336,-0.19669546226680065,0.5794177907797453,-0.02208040730789229,0.11919407480733242
59,0.0,0.0,0.0,0.0,0.0,0.0,0.0,0.0,0.0,0.0,0.0,0.0,0.0,0.0,0.0,0.0,0.0,0.0,-0.04779251176684278,1.3701529524471807,1.5482418991483715,0.006831475257468271,-0.38050352612146476,-0.11721320332129381,-0.1572697702011155,-0.03545925114178003,-1.3045964418026288,-1.556216953596401,-0.22646290054511128,0.7046607133774284,0.0011206220411495611,0.10170410449420225
60,0.0,0.0,0.0,0.0,0.0,0.0,0.0,0.0,0.0,0.0,0.0,0.0,0.0,0.0,0.0,0.0,0.0,0.0,-0.051443580545331574,1.3860516324739154,1.5465346552286239,-0.025043843349912304,-0.36835932805306393,-0.11337427929191184,-0.15995467058123444,-0.03496220374426575,-1.3327865346876209,-1.555226596848216,-0.2857063412370374,1.0452726899908724,0.013672289537331649,0.041643823910454916
61,0.0,0.0,0.0,0.0,0.0,0.0,0.0,0.0,0.0,0.0,0.0,0.0,0.0,0.0,0.0,0.0,0.0,0.0,-0.03523888949853442,1.3858098097263514,1.5488230218370418,-0.14737176817313608,-0.6671066588850882,-0.0821925304112588,-0.11214427029635857,-0.03778275798340225,-1.3446388213835772,-1.5529033920326343,-0.3420446852352242,1.022182404201137,0.028665702502003614,0.040527049030653114
62,0.0,0.0,0.0,0.0,0.0,0.0,0.0,0.0,0.0,0.0,0.0,0.0,0.0,0.0,0.0,0.0,0.0,0.0,-0.03876611977421595,1.382774569158164,1.5468380407357047,-0.27740706445771945,-0.7728117821417373,-0.042120801876559796,-0.08866185215200578,-0.039314795675388,-1.3620982932304326,-1.5519216242261067,-0.4306452810711471,1.1341108887266467,0.04801043977911699,-0.013798782773896318
63,0.0,0.0,0.0,0.0,0.0,0.0,0.0,0.0,0.0,0.0,0.0,0.0,0.0,0.0,0.0,0.0,0.0,0.0,-0.04030374294172116,1.3841911862174947,1.5464504010418836,-0.4249472786674209,-1.0058128611199393,-0.009376963017167061,-0.03301932148789782,-0.041305552528102835,-1.380255016243384,-1.5501846989895542,-0.5123879581670641,1.2058173065211624,0.05678889938035085,-0.03254440943597636
64,0.0,0.0,0.0,0.0,0.0,0.0,0.0,0.0,0.0,0.0,0.0,0.0,0.0,0.0,0.0,0.0,0.0,0.0,-0.042967541114232816,1.3781004442768636,1.5452116899552768,-0.5552883523428283,-1.0983464267610275,0.012117729422631486,-0.005776478166261374,-0.04750262631278503,-1.3935525372503905,-1.5463077762306086,-0.5866259166775241,1.2038920821402765,0.061617376165461216,-0.03634409493212704
65,0.0,0.0,0.0,0.0,0.0,0.0,0.0,0.0,0.0,0.0,0.0,0.0,0.0,0.0,0.0,0.0,0.0,0.0,-0.04568954037357632,1.3665863673150196,1.5440231016768935,-0.6672420911230164,-1.129289121523474,0.029512662365307335,0.007944342432217333,-0.051398439515818246,-1.3973369315120996,-1.544415359847135,-0.6629079401519333,1.18954338766024,0.06484866896257513,-0.045456546259853764
66,0.0,0.0,0.0,0.0,0.0,0.0,0.0,0.0,0.0,0.0,0.0,0.0,0.0,0.0,0.0,0.0,0.0,0.0,-0.048535951074464734,1.3526498699035634,1.54315623542475,-0.7483424141712551,-1.1500886601818712,0.03835950811301282,0.013108203058933381,-0.05394530681525388,-1.3994896854177512,-1.5422238076117318,-0.7188663741904925,1.2191053760375212,0.06370962390586087,-0.04243933021339478
67,0.0,0.0,0.0,0.0,0.0,0.0,0.0,0.0,0.0,0.0,0.0,0.0,0.0,0.0,0.0,0.0,0.0,0.0,-0.05332185989424493,1.3580847000090885,1.5397976663842716,-0.7821942817642202,-1.036633010902136,0.05267978882559135,0.019955193156482885,-0.05952381288553331,-1.4024075100171278,-1.5381227328462153,-0.7375819784960712,1.3661353682890423,0.06568876434207647,-0.03318375386947314
68,0.0,0.0,0.0,0.0,0.0,0.0,0.0,0.0,0.0,0.0,0.0,0.0,0.0,0.0,0.0,0.0,0.0,0.0,-0.06007349577337296,1.3666605953715683,1.5353516466719186,-0.7586523530060678,-1.0236202541323274,0.04959560420239371,0.0013497215997797136,-0.059699010985771093,-1.4138856310041847,-1.5349667931555235,-0.7130459444036011,1.2059055202036781,0.05226947772854411,-0.0126712666710561
69,0.0,0.0,0.0,0.0,0.0,0.0,0.0,0.0,0.0,0.0,0.0,0.0,0.0,0.0,0.0,0.0,0.0,0.0,-0.06288714210857363,1.3727834548893323,1.5336650725306236,-0.6879110439283859,-0.9011229809248122,0.0266815319160684,-0.041009320802754615,-0.05708960224605535,-1.41379469438115,-1.5356005478017054,-0.672638025249887,1.168211606469861,0.04948180614952854,-0.004971689138437661
70,0.0,0.0,0.0,0.0,0.0,0.0,0.0,0.0,0.0,0.0,0.0,0.0,0.0,0.0,0.0,0.0,0.0,0.0,-0.06904944135798984,1.3986784421167502,1.5293595051283466,-0.5768665343796424,-0.7140582274929527,0.01788755350616812,-0.0696502679418658,-0.05493756250713914,-1.4152319275596525,-1.5370719346111277,-0.5893812600090558,1.0198903615033739,0.03742298257919647,0.02020553136821771
71,0.0,0.0,0.0,0.0,0.0,0.0,0.0,0.0,0.0,0.0,0.0,0.0,0.0,0.0,0.0,0.0,0.0,0.0,-0.06353344268088619,1.4360295378090637,1.5282749382088785,-0.3913197472842024,-0.540715716819713,-0.040838085070030256,-0.07633737898914726,-0.0531903297425995,-1.4375595026061248,-1.5371624459835602,-0.5087326325203948,1.4250883400163372,0.02444311378881568,-0.002793032618156485
72,0.0,0.0,0.0,0.0,0.0,0.0,0.0,0.0,0.0,0.0,0.0,0.0,0.0,0.0,0.0,0.0,0.0,0.0,-0.06967088965968715,1.4801356912699009,1.5220626999511557,-0.201473590103002,-0.548397551788387,-0.07007414905861807,-0.12044031604999753,-0.045675460354526534,-1.442260499349894,-1.5410646121901863,-0.4045299301599994,1.3013795944405897,0.028128733106337008,0.014640749338409843
73,0.0,0.0,0.0,0.0,0.0,0.0,0.0,0.0,0.0,0.0,0.0,0.0,0.0,0.0,0.0,0.0,0.0,0.0,-0.06299165861025424,1.4982643125942674,1.5256466530664137,-0.05292805596255595,-0.579221358580072,-0.08326335773825033,-0.1521643285524925,-0.04411448606938274,-1.4255485705865483,-1.5445290292182525,-0.299226519321675,1.029051552779205,0.006614219761185248,0.07186540718979217
74,0.0,0.0,0.0,0.0,0.0,0.0,0.0,0.0,0.0,0.0,0.0,0.0,0.0,0.0,0.0,0.0,0.0,0.0,-0.058574819557203874,1.4860340873381055,1.5296703999920391,0.06485377374624635,-0.5745719125223198,-0.10659905629041375,-0.18496437419897716,-0.041525762016936404,-1.3986679088866505,-1.5470488602962797,-0.1938934359401717,0.8449213349936648,-0.023405662413577725,0.12794113610203384
75,0.0,0.0,0.0,0.0,0.0,0.0,0.0,0.0,0.0,0.0,0.0,0.0,0.0,0.0,0.0,0.0,0.0,0.0,-0.05320881720392059,1.4548379149077793,1.5344517853912054,0.1388413216916327,-0.5413692345332469,-0.13407882299746385,-0.20695147373328887,-0.04089936983741713,-1.379973894064477,-1.5491836715072302,-0.10299641509862957,0.6779308740583883,-0.053088827444092976,0.14204109995552655
76,0.0,0.0,0.0,0.0,0.0,0.0,0.0,0.0,0.0,0.0,0.0,0.0,0.0,0.0,0.0,0.0,0.0,0.0,-0.0496643648286039,1.4291110642454103,1.5384996778617601,0.19089713993457166,-0.5056724683504392,-0.1536962246013697,-0.21991372924037494,-0.04056810335603418,-1.3642869861587363,-1.5505658310129462,-0.039904402349522514,0.5603424812148743,-0.07052452064928705,0.14946155618650667
77,0.0,0.0,0.0,0.0,0.0,0.0,0.0,0.0,0.0,0.0,0.0,0.0,0.0,0.0,0.0,0.0,0.0,0.0,-0.04759041430857465,1.413660344421069,1.5411317820042265,0.22911705240858934,-0.4756518407790314,-0.1678690006490879,-0.22711082797621715,-0.041203166085835276,-1.3597414442101246,-1.5508007749218198,0.007232674858662871,0.47829120399640745,-0.08460290434865368,0.15367139244789657
78,0.0,0.0,0.0,0.0,0.0,0.0,0.0,0.0,0.0,0.0,0.0,0.0,0.0,0.0,0.0,0.0,0.0,0.0,-0.04712749075551173,1.4100644469763197,1.5425437934244732,0.25767074467529266,-0.4449085993956739,-0.18542818858612606,-0.2312745194390446,-0.04355404672244959,-1.3601664233469068,-1.5514209838932114,0.02475196044546647,0.42088725187821535,-0.08740289928257283,0.16014343691676383
79,0.0,0.0,0.0,0.0,0.0,0.0,0.0,0.0,0.0,0.0,0.0,0.0,0.0,0.0,0.0,0.0,0.0,0.0,-0.04843445687067088,1.4267029433850338,1.5429498833612159,0.27209680544105735,-0.3886413043445403,-0.19468506362718702,-0.2189954301938961,-0.044326963614067384,-1.3741252583504773,-1.5505192207051606,0.019329699953655452,0.3961915693140781,-0.08086853323576763,0.1550542254600679
80,0.0,0.0,0.0,0.0,0.0,0.0,0.0,0.0,0.0,0.0,0.0,0.0,0.0,0.0,0.0,0.0,0.0,0.0,-0.05642953134845565,1.4526211324116318,1.5404457556374915,0.26282595569869666,-0.32774566198359495,-0.18398845429961105,-0.20394724079432916,-0.04414652208279847,-1.3909926873506488,-1.5494849321601842,-0.02624738320317687,0.4235033990377283,-0.06327512471187625,0.14554484906832776
81,0.0,0.0,0.0,0.0,0.0,0.0,0.0,0.0,0.0,0.0,0.0,0.0,0.0,0.0,0.0,0.0,0.0,0.0,-0.06783365769455992,1.4829827876120927,1.533187365684485,0.24694447442505837,-0.3342913896861746,-0.18423927907485127,-0.21089770600830957,-0.043676404009598706,-1.4210292037127217,-1.5477648477387937,-0.1051791412679656,0.6798114393480263,-0.01910309123710805,0.10475423045872065
82,0.0,0.0,0.0,0.0,0.0,0.0,0.0,0.0,0.0,0.0,0.0,0.0,0.0,0.0,0.0,0.0,0.0,0.0,-0.05703671681318812,1.497792869993095,1.535707637498429,0.16440624475489612,-0.36955916292501384,-0.18112988216186668,-0.19139332496319247,-0.04845403741526418,-1.4394341585722192,-1.5449995062600688,-0.197732602104769,0.8030142745428784,0.012384625486745869,0.06976100715283834
83,0.0,0.0,0.0,0.0,0.0,0.0,0.0,0.0,0.0,0.0,0.0,0.0,0.0,0.0,0.0,0.0,0.0,0.0,-0.043704421751218886,1.4831813454889822,1.5397219650417733,-0.00243782778800844,-0.4964177390657642,-0.14142033763582254,-0.16674604662650483,-0.047500209320503375,-1.437828220206922,-1.5439811833634913,-0.3025983746550809,1.0140898298594083,0.02426536371269137,0.07393832793093515
84,0.0,0.0,0.0,0.0,0.0,0.0,0.0,0.0,0.0,0.0,0.0,0.0,0.0,0.0,0.0,0.0,0.0,0.0,-0.03751808718628166,1.464957384426374,1.5391992113080362,-0.17135164863820848,-0.6019444684613837,-0.11947671489930925,-0.13592313233234776,-0.050279715091320044,-1.4427921999738265,-1.5409464113689462,-0.4064790425767112,1.058223528571933,0.026001861691374837,0.0640937720977158
85,0.0,0.0,0.0,0.0,0.0,0.0,0.0,0.0,0.0,0.0,0.0,0.0,0.0,0.0,0.0,0.0,0.0,0.0,-0.038936167814181494,1.447344846643885,1.5383148089232452,-0.3336602432768826,-0.7203309114103331,-0.08533326444180384,-0.11627600200527674,-0.056066846916826736,-1.445131458200849,-1.5362092095468531,-0.5037949748811482,1.0821031369847727,0.024768390018667197,0.06008448355259195
86,0.0,0.0,0.0,0.0,0.0,0.0,0.0,0.0,0.0,0.0,0.0,0.0,0.0,0.0,0.0,0.0,0.0,0.0,-0.04779742300350916,1.4330161343524817,1.5358360805245557,-0.47199998954519484,-0.7386800553524699,-0.05688660299859902,-0.09305369948160677,-0.059782451337290134,-1.4449273158539866,-1.532064479934591,-0.5869421890187508,1.1133162985073206,0.02458083956217495,0.061732915582746926
87,0.0,0.0,0.0,0.0,0.0,0.0,0.0,0.0,0.0,0.0,0.0,0.0,0.0,0.0,0.0,0.0,0.0,0.0,-0.0526762473761092,1.4176398154143932,1.5345921412018677,-0.5776942150236795,-0.8707676673137771,-0.026535129940828097,-0.07557248014072533,-0.06305965708427226,-1.4466331398399073,-1.5284807673077319,-0.6434483985025717,1.1118831731164964,0.022659700147687846,0.06270972801032926
88,0.0,0.0,0.0,0.0,0.0,0.0,0.0,0.0,0.0,0.0,0.0,0.0,0.0,0.0,0.0,0.0,0.0,0.0,-0.05937531065266767,1.414440567868046,1.5319765084068282,-0.6306593050397383,-1.0375153918506486,-0.0010710462471060604,-0.06871942620514834,-0.07139699579961903,-1.4511996252478763,-1.522805555744409,-0.6666031918553489,1.062003749357125,0.021701461268976034,0.05869182800488026
89,0.0,0.0,0.0,0.0,0.0,0.0,0.0,0.0,0.0,0.0,0.0,0.0,0.0,0.0,0.0,0.0,0.0,0.0,-0.06496831857177986,1.4252178422002195,1.5279730368559246,-0.6223763333766952,-0.9295586506066141,-0.000529537323812803,-0.07367733841078207,-0.07663760426956086,-1.4543611418566575,-1.5204702532079228,-0.6493249697796986,0.9872846981843422,0.01929990166995795,0.07065827342967783
90,0.0,0.0,0.0,0.0,0.0,0.0,0.0,0.0,0.0,0.0,0.0,0.0,0.0,0.0,0.0,0.0,0.0,0.0,-0.0673564815491148,1.4310122098745155,1.5259686349423243,-0.556531259480255,-0.8458939934499782,-0.02069905458496203,-0.10819816981440905,-0.07335820443570736,-1.4555973677089342,-1.5224777559660603,-0.5959850879108454,0.8836674500629252,0.004882207203624627,0.08457636253646311
91,0.0,0.0,0.0,0.0,0.0,0.0,0.0,0.0,0.0,0.0,0.0,0.0,0.0,0.0,0.0,0.0,0.0,0.0,-0.07756929857909156,1.4567362846822034,1.518869625620771,-0.45289454961717546,-0.8240446031471985,-0.01405278160771964,-0.1285553381859931,-0.07096232825079861,-1.4717265301473317,-1.522817913121456,-0.5015829828098076,0.8564365516047844,0.0012267099167409755,0.09043647729734057
92,0.0,0.0,0.0,0.0,0.0,0.0,0.0,0.0,0.0,0.0,0.0,0.0,0.0,0.0,0.0,0.0,0.0,0.0,-0.0795208641106084,1.4836543007979415,1.5174083838320884,-0.2822593503808719,-0.8086701266860135,-0.0412078793121422,-0.1814800287152059,-0.0702438740900748,-1.496647078772014,-1.5241404630652642,-0.40837122561587585,0.9053455388462813,0.023743963412475616,0.0708718184677157
93,0.0,0.0,0.0,0.0,0.0,0.0,0.0,0.0,0.0,0.0,0.0,0.0,0.0,0.0,0.0,0.0,0.0,0.0,-0.07949389917733113,1.5236113854554703,1.5125986404672143,-0.10547243336970355,-0.7163323740189789,-0.08888748814873185,-0.19312871362583353,-0.06607934716324314,-1.4983673204532235,-1.5296322040110966,-0.30260592608448855,0.7841275714858977,0.014815088948659435,0.10169189460485968
94,0.0,0.0,0.0,0.0,0.0,0.0,0.0,0.0,0.0,0.0,0.0,0.0,0.0,0.0,0.0,0.0,0.0,0.0,-0.07178243937938213,1.5396316844427371,1.5168561948800623,0.04532728732101729,-0.6747036643536125,-0.11926998267818097,-0.22067749516689833,-0.05789979266694578,-1.4891008415477571,-1.533717760612014,-0.184603023946954,0.6822603067696899,-0.018938934996162594,0.1360936339653831
95,0.0,0.0,0.0,0.0,0.0,0.0,0.0,0.0,0.0,0.0,0.0,0.0,0.0,0.0,0.0,0.0,0.0,0.0,-0.06644797846792233,1.5382559416777726,1.5208582311575896,0.16658114894863052,-0.6309177259610654,-0.14798768324740016,-0.24269589614840423,-0.05172894398982601,-1.4711287653085143,-1.5376780462628654,-0.08643788566377562,0.5864467327218211,-0.04611537611631017,0.1443222781215579
96,0.0,0.0,0.0,0.0,0.0,0.0,0.0,0.0,0.0,0.0,0.0,0.0,0.0,0.0,0.0,0.0,0.0,0.0,-0.05797313549154029,1.514151404910432,1.5270821322011041,0.24202707392395592,-0.5862780220745557,-0.16665456891442312,-0.2501262968762468,-0.04941670239787741,-1.4484118326966973,-1.5410746698172577,-0.013993254337197863,0.5099697426394083,-0.061805352970245836,0.15038536005284114
97,0.0,0.0,0.0,0.0,0.0,0.0,0.0,0.0,0.0,0.0,0.0,0.0,0.0,0.0,0.0,0.0,0.0,0.0,-0.054632638341426586,1.4968954282356401,1.5314952856737043,0.28998091310954716,-0.534147554783272,-0.1819849704055283,-0.2509004591574461,-0.04946280252940798,-1.430723152873167,-1.5437428567338904,0.03262571115644504,0.43958608922670944,-0.07322968491784802,0.15465622246263347
98,0.0,0.0,0.0,0.0,0.0,0.0,0.0,0.0,0.0,0.0,0.0,0.0,0.0,0.0,0.0,0.0,0.0,0.0,-0.05496561464341979,1.4847702429476268,1.535272531623913,0.30555471972720205,-0.4504800863228612,-0.19910983906893995,-0.2388027253191321,-0.05057068003401529,-1.4216695549024587,-1.5456641855879494,0.045745163696761904,0.38835963036251975,-0.07684363768163453,0.15861619329510154
99,0.0,0.0,0.0,0.0,0.0,0.0,0.0,0.0,0.0,0.0,0.0,0.0,0.0,0.0,0.0,0.0,0.0,0.0,-0.05468394503299417,1.4772331220904762,1.537410224731436,0.27438361983076853,-0.4095856878564065,-0.19577135404547297,-0.2314700223568126,-0.05158097975180384,-1.420159341849435,-1.546177365743743,0.03305778645678475,0.3562374480350696,-0.08073843808475661,0.15752844675676664
100,0.0,0.0,0.0,0.0,0.0,0.0,0.0,0.0,0.0,0.0,0.0,0.0,0.0,0.0,0.0,0.0,0.0,0.0,-0.06086070068011251,1.4940084059075975,1.5345677860686084,0.2409758219777549,-0.3668043096317434,-0.18471280940970292,-0.21315119364055146,-0.048324666985264345,-1.4266926483738631,-1.5459396865443726,-0.022910934502526063,0.40113444643891605,-0.0664020378749741,0.13906295970930257
101,0.0,0.0,0.0,0.0,0.0,0.0,0.0,0.0,0.0,0.0,0.0,0.0,0.0,0.0,0.0,0.0,0.0,0.0,-0.06321916247956912,1.5021319830104736,1.5307496909364802,0.16246408439429774,-0.49206739008592126,-0.15294257169763775,-0.23169971289067304,-0.05104672909777627,-1.43837847537291,-1.543165371935146,-0.1115788480894162,0.5364459363582509,-0.032286874423688924,0.11548106695299809
102,0.0,0.0,0.0,0.0,0.0,0.0,0.0,0.0,0.0,0.0,0.0,0.0,0.0,0.0,0.0,0.0,0.0,0.0,-0.047541910506825505,1.4860589739920813,1.536327971733463,-0.007996213275706904,-0.618195481096447,-0.1133408213186906,-0.1828830536139518,-0.048218721058425416,-1.4350691113963665,-1.542332349445185,-0.2102144463670091,0.670286870099323,-0.02178126249495778,0.10734944840116162
103,0.0,0.0,0.0,0.0,0.0,0.0,0.0,0.0,0.0,0.0,0.0,0.0,0.0,0.0,0.0,0.0,0.0,0.0,-0.03740670868517561,1.4666220853424468,1.539797186301596,-0.18239650447964345,-0.7402871354096103,-0.08451635597875119,-0.13358362855130027,-0.041315677732127506,-1.4280484080651565,-1.542432589487231,-0.3376219826854928,0.8268942800736189,-0.015518279388364916,0.09165388995625753
104,0.0,0.0,0.0,0.0,0.0,0.0,0.0,0.0,0.0,0.0,0.0,0.0,0.0,0.0,0.0,0.0,0.0,0.0,-0.038764118624592156,1.4445029182063487,1.5387319936449262,-0.350447999052028,-0.8290191132725955,-0.05683480335063404,-0.10860796637952488,-0.045599027527645,-1.4229801925169083,-1.5394987708678893,-0.45569898452258384,0.8566156479602027,-0.013802265103388013,0.08690586432051588
105,0.0,0.0,0.0,0.0,0.0,0.0,0.0,0.0,0.0,0.0,0.0,0.0,0.0,0.0,0.0,0.0,0.0,0.0,-0.0460695101250916,1.418917539685708,1.536113025276988,-0.490225406864327,-0.8586574107150642,-0.03689583290329854,-0.09991453974009568,-0.04870193834522961,-1.4154283115007398,-1.5375808972450418,-0.5635411663780642,0.8940447134688492,-0.010466658633513561,0.07959124719651267
106,0.0,0.0,0.0,0.0,0.0,0.0,0.0,0.0,0.0,0.0,0.0,0.0,0.0,0.0,0.0,0.0,0.0,0.0,-0.05180401457481203,1.4056022879374712,1.533513236226617,-0.5826105997161974,-0.884791270798041,-0.020255165630666674,-0.08817262094608085,-0.052284049374152305,-1.41257394199658,-1.534680018436917,-0.6478309692861207,0.9833762730066217,0.0023923606854104607,0.06312984761388812
107,0.0,0.0,0.0,0.0,0.0,0.0,0.0,0.0,0.0,0.0,0.0,0.0,0.0,0.0,0.0,0.0,0.0,0.0,-0.053186802811794075,1.4067954863951841,1.5336660063733107,-0.6266377979487422,-0.9775074105138631,0.0011422313246626167,-0.055055847408183436,-0.0566338494036601,-1.4153678019539238,-1.5328806140519833,-0.697590933044659,1.0913801241965633,0.019979682320912982,0.028964221788659497
108,0.0,0.0,0.0,0.0,0.0,0.0,0.0,0.0,0.0,0.0,0.0,0.0,0.0,0.0,0.0,0.0,0.0,0.0,-0.06354950477084657,1.4119533681536363,1.5287800469928516,-0.6037758210639764,-0.7878628259017257,0.008045772632045386,-0.05867841656825958,-0.056647485661491005,-1.4283032572806413,-1.531068887032559,-0.6961337304143492,1.329050480605169,0.021085609640378863,0.004648113583338782
109,0.0,0.0,0.0,0.0,0.0,0.0,0.0,0.0,0.0,0.0,0.0,0.0,0.0,0.0,0.0,0.0,0.0,0.0,-0.07217032330974357,1.4202026864890989,1.5266645921636761,-0.5451152477894193,-0.9144589536798609,0.027074986750868266,-0.06671846241256889,-0.057764499231158506,-1.4290191096111828,-1.5318132928149448,-0.660760432679366,1.2434722771917583,0.032650154243368194,0.0046391648124210335
110,0.0,0.0,0.0,0.0,0.0,0.0,0.0,0.0,0.0,0.0,0.0,0.0,0.0,0.0,0.0,0.0,0.0,0.0,-0.07005791018716769,1.4379114276650065,1.5281143427321173,-0.4575728605185605,-0.7727459667934289,0.009101925236491535,-0.08227896800073957,-0.0552489913578776,-1.4264320720113415,-1.5346491504186042,-0.5806737727121545,1.1053556619699354,0.03260588117915132,0.018258863259484663
111,0.0,0.0,0.0,0.0,0.0,0.0,0.0,0.0,0.0,0.0,0.0,0.0,0.0,0.0,0.0,0.0,0.0,0.0,-0.06773416058341337,1.457955241751572,1.5260713334067548,-0.3774936647990945,-0.7139374152047512,-0.009072922423154033,-0.09845386000468397,-0.05204665150454136,-1.4203355926735535,-1.5369410240301435,-0.47140274070332444,0.9110386586170613,0.0052928755058930035,0.044497560591090404
112,0.0,0.0,0.0,0.0,0.0,0.0,0.0,0.0,0.0,0.0,0.0,0.0,0.0,0.0,0.0,0.0,0.0,0.0,-0.069376368696858,1.469851992628758,1.5252318165332954,-0.30474084946886804,-0.646265312014809,-0.03557756349159448,-0.12766865034018096,-0.0503935302342486,-1.417851848119021,-1.5386881257732117,-0.36169017105912127,0.8056395052412588,-0.0027884376082369985,0.0699398148764959
113,0.0,0.0,0.0,0.0,0.0,0.0,0.0,0.0,0.0,0.0,0.0,0.0,0.0,0.0,0.0,0.0,0.0,0.0,-0.06769948213049666,1.4653068246194791,1.527447648433692,-0.29464612696682085,-0.5664368525186821,-0.05386549131249756,-0.12489890032620161,-0.04713990229027729,-1.4097543824966163,-1.5422133329442047,-0.2301821205951835,0.7099838790097092,-0.032676407537581144,0.12619458512363307
114,0.0,0.0,0.0,0.0,0.0,0.0,0.0,0.0,0.0,0.0,0.0,0.0,0.0,0.0,0.0,0.0,0.0,0.0,-0.05620155061087577,1.4397822744302462,1.532200746394175,-0.33907661726945393,-0.6069637469468614,-0.06539607247243144,-0.13353340324092042,-0.04966363731122747,-1.3965362418824723,-1.5440057407053511,-0.10929945637112903,0.5905083945749388,-0.06373268540542103,0.15546634994766442
115,0.0,0.0,0.0,0.0,0.0,0.0,0.0,0.0,0.0,0.0,0.0,0.0,0.0,0.0,0.0,0.0,0.0,0.0,-0.05242226602505993,1.4046121864781689,1.5339157448889276,-0.4255632661457474,-0.6413807700414265,-0.0682735305805824,-0.143171466172587,-0.04457569317980824,-1.3805205106624259,-1.5480042195822312,-0.001168185392774121,0.48533534029236175,-0.1038377917168121,0.1697417396259511
116,0.0,0.0,0.0,0.0,0.0,0.0,0.0,0.0,0.0,0.0,0.0,0.0,0.0,0.0,0.0,0.0,0.0,0.0,-0.05198167888424317,1.3615693642608968,1.5314150162531701,-0.5528025216597058,-0.6721321132530035,-0.05885958586299925,-0.12364905570127012,-0.0427955924776869,-1.3637382569412604,-1.5503104303200448,0.07853170740501648,0.4101752925079137,-0.12426298066699377,0.17297498274856188
117,0.0,0.0,0.0,0.0,0.0,0.0,0.0,0.0,0.0,0.0,0.0,0.0,0.0,0.0,0.0,0.0,0.0,0.0,-0.048740152565199805,1.315546859043214,1.530689883682318,-0.6538504691061876,-0.7399270048548262,-0.06737818713156349,-0.15063775745552285,-0.04133222092407211,-1.3387170204961607,-1.552678911150728,0.13463159408578806,0.3706539540788369,-0.14801903879930273,0.18305447554932985
118,0.0,0.0,0.0,0.0,0.0,0.0,0.0,0.0,0.0,0.0,0.0,0.0,0.0,0.0,0.0,0.0,0.0,0.0,-0.05187666307375373,1.2970043929787751,1.5288849504404707,-0.7351769034700967,-0.7498228382135649,-0.06515680759356446,-0.14915157688393393,-0.043886984089114255,-1.3339148885805754,-1.553492500956636,0.15292876901715774,0.3122857982632742,-0.14886208423969716,0.17787059717202036
119,0.0,0.0,0.0,0.0,0.0,0.0,0.0,0.0,0.0,0.0,0.0,0.0,0.0,0.0,0.0,0.0,0.0,0.0,-0.05362650563445997,1.2945490932644275,1.5257624871227191,-0.7762136258938768,-0.7522968894991052,-0.0646254891038881,-0.14041724308474762,-0.045154680767810595,-1.3332768433752067,-1.5547676821257619,0.14943262808324712,0.27463722045964806,-0.15522777801919735,0.18047987811733043
120,0.0,0.0,0.0,0.0,0.0,0.0,0.0,0.0,0.0,0.0,0.0,0.0,0.0,0.0,0.0,0.0,0.0,0.0,-0.06502115437352204,1.3214240526895955,1.5226754622165073,-0.767665387978431,-0.7061501722653905,-0.04199080333468816,-0.11968131247212016,-0.04513406203198265,-1.3582295523947086,-1.5524055836227149,0.13615142413740317,0.29124531552186333,-0.15091491499431672,0.17742627068354538
121,0.0,0.0,0.0,0.0,0.0,0.0,0.0,0.0,0.0,0.0,0.0,0.0,0.0,0.0,0.0,0.0,0.0,0.0,-0.0708732382283745,1.34900201665717,1.5224228568642661,-0.7188793457698346,-0.8403823236021546,-0.02048855145667927,-0.1182435378434341,-0.044357053624645655,-1.3575225403092834,-1.55180564547976,0.09423501340808868,0.27870399227411485,-0.1763004575938366,0.18360962759635793
122,0.0,0.0,0.0,0.0,0.0,0.0,0.0,0.0,0.0,0.0,0.0,0.0,0.0,0.0,0.0,0.0,0.0,0.0,-0.06852786026929096,1.3834943165848406,1.5233835509324092,-0.5956206767733025,-0.7546363602247248,-0.04923503026246666,-0.13882210591358773,-0.04354392440194812,-1.385069268536834,-1.5496622575519474,0.007238794408869292,0.3870474203964031,-0.1181710581101091,0.15655724010657643
123,0.0,0.0,0.0,0.0,0.0,0.0,0.0,0.0,0.0,0.0,0.0,0.0,0.0,0.0,0.0,0.0,0.0,0.0,-0.06801411074833046,1.4146683212394184,1.522339263330172,-0.44587896299011553,-0.6488397095877717,-0.0751673354969439,-0.1405041009331449,-0.04099719402352783,-1.4052246645899233,-1.549140824741437,-0.12068759003338717,0.7512841088280326,-0.06049527856617574,0.09046904013109232
124,0.0,0.0,0.0,0.0,0.0,0.0,0.0,0.0,0.0,0.0,0.0,0.0,0.0,0.0,0.0,0.0,0.0,0.0,-0.06646101322250313,1.4488427901131484,1.5250631819555809,-0.2764889669231851,-0.6709382527318464,-0.0830819547530279,-0.21234424912199013,-0.04494808808269598,-1.4050935549381984,-1.5474801195976473,-0.26317049229019696,0.9610445641060772,-0.020121901390668634,0.061547526095203094
125,0.0,0.0,0.0,0.0,0.0,0.0,0.0,0.0,0.0,0.0,0.0,0.0,0.0,0.0,0.0,0.0,0.0,0.0,-0.06124280187888626,1.4633051066176457,1.5282397101101923,-0.11625702589742476,-0.6368145643386353,-0.11149981186585078,-0.25868997236948554,-0.04390368857423054,-1.3989529078906253,-1.5483377488170793,-0.4120661483104713,1.0619760372748879,0.011970280403887174,0.007138702255560771
126,0.0,0.0,0.0,0.0,0.0,0.0,0.0,0.0,0.0,0.0,0.0,0.0,0.0,0.0,0.0,0.0,0.0,0.0,-0.05516090082450735,1.4592827326406999,1.5314925040990157,0.002517997109723752,-0.5822696773595885,-0.14307435598064558,-0.24993025812512057,-0.04480534667401944,-1.39161399844173,-1.5483274558235505,-0.5506129412670512,1.1764967929665906,0.02671150065205194,-0.010841740753417557
127,0.0,0.0,0.0,0.0,0.0,0.0,0.0,0.0,0.0,0.0,0.0,0.0,0.0,0.0,0.0,0.0,0.0,0.0,-0.05171784395516433,1.4357730908030093,1.5351297787182918,0.08572325619920046,-0.5359474519704257,-0.1660826010814929,-0.2484488067953896,-0.045947020841171034,-1.3694467959527445,-1.5483903197427749,-0.6947623459041553,1.1959695667974821,0.045927575505282564,-0.04486949080756099
128,0.0,0.0,0.0,0.0,0.0,0.0,0.0,0.0,0.0,0.0,0.0,0.0,0.0,0.0,0.0,0.0,0.0,0.0,-0.045609678395851866,1.4050243933954194,1.5396349548804327,0.16058244427094734,-0.4958066764082405,-0.1839624589271101,-0.24555925233637546,-0.04724529990576642,-1.3258305003196393,-1.54762343247019,-0.8091972410413383,1.2721543373740478,0.045993308535873946,-0.016622859603665965
129,0.0,0.0,0.0,0.0,0.0,0.0,0.0,0.0,0.0,0.0,0.0,0.0,0.0,0.0,0.0,0.0,0.0,0.0,-0.042377444474647384,1.3796527079984933,1.5431163181873606,0.21363544456433145,-0.4518559147712568,-0.1931917290185975,-0.2397270735740139,-0.04850112548732588,-1.2872560477166959,-1.5467245037375446,-0.8888327012703251,1.2772700922945361,0.04141741837152184,0.012398211647196792
130,0.0,0.0,0.0,0.0,0.0,0.0,0.0,0.0,0.0,0.0,0.0,0.0,0.0,0.0,0.0,0.0,0.0,0.0,-0.0411015699400395,1.3651941278947817,1.5458264481945485,0.25251889260150384,-0.42189731877223624,-0.19896726702266426,-0.23845190563051047,-0.04959386629591662,-1.2717945156712587,-1.5438230849367116,-0.9291784562759009,1.2143229947810312,0.03582577436846537,0.02558074022049438
131,0.0,0.0,0.0,0.0,0.0,0.0,0.0,0.0,0.0,0.0,0.0,0.0,0.0,0.0,0.0,0.0,0.0,0.0,-0.041636325338304685,1.3640104976571052,1.5478589576791657,0.2669856902990579,-0.37998679868282487,-0.20439850133554352,-0.2299451820180289,-0.05250938776018066,-1.2615119818670733,-1.540836008000367,-0.9274329033402609,1.1478229894909526,0.024488743082833494,0.05254248389787247
132,0.0,0.0,0.0,0.0,0.0,0.0,0.0,0.0,0.0,0.0,0.0,0.0,0.0,0.0,0.0,0.0,0.0,0.0,-0.042634930785162874,1.3706132500729156,1.5463421808163142,0.2530961096183244,-0.36405909102904027,-0.2190595471666174,-0.23420847188455568,-0.05493682551502926,-1.2833763142599253,-1.539126728974968,-0.887357898048161,1.2021205390771732,0.03295867946338665,0.028074790708817632
133,0.0,0.0,0.0,0.0,0.0,0.0,0.0,0.0,0.0,0.0,0.0,0.0,0.0,0.0,0.0,0.0,0.0,0.0,-0.04363165284274106,1.3740574742461888,1.544722971147635,0.20448665488450873,-0.3737235753598951,-0.21616214398070757,-0.22774969413500012,-0.05063363643273761,-1.2994098546662407,-1.5412281045096363,-0.8348741240226211,1.5063473302754564,0.030711009936844662,-0.0015017966028808873
134,0.0,0.0,0.0,0.0,0.0,0.0,0.0,0.0,0.0,0.0,0.0,0.0,0.0,0.0,0.0,0.0,0.0,0.0,-0.051873514985767824,1.3933476666554174,1.5415155219021563,0.1631071844042955,-0.3395144496420718,-0.20170270738069376,-0.2098654630289062,-0.04397965660564196,-1.3113859172716222,-1.5448712009347567,-0.7661935691977715,1.6569174838764942,0.02473114628807898,-0.03135331962209001
135,0.0,0.0,0.0,0.0,0.0,0.0,0.0,0.0,0.0,0.0,0.0,0.0,0.0,0.0,0.0,0.0,0.0,0.0,-0.04800599795251424,1.3918015271785953,1.5431725979759263,0.07338065054352448,-0.31378568894940934,-0.218356179666407,-0.18653621307662047,-0.04090328309694172,-1.3201593869158514,-1.5476752596430337,-0.6803947479299776,1.6843161591454363,0.030922048510536104,-0.03197279706848923
136,0.0,0.0,0.0,0.0,0.0,0.0,0.0,0.0,0.0,0.0,0.0,0.0,0.0,0.0,0.0,0.0,0.0,0.0,-0.050597543482673556,1.3739468029685895,1.540129285520186,-0.06709881853583062,-0.3511672833488428,-0.18633377470689452,-0.167997115460706,-0.03806295756529165,-1.3166287888034085,-1.5494193292240872,-0.5666825803313547,1.400377733372714,0.02737713714442026,0.0060454618443243
137,0.0,0.0,0.0,0.0,0.0,0.0,0.0,0.0,0.0,0.0,0.0,0.0,0.0,0.0,0.0,0.0,0.0,0.0,-0.047495465660758,1.3501127741279155,1.5423765508670328,-0.22765958830704996,-0.3645840768738114,-0.1594316108247336,-0.1295253431925084,-0.03777164790150346,-1.296642466707228,-1.5512210502710126,-0.46486872362459697,1.1080251018016267,0.012543369494677272,0.04640717262447782
138,0.0,0.0,0.0,0.0,0.0,0.0,0.0,0.0,0.0,0.0,0.0,0.0,0.0,0.0,0.0,0.0,0.0,0.0,-0.04779235143253132,1.3233672912735395,1.5432344442294537,-0.3819594382464615,-0.43835929655463163,-0.11652587684281523,-0.11368374084081537,-0.04073000383462507,-1.2822175771644408,-1.551713578466266,-0.3665940377378494,0.8766150771251504,-0.011888220537679134,0.0883100605541931
139,0.0,0.0,0.0,0.0,0.0,0.0,0.0,0.0,0.0,0.0,0.0,0.0,0.0,0.0,0.0,0.0,0.0,0.0,-0.04571628129492158,1.297757500718263,1.543283541272566,-0.5193237473408328,-0.6575689981246178,-0.0756188603526644,-0.09262566340802315,-0.037332636707392494,-1.2555467588603302,-1.5535373140486681,-0.28148988318845397,0.7251257953580121,-0.039046975489661226,0.11405174495300303
140,0.0,0.0,0.0,0.0,0.0,0.0,0.0,0.0,0.0,0.0,0.0,0.0,0.0,0.0,0.0,0.0,0.0,0.0,-0.045492581536569536,1.2642883528742803,1.543630673170673,-0.6291560010885892,-0.7251902003883048,-0.05562591542232406,-0.10075179181355966,-0.035336913192614026,-1.2278483468195158,-1.5561866958866362,-0.22637107782414329,0.5837183387742028,-0.06006880283902312,0.12957885499891778
141,0.0,0.0,0.0,0.0,0.0,0.0,0.0,0.0,0.0,0.0,0.0,0.0,0.0,0.0,0.0,0.0,0.0,0.0,-0.04611159546183429,1.2411282297188502,1.5440677922636952,-0.7070110856815518,-0.7558276459784644,-0.03833343056483814,-0.10006502077679089,-0.03528816122710636,-1.205686228634341,-1.55779907245363,-0.18662536489436926,0.48169304471856833,-0.07985506334306096,0.1403676212265607
142,0.0,0.0,0.0,0.0,0.0,0.0,0.0,0.0,0.0,0.0,0.0,0.0,0.0,0.0,0.0,0.0,0.0,0.0,-0.046313139577257315,1.228750603053802,1.5437108281228538,-0.7337429939353789,-0.7387029431397454,-0.03335153399320806,-0.10596411768567059,-0.034451541998354936,-1.1971622568438065,-1.5582834040810023,-0.1624350239363562,0.4111660335696735,-0.09012649335918889,0.1417622334905906
143,0.0,0.0,0.0,0.0,0.0,0.0,0.0,0.0,0.0,0.0,0.0,0.0,0.0,0.0,0.0,0.0,0.0,0.0,-0.049832730917924895,1.2339028423793224,1.5428717955529343,-0.7302107865941625,-0.5999644661952661,-0.02302342042777392,-0.08894296363842794,-0.03595800448473621,-1.1948480278074245,-1.559324903925456,-0.1617234361517916,0.3810545216362325,-0.09303736367664758,0.15249423947356736
144,0.0,0.0,0.0,0.0,0.0,0.0,0.0,0.0,0.0,0.0,0.0,0.0,0.0,0.0,0.0,0.0,0.0,0.0,-0.05696773318705436,1.2437716964308627,1.540032049273733,-0.6810195345701381,-0.7098207654670338,-0.015599621732068641,-0.11765027277008339,-0.03665597522291004,-1.1943025307810662,-1.5587256927406061,-0.1913494199440556,0.38806788155069144,-0.08188989944966837,0.15053276450265418
145,0.0,0.0,0.0,0.0,0.0,0.0,0.0,0.0,0.0,0.0,0.0,0.0,0.0,0.0,0.0,0.0,0.0,0.0,-0.06247048532354131,1.2701712158652303,1.538588453696175,-0.581279100205969,-0.7486248417518967,-0.019675391425952638,-0.15532016949216293,-0.034840255407986354,-1.2083739581540582,-1.5581194582674933,-0.24534103826790193,0.45046834792730256,-0.055717944178572176,0.13558232836888853
146,0.0,0.0,0.0,0.0,0.0,0.0,0.0,0.0,0.0,0.0,0.0,0.0,0.0,0.0,0.0,0.0,0.0,0.0,-0.06675554109035622,1.3050957361025086,1.536622293929561,-0.45480968663551885,-0.7652961631451599,-0.013321020201833275,-0.17489595501991317,-0.03352319136791894,-1.2225963310108998,-1.5579999894719427,-0.32716415097277995,0.6475928507350486,-0.018120040139274964,0.10125808535143997
147,0.0,0.0,0.0,0.0,0.0,0.0,0.0,0.0,0.0,0.0,0.0,0.0,0.0,0.0,0.0,0.0,0.0,0.0,-0.06141638883713939,1.3333826099540986,1.538055986751503,-0.32461123678338455,-0.6982690717914327,-0.041758414010374445,-0.18265391067169262,-0.03328878373590789,-1.2320193239226918,-1.5593272652477512,-0.4329010539710101,1.011418188303371,0.00896349156546003,0.069896970707382
148,0.0,0.0,0.0,0.0,0.0,0.0,0.0,0.0,0.0,0.0,0.0,0.0,0.0,0.0,0.0,0.0,0.0,0.0,-0.05508867615404853,1.3491836087383966,1.5397886875925861,-0.21013005526005554,-0.6359388950443168,-0.07519602253458679,-0.18081150775963759,-0.0335045131441689,-1.235205647784818,-1.5583592652007199,-0.5407841716563468,1.208132172355767,0.02583085040558711,0.029054477085364225
149,0.0,0.0,0.0,0.0,0.0,0.0,0.0,0.0,0.0,0.0,0.0,0.0,0.0,0.0,0.0,0.0,0.0,0.0,-0.05069134454372651,1.338642669401638,1.5417603841148102,-0.1219211986566055,-0.5905709225008804,-0.10602605504925788,-0.19785401290398152,-0.03598487927279073,-1.2305946498662876,-1.5573212978202022,-0.6432197319266977,1.1808414481191118,0.03812401591082897,0.015547101865258189
150,0.0,0.0,0.0,0.0,0.0,0.0,0.0,0.0,0.0,0.0,0.0,0.0,0.0,0.0,0.0,0.0,0.0,0.0,-0.0460530959053366,1.3247401270570913,1.5441752451524664,-0.055737201007290516,-0.5241286050832364,-0.137844607509703,-0.20170944853687905,-0.03787717814252668,-1.221580230929777,-1.5562376591723004,-0.7512623271820641,1.1888115803890664,0.047187940595065675,-0.0026105623011173015
151,0.0,0.0,0.0,0.0,0.0,0.0,0.0,0.0,0.0,0.0,0.0,0.0,0.0,0.0,0.0,0.0,0.0,0.0,-0.04283957253314252,1.3080364376560465,1.5472784445472012,-0.007549494401028534,-0.44773126973121585,-0.17282890033994658,-0.208774255735458,-0.04089786783223868,-1.2072424744978065,-1.5554621551686165,-0.8401804349060359,1.1995920102562423,0.05294736134991515,-0.0006584439920942684
152,0.0,0.0,0.0,0.0,0.0,0.0,0.0,0.0,0.0,0.0,0.0,0.0,0.0,0.0,0.0,0.0,0.0,0.0,-0.042904858934552266,1.3046391106487305,1.5486371859783,0.021328833034694357,-0.3863196436574487,-0.19719217096316,-0.2047030681932254,-0.04311711353226399,-1.195544692169413,-1.5547127288466616,-0.9003966636658925,1.1807003160018246,0.05187090602490594,0.0035392162950540398
153,0.0,0.0,0.0,0.0,0.0,0.0,0.0,0.0,0.0,0.0,0.0,0.0,0.0,0.0,0.0,0.0,0.0,0.0,-0.043829262823706076,1.2967672367127026,1.5508063309080335,0.00487943772629694,-0.3612905296993272,-0.1920852201393072,-0.21515176603895128,-0.04292386394209934,-1.1938831158618766,-1.553067413176793,-0.9281497776762416,1.205615104622064,0.051702047776042,-0.010951999255735331
154,0.0,0.0,0.0,0.0,0.0,0.0,0.0,0.0,0.0,0.0,0.0,0.0,0.0,0.0,0.0,0.0,0.0,0.0,-0.04308805271655694,1.295523338104995,1.5506382255142226,-0.023960329784250868,-0.34208089444193834,-0.18901174614353025,-0.20201001643019775,-0.04206863812499928,-1.2052942401898403,-1.552260890690993,-0.924437321426976,1.3495469720875568,0.05188952885470703,-0.053752186048473156
155,0.0,0.0,0.0,0.0,0.0,0.0,0.0,0.0,0.0,0.0,0.0,0.0,0.0,0.0,0.0,0.0,0.0,0.0,-0.04101209395809909,1.2819680855828925,1.5510101519020199,-0.0940318048406501,-0.3984817371866865,-0.17711161511167403,-0.2104609281478745,-0.03781271023898215,-1.2216989307277129,-1.5531115505673825,-0.892598408876195,1.7753550450010547,0.02288626828001688,-0.06004223286841686
156,0.0,0.0,0.0,0.0,0.0,0.0,0.0,0.0,0.0,0.0,0.0,0.0,0.0,0.0,0.0,0.0,0.0,0.0,-0.038937359612465694,1.2564686423351186,1.550511653343595,-0.18780737731073405,-0.5848941063321329,-0.14651475746242176,-0.2457731496411784,-0.032284206534226735,-1.232448460575386,-1.5529829154994235,-0.8347054538752078,1.923272009583818,0.010651016594594588,-0.06387484487370367
157,0.0,0.0,0.0,0.0,0.0,0.0,0.0,0.0,0.0,0.0,0.0,0.0,0.0,0.0,0.0,0.0,0.0,0.0,-0.04314666268476288,1.2309586408896154,1.5476630587319515,-0.29675736035888994,-0.5220031194258986,-0.15298701593847908,-0.23355704889848009,-0.030778415607367472,-1.2417939943694556,-1.5537631712143822,-0.7619600786014753,1.9633818978073496,0.009541930604792683,-0.06600100552149477
158,0.0,0.0,0.0,0.0,0.0,0.0,0.0,0.0,0.0,0.0,0.0,0.0,0.0,0.0,0.0,0.0,0.0,0.0,-0.04089956061618983,1.1980854194182007,1.546895823389061,-0.41734457983599116,-0.627005925737509,-0.12643899983023715,-0.22991166912913738,-0.0303252960315335,-1.2385504711545807,-1.5559286628597493,-0.6751690672196958,1.6305728889718398,0.027691797456373894,-0.0339366023004901
159,0.0,0.0,0.0,0.0,0.0,0.0,0.0,0.0,0.0,0.0,0.0,0.0,0.0,0.0,0.0,0.0,0.0,0.0,-0.03658495987358862,1.1562666750051338,1.5438017112935187,-0.5138368917752187,-0.6246527977150038,-0.14144427424998146,-0.22255180326848512,-0.0293132442421279,-1.224214231416262,-1.555924575266376,-0.5880560269498774,1.3190529287099926,0.02156644998789122,0.013553621902880203
160,0.0,0.0,0.0,0.0,0.0,0.0,0.0,0.0,0.0,0.0,0.0,0.0,0.0,0.0,0.0,0.0,0.0,0.0,-0.02889799632215687,1.1117384918754345,1.5378748532866966,-0.572426061649534,-0.6231618240002479,-0.1777476234325706,-0.22562892071789192,-0.029479218705287875,-1.1959771454482235,-1.557262164855194,-0.5290656060741968,1.0334987250210441,0.011602805032807641,0.04467558535784144
161,0.0,0.0,0.0,0.0,0.0,0.0,0.0,0.0,0.0,0.0,0.0,0.0,0.0,0.0,0.0,0.0,0.0,0.0,-0.027211146323249093,1.0775373778240749,1.5346925050155633,-0.6053128792141361,-0.5909557197775985,-0.20168850820335704,-0.21729769869794632,-0.02873346988286493,-1.1654904226941807,-1.5585291956445622,-0.4894254269020296,0.8555474585601068,0.0067740510883197375,0.06518416942460015
162,0.0,0.0,0.0,0.0,0.0,0.0,0.0,0.0,0.0,0.0,0.0,0.0,0.0,0.0,0.0,0.0,0.0,0.0,-0.02534701299565432,1.0672457805022333,1.5300773323077217,-0.5975938705659212,-0.610410322377423,-0.2033968206355759,-0.20395364184831885,-0.027820248743441738,-1.1333457745910251,-1.5598989690609988,-0.46095036984381704,0.7099032398682157,-0.00479181103192968,0.08256375901319851
163,0.0,0.0,0.0,0.0,0.0,0.0,0.0,0.0,0.0,0.0,0.0,0.0,0.0,0.0,0.0,0.0,0.0,0.0,-0.02482853408622416,1.0700535796424715,1.5340456007064585,-0.5717958336871058,-0.5690854652444083,-0.18542537593999125,-0.18116632643054145,-0.028761189033561185,-1.1072305948928787,-1.5594345921356543,-0.4263913542342241,0.6330647183133844,-0.03272789267697811,0.11170587464461249
164,0.0,0.0,0.0,0.0,0.0,0.0,0.0,0.0,0.0,0.0,0.0,0.0,0.0,0.0,0.0,0.0,0.0,0.0,-0.03251980777439965,1.09697405023605,1.5387715523159824,-0.49058301752746825,-0.5449436441845137,-0.17011930712731826,-0.20765030433008072,-0.02950276449875152,-1.099498013633694,-1.5601412797394658,-0.440472085739517,0.5989360246981347,-0.018578011378635375,0.10961108080857028
165,0.0,0.0,0.0,0.0,0.0,0.0,0.0,0.0,0.0,0.0,0.0,0.0,0.0,0.0,0.0,0.0,0.0,0.0,-0.033929571272728075,1.1337365752664637,1.5424738139914973,-0.4285762780610308,-0.5095263340502127,-0.1562582863254697,-0.19373991701639331,-0.030368170010363956,-1.094227766853653,-1.56264587532347,-0.47266422791953805,0.5969836153716874,-0.002949437012495875,0.10952579016221033
166,0.0,0.0,0.0,0.0,0.0,0.0,0.0,0.0,0.0,0.0,0.0,0.0,0.0,0.0,0.0,0.0,0.0,0.0,-0.038673467360416665,1.168663633443043,1.544866667029621,-0.39398774900062383,-0.477479076485367,-0.14649631529452486,-0.191164951717484,-0.030810465360997973,-1.102751016839777,-1.5627201105796191,-0.5363061370602323,0.7144862526450098,0.017777747123513005,0.08317328361360712
167,0.0,0.0,0.0,0.0,0.0,0.0,0.0,0.0,0.0,0.0,0.0,0.0,0.0,0.0,0.0,0.0,0.0,0.0,-0.03816365125708597,1.1890214016847167,1.5455908767112414,-0.41242246389623627,-0.5699188753413473,-0.13114966837334924,-0.2057679992547174,-0.031620408867969456,-1.1180872634647274,-1.562412124739348,-0.6104483147433836,0.7141320192125579,0.030698868520771864,0.06571704374366774
168,0.0,0.0,0.0,0.0,0.0,0.0,0.0,0.0,0.0,0.0,0.0,0.0,0.0,0.0,0.0,0.0,0.0,0.0,-0.04021350594242562,1.1760464590521504,1.5435324648651352,-0.5076157156269445,-0.556966163651877,-0.12421729957733679,-0.19420616420425757,-0.03388486083189434,-1.1300886293650754,-1.5593272534609364,-0.6952714134603802,0.895500689844922,0.028301903977398016,0.07666588097724841
169,0.0,0.0,0.0,0.0,0.0,0.0,0.0,0.0,0.0,0.0,0.0,0.0,0.0,0.0,0.0,0.0,0.0,0.0,-0.036576474734366975,1.1708019202665096,1.5403916050958395,-0.6431475715602651,-0.5828452369861806,-0.12282245021954287,-0.1594722599134895,-0.033005257340952936,-1.1463122372783516,-1.5568072139921296,-0.8126711454284492,1.0819803183661667,0.0314747736327326,0.04031246419483772
170,0.0,0.0,0.0,0.0,0.0,0.0,0.0,0.0,0.0,0.0,0.0,0.0,0.0,0.0,0.0,0.0,0.0,0.0,-0.039699494189138367,1.1586556640760244,1.5371543619952333,-0.7901837473317959,-0.63683186593804,-0.09577323332261622,-0.13937340015048044,-0.03190099967788851,-1.1586650792646138,-1.5560155953059087,-0.9397702281264461,1.167979095383432,0.04311381236840258,-0.04022430103145622
171,0.0,0.0,0.0,0.0,0.0,0.0,0.0,0.0,0.0,0.0,0.0,0.0,0.0,0.0,0.0,0.0,0.0,0.0,-0.04240844657978894,1.148306519754002,1.5364162250612197,-0.9310777224211986,-0.7840545591808076,-0.05792211094927668,-0.11123343030842577,-0.03552788945757724,-1.159614450789169,-1.5592420790746682,-1.0476887481634003,1.2841812078395656,0.050312830523834555,-0.06872948216378932
172,0.0,0.0,0.0,0.0,0.0,0.0,0.0,0.0,0.0,0.0,0.0,0.0,0.0,0.0,0.0,0.0,0.0,0.0,-0.04374107265699095,1.1395398790756337,1.5388411687338701,-1.0253237589410291,-0.9410705883710493,-0.026142953500913675,-0.07882130383748598,-0.037290644170840416,-1.1651753383925407,-1.5589904821694753,-1.1181852359893911,1.4112132325628743,0.048360757613449164,-0.08506255417820198
173,0.0,0.0,0.0,0.0,0.0,0.0,0.0,0.0,0.0,0.0,0.0,0.0,0.0,0.0,0.0,0.0,0.0,0.0,-0.047167082581067776,1.1299762121413874,1.5388535542301451,-1.0474915316017785,-0.9684771331971247,-0.013054761094652152,-0.08223212028126128,-0.030330129155308014,-1.1711980069780061,-1.556669458908692,-1.1470275269656416,1.8292345823784135,0.04020140335834812,-0.07744185694224424
174,0.0,0.0,0.0,0.0,0.0,0.0,0.0,0.0,0.0,0.0,0.0,0.0,0.0,0.0,0.0,0.0,0.0,0.0,-0.04451114536429746,1.1353160535873947,1.5382225988923264,-1.0107453782092586,-0.9354304157021909,-0.0039050404187116715,-0.07260854626265445,-0.027780613999410127,-1.1846707207764149,-1.5536673803853644,-1.1263873239580169,2.1215480425613227,0.009685845025620969,-0.08635161648906081
175,0.0,0.0,0.0,0.0,0.0,0.0,0.0,0.0,0.0,0.0,0.0,0.0,0.0,0.0,0.0,0.0,0.0,0.0,-0.04478623548202398,1.1391171125487354,1.5407457704119758,-0.9084899341327646,-0.8139084696382638,-0.022213194806603134,-0.09344164128972172,-0.029025655865691193,-1.1974873288096621,-1.5522767252005654,-1.0470998771330258,1.7862949598327147,0.017717499249955138,-0.05540311881327485
176,0.0,0.0,0.0,0.0,0.0,0.0,0.0,0.0,0.0,0.0,0.0,0.0,0.0,0.0,0.0,0.0,0.0,0.0,-0.03724767067178725,1.1751463653885958,1.54383517229604,-0.7723283395049455,-0.7686871131719741,-0.028848279418954712,-0.08952082616014398,-0.02804042040658436,-1.2147756540126713,-1.5524192926501552,-0.9447080994588972,1.785064868163152,0.01907017101755454,-0.04885880872504946
177,0.0,0.0,0.0,0.0,0.0,0.0,0.0,0.0,0.0,0.0,0.0,0.0,0.0,0.0,0.0,0.0,0.0,0.0,-0.045647835386807806,1.2295929703474804,1.5420993086655945,-0.5750199644505507,-0.611179533261371,-0.06305057224387443,-0.1159575551063853,-0.028366344191187408,-1.2278917166550158,-1.5534750217533653,-0.8450691517851927,1.8936732735724355,0.015223505015576424,-0.055732186543755786
178,0.0,0.0,0.0,0.0,0.0,0.0,0.0,0.0,0.0,0.0,0.0,0.0,0.0,0.0,0.0,0.0,0.0,0.0,-0.046282101685751316,1.2705870077563692,1.5433826758840121,-0.3935013508819936,-0.5417417269451648,-0.08783796363437488,-0.13834455075679886,-0.02875409017595862,-1.2284466277525168,-1.5547580657800992,-0.7186772579056496,1.56519115756666,0.028125721265654335,-0.014898725423426122
179,0.0,0.0,0.0,0.0,0.0,0.0,0.0,0.0,0.0,0.0,0.0,0.0,0.0,0.0,0.0,0.0,0.0,0.0,-0.041559653096835764,1.2794013423174666,1.5456843882043654,-0.25063642246757123,-0.49840941980413295,-0.11976593906865518,-0.15883537443320667,-0.03226521319344904,-1.214923110901476,-1.5550730724215152,-0.5912195705530471,1.110781734888176,0.009932733894350461,0.03692021530345418
180,0.0,0.0,0.0,0.0,0.0,0.0,0.0,0.0,0.0,0.0,0.0,0.0,0.0,0.0,0.0,0.0,0.0,0.0,-0.03804576445390347,1.2661301049643923,1.5475317207614703,-0.14669214817868975,-0.479986398666412,-0.1464460340634356,-0.18186949658375223,-0.03523644297492133,-1.197589870886865,-1.5562585426490705,-0.4731576136055576,0.8587718074895992,-0.01479535189952813,0.08272398563958833
181,0.0,0.0,0.0,0.0,0.0,0.0,0.0,0.0,0.0,0.0,0.0,0.0,0.0,0.0,0.0,0.0,0.0,0.0,-0.033826942858295767,1.2397495830923055,1.5491637060954033,-0.06074564752510225,-0.48939835901861223,-0.16019848292584063,-0.20602253974467874,-0.030934177413949313,-1.1573512396138221,-1.557347627858676,-0.3735427407432939,0.8008132973850414,-0.04546153516637088,0.13633745710089376
182,0.0,0.0,0.0,0.0,0.0,0.0,0.0,0.0,0.0,0.0,0.0,0.0,0.0,0.0,0.0,0.0,0.0,0.0,-0.03133433766040954,1.2249287784508334,1.5507305194335639,3.554001689676928e-05,-0.4728744294602667,-0.17799895339942445,-0.21880471252050296,-0.02935592722019762,-1.1289683382593523,-1.556914244688908,-0.3036380832221221,0.716230817590407,-0.0825924157943485,0.17278426548507886
183,0.0,0.0,0.0,0.0,0.0,0.0,0.0,0.0,0.0,0.0,0.0,0.0,0.0,0.0,0.0,0.0,0.0,0.0,-0.030928689309822073,1.2264463427519587,1.5522719709930672,0.0401997616339483,-0.42366773865580115,-0.19638008964819753,-0.21585703761941552,-0.029271839066229828,-1.1229389872137565,-1.557059263928579,-0.2617435166516443,0.6159630611118357,-0.11225697113663555,0.18455239036774998
184,0.0,0.0,0.0,0.0,0.0,0.0,0.0,0.0,0.0,0.0,0.0,0.0,0.0,0.0,0.0,0.0,0.0,0.0,-0.03503937388248697,1.2397605327948487,1.5530128669509302,0.041165205841185964,-0.3687685473438747,-0.19985312809735564,-0.1983133177635574,-0.031217876785373248,-1.1440446092980698,-1.55723702496687,-0.29223228141792174,0.5470039958813923,-0.07446485037933778,0.15548197963385793
185,0.0,0.0,0.0,0.0,0.0,0.0,0.0,0.0,0.0,0.0,0.0,0.0,0.0,0.0,0.0,0.0,0.0,0.0,-0.03910085516586651,1.2682866430743418,1.5526325870054947,0.010397051748492824,-0.33618110743899166,-0.1797279433807427,-0.18126260432810765,-0.03222747445936719,-1.169730251377822,-1.557558360860313,-0.3383473433831211,0.5815858432881527,-0.040218931005489435,0.13259534687397345
186,0.0,0.0,0.0,0.0,0.0,0.0,0.0,0.0,0.0,0.0,0.0,0.0,0.0,0.0,0.0,0.0,0.0,0.0,-0.039161051803249136,1.2783711794155719,1.5529987271360561,-0.05592368049257179,-0.30432029832953605,-0.18285115951436573,-0.1696640769429214,-0.03368750885704205,-1.1949278584483376,-1.5583285300765723,-0.42985540371908815,0.7466314492574841,0.006208168065524176,0.07525472822393205
187,0.0,0.0,0.0,0.0,0.0,0.0,0.0,0.0,0.0,0.0,0.0,0.0,0.0,0.0,0.0,0.0,0.0,0.0,-0.03628783474157929,1.264094090283802,1.5530027020939452,-0.2054451165551019,-0.4014817215067268,-0.1357474014577686,-0.15307189336120675,-0.03569769911306349,-1.2066717261216653,-1.5564391170452727,-0.511389636432056,0.8536691769058483,0.022205328049109744,0.0683492262432429
188,0.0,0.0,0.0,0.0,0.0,0.0,0.0,0.0,0.0,0.0,0.0,0.0,0.0,0.0,0.0,0.0,0.0,0.0,-0.03664079527245242,1.2358316386480754,1.5505459266028165,-0.3607268411736207,-0.5039730150236651,-0.10487016429422172,-0.13995626605702818,-0.03563408952383897,-1.2152346394716067,-1.554954703902231,-0.6141127662940273,0.9724146884465238,0.02067941811379782,0.05887120532001729
189,0.0,0.0,0.0,0.0,0.0,0.0,0.0,0.0,0.0,0.0,0.0,0.0,0.0,0.0,0.0,0.0,0.0,0.0,-0.03699613907724687,1.2147591826536948,1.5507526612415699,-0.5367808032271189,-0.7274166218281103,-0.054184723413170786,-0.09211236252703485,-0.036678286113788226,-1.2157306776009265,-1.5536975297523243,-0.7379926096666442,1.1089423453562919,0.03148011642774798,0.021968931778216287
190,0.0,0.0,0.0,0.0,0.0,0.0,0.0,0.0,0.0,0.0,0.0,0.0,0.0,0.0,0.0,0.0,0.0,0.0,-0.038999314780270786,1.1941688152088488,1.5532115087103973,-0.7140712347965827,-0.8933303964060799,-0.013052393229275414,-0.04258639417969776,-0.03689962499035805,-1.2166997624131581,-1.558734518668556,-0.8631505393300285,1.2988996237643728,0.04313095183362845,-0.036809728095758505
191,0.0,0.0,0.0,0.0,0.0,0.0,0.0,0.0,0.0,0.0,0.0,0.0,0.0,0.0,0.0,0.0,0.0,0.0,-0.04025497739145125,1.1603736155965563,1.5566383927027967,-0.8744700597158774,-1.0284268314634473,0.014493910834656166,-0.008172127292261785,-0.03497911389068975,-1.1947976309681008,-1.5579486323704175,-0.9856245270079033,1.4356445814443326,0.0471676572195333,-0.06858376664657115
192,0.0,0.0,0.0,0.0,0.0,0.0,0.0,0.0,0.0,0.0,0.0,0.0,0.0,0.0,0.0,0.0,0.0,0.0,-0.04075848554624083,1.1349375888255289,1.5601084893602268,-1.0041195394397266,-1.21799880880066,0.029287694524414126,0.019882811232516066,-0.03515316134556786,-1.1731235784477958,-1.560245765722162,-1.0823069039765476,1.6541298865643057,0.03992641973191711,-0.11588198292629122
193,0.0,0.0,0.0,0.0,0.0,0.0,0.0,0.0,0.0,0.0,0.0,0.0,0.0,0.0,0.0,0.0,0.0,0.0,-0.040198369706281746,1.1146346270410474,1.5586695148700211,-1.0635301914495179,-1.2931131164525653,0.03819727090830896,0.029276324224530016,-0.03359290750139366,-1.1616767277582836,-1.5588235393585783,-1.1401793539481453,1.9271087566442877,0.01970688558079449,-0.12293252570110176
194,0.0,0.0,0.0,0.0,0.0,0.0,0.0,0.0,0.0,0.0,0.0,0.0,0.0,0.0,0.0,0.0,0.0,0.0,-0.037021530162255546,1.1178881797796276,1.5572833632511496,-1.0592032088834817,-1.3557515271642642,0.03969829526256886,0.03492375217237563,-0.03170753768195075,-1.1722865943435397,-1.5551522688969635,-1.142339918370187,2.2428662441548473,-0.004835289057790949,-0.10942207702376418
195,0.0,0.0,0.0,0.0,0.0,0.0,0.0,0.0,0.0,0.0,0.0,0.0,0.0,0.0,0.0,0.0,0.0,0.0,-0.03491829386011394,1.1340351985590897,1.554489862222329,-1.001090624798288,-1.5432831740591462,0.032042103391698044,0.037423423126285556,-0.03146016936312728,-1.1803813485535595,-1.5528574715494277,-1.0947134826576244,2.4595006980496037,-0.03707130862244107,-0.09019960681677101
196,0.0,0.0,0.0,0.0,0.0,0.0,0.0,0.0,0.0,0.0,0.0,0.0,0.0,0.0,0.0,0.0,0.0,0.0,-0.03752414150742439,1.1425954625155645,1.5534866830523193,-0.8955764994842726,-1.2927944142119823,0.024983085846719575,-0.01276723864649415,-0.030783861003116007,-1.1808852905036638,-1.5536903087197254,-1.0019771394171768,2.0383201634897525,-0.00913023780694645,-0.06372934983744427
197,0.0,0.0,0.0,0.0,0.0,0.0,0.0,0.0,0.0,0.0,0.0,0.0,0.0,0.0,0.0,0.0,0.0,0.0,-0.03282344777416077,1.1783999315838987,1.5515041720113758,-0.7438060279918106,-1.1345912590405125,-0.001787607590996082,-0.054117208131659246,-0.03015033840426424,-1.1895718347942579,-1.5539606807853228,-0.9044359944199952,1.8606590467828505,0.01036514039508889,-0.054572295517528985
198,0.0,0.0,0.0,0.0,0.0,0.0,0.0,0.0,0.0,0.0,0.0,0.0,0.0,0.0,0.0,0.0,0.0,0.0,-0.03686952898238481,1.2159009255708921,1.549604359211313,-0.5743819515080373,-0.9038457722699644,-0.036778505172462506,-0.08343323066538794,-0.02954098717868644,-1.1901332823900763,-1.5549906143636694,-0.7948051280235172,1.528230295645537,0.020496863233113564,-0.014364094041290042
199,0.0,0.0,0.0,0.0,0.0,0.0,0.0,0.0,0.0,0.0,0.0,0.0,0.0,0.0,0.0,0.0,0.0,0.0,-0.03550605599067636,1.2489570259284368,1.5486814583633426,-0.4055356121357996,-0.7518332914681815,-0.07297617507616472,-0.10921562463364545,-0.033040355467409646,-1.1885917765154022,-1.5553052950007635,-0.6780931292639234,1.0883770136906907,0.015756974613066663,0.02811077510853966
200,0.0,0.0,0.0,0.0,0.0,0.0,0.0,0.0,0.0,0.0,0.0,0.0,0.0,0.0,0.0,0.0,0.0,0.0,-0.03514736734959411,1.2531475388674733,1.549173374224172,-0.2732466179309203,-0.6572952564984259,-0.10124991395001798,-0.1422653524818971,-0.03520031450633128,-1.1756829459673934,-1.555543954741957,-0.5678853787414044,0.8411914135661729,-0.0032851395948906847,0.06150170905639824
201,0.0,0.0,0.0,0.0,0.0,0.0,0.0,0.0,0.0,0.0,0.0,0.0,0.0,0.0,0.0,0.0,0.0,0.0,-0.03548449595788567,1.25450261295822,1.5502572292455137,-0.1844344187246837,-0.5674483127218612,-0.12376252526984662,-0.15986596726349173,-0.031261440826495936,-1.163947713281973,-1.5569587189180132,-0.46987785474497135,0.6943454265496302,-0.033293698544286515,0.09400844267990076
202,0.0,0.0,0.0,0.0,0.0,0.0,0.0,0.0,0.0,0.0,0.0,0.0,0.0,0.0,0.0,0.0,0.0,0.0,-0.03594624613116505,1.2533910777035304,1.5526952353921737,-0.1345483320522448,-0.482790332685339,-0.13135477724461675,-0.16661594174844105,-0.03099771152780194,-1.1481438883150632,-1.557102064568726,-0.3944265284833991,0.5916533392345666,-0.0608098205281473,0.1160398958009276
203,0.0,0.0,0.0,0.0,0.0,0.0,0.0,0.0,0.0,0.0,0.0,0.0,0.0,0.0,0.0,0.0,0.0,0.0,-0.03678896802876894,1.2553419917385604,1.5540020615239112,-0.10091478068703996,-0.41819844635621944,-0.1385531033830323,-0.16836493805802005,-0.03123576073261665,-1.1381744936222047,-1.5575290544830902,-0.34286658798819525,0.5095935178589782,-0.08272044546238326,0.13095250618810733
204,0.0,0.0,0.0,0.0,0.0,0.0,0.0,0.0,0.0,0.0,0.0,0.0,0.0,0.0,0.0,0.0,0.0,0.0,-0.037816053363569115,1.2579484388287379,1.5546516492723277,-0.07701526877156026,-0.3714803783527205,-0.14554326725814437,-0.16910679859829728,-0.03228625645245609,-1.1359121346447527,-1.5592361529288257,-0.31393051251720294,0.4316197690786078,-0.09452105243788818,0.14049493491931356
205,0.0,0.0,0.0,0.0,0.0,0.0,0.0,0.0,0.0,0.0,0.0,0.0,0.0,0.0,0.0,0.0,0.0,0.0,-0.03835153333614421,1.2597837485629482,1.5561600131316813,-0.06474347759609192,-0.32034311122446707,-0.14892194371027764,-0.1664049571067296,-0.035509495017246276,-1.1362639299888913,-1.5609771524313134,-0.30882108069303255,0.39070284628132973,-0.08707374536885545,0.14897419484702043
206,0.0,0.0,0.0,0.0,0.0,0.0,0.0,0.0,0.0,0.0,0.0,0.0,0.0,0.0,0.0,0.0,0.0,0.0,-0.039822108893329725,1.26237561399207,1.5567718738754142,-0.06585995407630323,-0.286254733387212,-0.14107517381889761,-0.1632199188968486,-0.03683762722168552,-1.129428574210281,-1.5609082936644567,-0.3195702040393552,0.3839383791511813,-0.08185003326635108,0.15155678600888303
207,0.0,0.0,0.0,0.0,0.0,0.0,0.0,0.0,0.0,0.0,0.0,0.0,0.0,0.0,0.0,0.0,0.0,0.0,-0.04099132171923986,1.2526088753322342,1.557360838619489,-0.07783286535761479,-0.2937784517652641,-0.13189439866500374,-0.1674160832742061,-0.03653147486539706,-1.1175546353666594,-1.5621503588382046,-0.3379323700130919,0.3818325729474603,-0.06963557220046768,0.15148793393421067
208,0.0,0.0,0.0,0.0,0.0,0.0,0.0,0.0,0.0,0.0,0.0,0.0,0.0,0.0,0.0,0.0,0.0,0.0,-0.0377487374095227,1.2318925321996699,1.557588020134118,-0.08498891467636235,-0.3078958426373975,-0.1359107170056214,-0.17379659747580958,-0.034001841384177695,-1.0973005150943853,-1.5610237252574617,-0.3461659731022614,0.40035102130379674,-0.08254737733047252,0.15712007877249962
209,0.0,0.0,0.0,0.0,0.0,0.0,0.0,0.0,0.0,0.0,0.0,0.0,0.0,0.0,0.0,0.0,0.0,0.0,-0.032152315554444616,1.1978533057677692,1.5564158721570267,-0.056639778767043555,-0.3396659271344569,-0.1667780005348041,-0.18838214159044112,-0.030796209992853964,-1.065119811647869,-1.5603962874331805,-0.35108902203608466,0.3904052181399998,-0.10003385475207072,0.15943332461927923
210,0.0,0.0,0.0,0.0,0.0,0.0,0.0,0.0,0.0,0.0,0.0,0.0,0.0,0.0,0.0,0.0,0.0,0.0,-0.02590495757627553,1.1422050266161896,1.5563526516624924,-0.016469185056143504,-0.3418321744543379,-0.21109367986679428,-0.20344217696552735,-0.023354017367976442,-1.0079611774807982,-1.5592820870656545,-0.3473843041588465,0.3866713957091091,-0.13906576815474767,0.1648586076725849
211,0.0,0.0,0.0,0.0,0.0,0.0,0.0,0.0,0.0,0.0,0.0,0.0,0.0,0.0,0.0,0.0,0.0,0.0,-0.01809668284625594,1.0657908211365095,1.5540855491665913,0.04052815405521784,-0.3516717843858931,-0.25737065295205835,-0.22871726964498723,-0.018044230493133525,-0.9286211437464547,-1.5555448999041237,-0.30278652258443906,0.37875072397620524,-0.21729110082827205,0.19214582820207635
212,0.0,0.0,0.0,0.0,0.0,0.0,0.0,0.0,0.0,0.0,0.0,0.0,0.0,0.0,0.0,0.0,0.0,0.0,-0.009409885917822295,0.9861044063803425,1.5484131466160125,0.1541021968900289,-0.34949134851457575,-0.3261216795060998,-0.2575963985502411,-0.013271968947267515,-0.8433616221227369,-1.5440213004505485,-0.1451839641657065,0.37088039900748904,-0.37959307043237167,0.24947259513845055
213,0.0,0.0,0.0,0.0,0.0,0.0,0.0,0.0,0.0,0.0,0.0,0.0,0.0,0.0,0.0,0.0,0.0,0.0,-0.0018385809215785507,0.9036087009324073,1.541598223354607,0.30621451193212107,-0.3550230233950314,-0.34624926539391376,-0.2806233134198523,-0.00988573583032338,-0.7715172686820346,-1.5387696533442874,0.11100956755970964,0.32958452548623124,-0.5501262084952843,0.3391182312686814
214,0.0,0.0,0.0,0.0,0.0,0.0,0.0,0.0,0.0,0.0,0.0,0.0,0.0,0.0,0.0,0.0,0.0,0.0,-0.00034186785295483137,0.8229141213385918,1.5429127805857954,0.49459980654003116,-0.33379619875293726,-0.33155229124377583,-0.3247289729971328,-0.008486623345836032,-0.7085072781239445,-1.5482462860530224,0.46419914930654943,0.23541361529595875,-0.5876740912286541,0.2713134961327565
215,0.0,0.0,0.0,0.0,0.0,0.0,0.0,0.0,0.0,0.0,0.0,0.0,0.0,0.0,0.0,0.0,0.0,0.0,0.00337019302128974,0.7268800158550104,1.5432230990657385,0.6681048109875175,-0.3414753500514231,-0.30476319715314026,-0.3790333261001537,-0.004093968321519401,-0.6538932888156775,-1.5438155372644946,0.7168104609132768,0.2767949606337295,-0.4752994031667193,0.3018263484064914
216,0.0,0.0,0.0,0.0,0.0,0.0,0.0,0.0,0.0,0.0,0.0,0.0,0.0,0.0,0.0,0.0,0.0,0.0,0.006803443812540579,0.6352232812085201,1.5415645217155498,0.8019723139905282,-0.328850574353638,-0.266305022237873,-0.4077604850453784,0.0026249172344461336,-0.5897445301219153,-1.5290206794337748,0.8809106078789501,0.2782501657890643,-0.374711203310251,0.3236689863245132
217,0.0,0.0,0.0,0.0,0.0,0.0,0.0,0.0,0.0,0.0,0.0,0.0,0.0,0.0,0.0,0.0,0.0,0.0,0.00957436375727639,0.554330738818187,1.538314728038911,0.9114183917759302,-0.28617615273737895,-0.22683995869536258,-0.4201049861932088,0.008240496847765098,-0.5291539842966171,-1.5121567277298167,0.993478872448889,0.20949885975671517,-0.2900636825970624,0.3455851961712331
218,0.0,0.0,0.0,0.0,0.0,0.0,0.0,0.0,0.0,0.0,0.0,0.0,0.0,0.0,0.0,0.0,0.0,0.0,0.01364568058762974,0.46479253631058864,1.5125506987951634,1.0046033105689567,-0.165129522902604,-0.19774329108940752,-0.40899414682634255,0.011862628224570291,-0.47052587285039643,-1.4907294214090057,1.0799928242320334,0.07993547307637316,-0.22763051440988008,0.3588429793378575
219,0.0,0.0,0.0,0.0,0.0,0.0,0.0,0.0,0.0,0.0,0.0,0.0,0.0,0.0,0.0,0.0,0.0,0.0,0.019108364483254058,0.379927004330756,1.475666688956749,1.075826240370158,-0.06572587469104829,-0.1802709020885546,-0.387281972316869,0.014675188018257485,-0.4151420734668905,-1.4641459870389841,1.137194443034373,-0.04522074764254158,-0.18524677981113016,0.3647258275429003
220,0.0,0.0,0.0,0.0,0.0,0.0,0.0,0.0,0.0,0.0,0.0,0.0,0.0,0.0,0.0,0.0,0.0,0.0,0.02362819798565053,0.2982078585459492,1.440886998540945,1.124913797376334,0.03595713837136123,-0.1707549401715385,-0.36256861341796165,0.01715939551665493,-0.36858330601066114,-1.4426962911136336,1.1764932393841894,-0.14330350134583986,-0.15934981796478934,0.36849812119819264
221,0.0,0.0,0.0,0.0,0.0,0.0,0.0,0.0,0.0,0.0,0.0,0.0,0.0,0.0,0.0,0.0,0.0,0.0,0.026525493370034837,0.22636196232383549,1.413789475655254,1.164210264787781,0.14412097295115772,-0.16527127215491927,-0.33878195404645256,0.018967665109021627,-0.3315197592698808,-1.4254674245255536,1.205191048660047,-0.2251501590577838,-0.14348121398122368,0.3699973836844327
222,0.0,0.0,0.0,0.0,0.0,0.0,0.0,0.0,0.0,0.0,0.0,0.0,0.0,0.0,0.0,0.0,0.0,0.0,0.029049857436866666,0.16078924015271256,1.3808902132564207,1.190439431666152,0.27361317336003227,-0.15924968183248311,-0.31761059614913906,0.020084121121520318,-0.3060715621921156,-1.4122395721871173,1.2300198146080252,-0.2834562075683863,-0.13459680746774572,0.36930225369712666
223,0.0,0.0,0.0,0.0,0.0,0.0,0.0,0.0,0.0,0.0,0.0,0.0,0.0,0.0,0.0,0.0,0.0,0.0,0.03159998103914204,0.10123657569345082,1.3546903565200612,1.2075384084652656,0.38557514851876273,-0.15767113453078171,-0.297260282749972,0.020482642191828247,-0.29128282106877995,-1.4003056778965624,1.2508409685924986,-0.3484442784882627,-0.12713743937841512,0.37240345167046895
