njanwani/something/primitives/data/Frantic_Wave.csv
,left_hip_pitch_joint,left_hip_roll_joint,left_hip_yaw_joint,left_knee_joint,left_ankle_pitch_joint,left_ankle_roll_joint,right_hip_pitch_joint,right_hip_roll_joint,right_hip_yaw_joint,right_knee_joint,right_ankle_pitch_joint,right_ankle_roll_joint,waist_yaw_joint,waist_roll_joint,waist_pitch_joint,head_pitch_joint,head_yaw_joint,head_roll_joint,left_shoulder_pitch_joint,left_shoulder_roll_joint,left_shoulder_yaw_joint,left_elbow_joint,left_wrist_roll_joint,left_wrist_pitch_joint,left_wrist_yaw_joint,right_shoulder_pitch_joint,right_shoulder_roll_joint,right_shoulder_yaw_joint,right_elbow_joint,right_wrist_roll_joint,right_wrist_pitch_joint,right_wrist_yaw_joint
0,0.0,0.0,0.0,0.0,0.0,0.0,0.0,0.0,0.0,0.0,0.0,0.0,0.0,0.0,0.0,0.0,0.0,0.0,0.0742132531432945,-0.0010729173475983321,0.5266534770109252,1.4024675892282357,0.47965148208640285,-0.18450606955690174,-0.13742702581657934,0.06482857933138744,0.003800354696138112,-0.581387799829323,1.4244226643474345,-0.7822216734613764,-0.2170467093543006,0.17142476250916097
1,0.0,0.0,0.0,0.0,0.0,0.0,0.0,0.0,0.0,0.0,0.0,0.0,0.0,0.0,0.0,0.0,0.0,0.0,0.07257618641742569,-0.005089663679348329,0.5598926749410217,1.3985081863184754,0.4891680340968955,-0.18110855431028175,-0.14430930317008592,0.06417783005379536,0.007258980598088186,-0.6033137679660885,1.421560104779483,-0.7871444597283566,-0.21372038369587373,0.17758790839618982
2,0.0,0.0,0.0,0.0,0.0,0.0,0.0,0.0,0.0,0.0,0.0,0.0,0.0,0.0,0.0,0.0,0.0,0.0,0.07084235708175608,-0.011252393704923223,0.5978082340543328,1.394695483543595,0.52529721835608,-0.17777916521694515,-0.15217199624993008,0.06328668962952994,0.013538762502402667,-0.6346855954085323,1.4173076021687123,-0.8051902080810999,-0.20982731476114563,0.18087107826172644
3,0.0,0.0,0.0,0.0,0.0,0.0,0.0,0.0,0.0,0.0,0.0,0.0,0.0,0.0,0.0,0.0,0.0,0.0,0.06911373778195289,-0.018446073090072464,0.6288530448110593,1.3938011672553865,0.5852328844458211,-0.17880845092384307,-0.16072671150468715,0.062403069054627454,0.01419161477825849,-0.6699047650530557,1.4130089664814618,-0.797983151208673,-0.20459383017818422,0.18361625593424385
4,0.0,0.0,0.0,0.0,0.0,0.0,0.0,0.0,0.0,0.0,0.0,0.0,0.0,0.0,0.0,0.0,0.0,0.0,0.067375456119028,-0.0248809806914129,0.6433569001599064,1.397220399365717,0.6664938172847164,-0.18535799746930487,-0.17123205854547552,0.06110688549823208,0.008665330654710555,-0.702590811321601,1.4094798123510814,-0.78304732673825,-0.19894168308561147,0.18873036274190672
5,0.0,0.0,0.0,0.0,0.0,0.0,0.0,0.0,0.0,0.0,0.0,0.0,0.0,0.0,0.0,0.0,0.0,0.0,0.06596035784438532,-0.02959189473683658,0.6488138649702458,1.4029759150631487,0.7423527592947906,-0.19511990593261225,-0.17679327595724492,0.05967855584417137,0.0021543241554732194,-0.7292316838127739,1.407138487125169,-0.7609974176241596,-0.1939405174488571,0.19406699620645082
6,0.0,0.0,0.0,0.0,0.0,0.0,0.0,0.0,0.0,0.0,0.0,0.0,0.0,0.0,0.0,0.0,0.0,0.0,0.06473205882686131,-0.03227715112350968,0.6493736608115429,1.4095546769628646,0.8053279904357251,-0.20543358832632505,-0.17971333506701775,0.05838180121583895,0.0008945630128058754,-0.7627896177770378,1.4009131743025702,-0.7400732190891506,-0.18862764352610864,0.1949311038231651
7,0.0,0.0,0.0,0.0,0.0,0.0,0.0,0.0,0.0,0.0,0.0,0.0,0.0,0.0,0.0,0.0,0.0,0.0,0.06363132519334387,-0.03446330338525784,0.654089955329509,1.4144259185198313,0.8524787794041017,-0.21249347788219372,-0.17997001970295365,0.057518394763427974,-0.0001307417967609276,-0.7967611803153578,1.394130480698014,-0.7097529725119437,-0.18287733321911906,0.19384523607557994
8,0.0,0.0,0.0,0.0,0.0,0.0,0.0,0.0,0.0,0.0,0.0,0.0,0.0,0.0,0.0,0.0,0.0,0.0,0.06259304271434317,-0.03534274684625602,0.6626885429276047,1.417640536926333,0.8819620582000854,-0.2166752228180987,-0.18000625199393144,0.056678244377121705,0.001568303667587423,-0.8302197699255157,1.3863039639649106,-0.6961544015469868,-0.17759080841282426,0.19499704471493576
9,0.0,0.0,0.0,0.0,0.0,0.0,0.0,0.0,0.0,0.0,0.0,0.0,0.0,0.0,0.0,0.0,0.0,0.0,0.061577745645892266,-0.035798326516863634,0.6753912848007592,1.418999526632908,0.8906406369366734,-0.21686480976159048,-0.17915957409999728,0.05590552430857741,0.00043229381813685193,-0.8635293685783725,1.3788310334822858,-0.680668776991318,-0.17352057635564763,0.19680946321741447
10,0.0,0.0,0.0,0.0,0.0,0.0,0.0,0.0,0.0,0.0,0.0,0.0,0.0,0.0,0.0,0.0,0.0,0.0,0.060599333087217655,-0.03241834984939018,0.6807634946030102,1.4209573324391633,0.8844699126095038,-0.2163046100177073,-0.18049854511425265,0.055013421839118504,-0.0038195669767381746,-0.8998287734046582,1.3701458807995084,-0.6508862225718319,-0.1698387207837028,0.1985149253870601
11,0.0,0.0,0.0,0.0,0.0,0.0,0.0,0.0,0.0,0.0,0.0,0.0,0.0,0.0,0.0,0.0,0.0,0.0,0.05972053865996697,-0.030075136152599775,0.6913995327889975,1.4203209517022584,0.8808266324135571,-0.21341249534715337,-0.18204961299990788,0.053845440516485134,-0.023598261658353284,-0.9264748361113025,1.37041205095336,-0.5037091862921745,-0.1711377016378843,0.19120385528639078
12,0.0,0.0,0.0,0.0,0.0,0.0,0.0,0.0,0.0,0.0,0.0,0.0,0.0,0.0,0.0,0.0,0.0,0.0,0.059141323854017984,-0.030067832411815314,0.7054741378086715,1.418197582519931,0.8792994713918502,-0.2104114405761421,-0.18317718734095467,0.052006889836795696,-0.058867163773993876,-0.9562424234741501,1.370190818127769,-0.406374014361927,-0.16950759597557638,0.2055257754995821
13,0.0,0.0,0.0,0.0,0.0,0.0,0.0,0.0,0.0,0.0,0.0,0.0,0.0,0.0,0.0,0.0,0.0,0.0,0.05875183286902823,-0.026741411105223913,0.7176063024930588,1.4168843766343948,0.8608527077771257,-0.20741798028941108,-0.18441193849212287,0.04993132630217193,-0.10442035927539511,-1.0196236956249864,1.3378139938819498,-0.3194292645149722,-0.1459696969684759,0.22633990944011598
14,0.0,0.0,0.0,0.0,0.0,0.0,0.0,0.0,0.0,0.0,0.0,0.0,0.0,0.0,0.0,0.0,0.0,0.0,0.05819739076556597,-0.025421677775205875,0.7334423307934164,1.4136560107703007,0.8524920761224778,-0.2023517273391984,-0.18611003346262983,0.04643224859829427,-0.1732308614394947,-1.1087982123112885,1.3090195963508398,-0.2515923464617914,-0.13616183596371303,0.2688321047638292
15,0.0,0.0,0.0,0.0,0.0,0.0,0.0,0.0,0.0,0.0,0.0,0.0,0.0,0.0,0.0,0.0,0.0,0.0,0.05775767554066638,-0.025230103137144803,0.7517764319771927,1.4096256930999882,0.8389871347308229,-0.19819939921532426,-0.18660742345740292,0.040485165707609023,-0.2684123880768723,-1.1996282752015892,1.293242764359908,-0.1705201681970061,-0.12489262067500073,0.30990054938019523
16,0.0,0.0,0.0,0.0,0.0,0.0,0.0,0.0,0.0,0.0,0.0,0.0,0.0,0.0,0.0,0.0,0.0,0.0,0.05734884642480032,-0.021196552464713723,0.7647044984356857,1.4079096012131513,0.8215134268035957,-0.19563154707268593,-0.189093549251493,0.036060101941292874,-0.40137735956804355,-1.282936067299421,1.2656971014257485,-0.014446082625437257,-0.10608666005780035,0.36752404060586097
17,0.0,0.0,0.0,0.0,0.0,0.0,0.0,0.0,0.0,0.0,0.0,0.0,0.0,0.0,0.0,0.0,0.0,0.0,0.05677243916316364,-0.018036785522197396,0.7801828572800807,1.4055444851566374,0.8153496734178185,-0.19330010153267335,-0.19254958245648643,0.027220400560139,-0.5735940689064224,-1.3584676089652032,1.2627872541215461,0.07929075656136841,-0.07915078039013493,0.3996559448971228
18,0.0,0.0,0.0,0.0,0.0,0.0,0.0,0.0,0.0,0.0,0.0,0.0,0.0,0.0,0.0,0.0,0.0,0.0,0.05619142534583096,-0.012273016332643102,0.789820713434096,1.4052534184159073,0.8047985647439538,-0.19195256372831473,-0.19647971641178705,0.0229183552418963,-0.7820781583725166,-1.4052511003340313,1.2657304821366973,0.2774210100563642,-0.056402033699685716,0.4298242331647387
19,0.0,0.0,0.0,0.0,0.0,0.0,0.0,0.0,0.0,0.0,0.0,0.0,0.0,0.0,0.0,0.0,0.0,0.0,0.055513807780666946,-0.00912215421147504,0.799197335467293,1.4043848040755456,0.8066232009867094,-0.1910514594746002,-0.19982118671579477,0.026175916661852587,-0.985925209553822,-1.4181391003581754,1.2771798598849078,0.45847622364332097,-0.035133838045183136,0.448428553348681
20,0.0,0.0,0.0,0.0,0.0,0.0,0.0,0.0,0.0,0.0,0.0,0.0,0.0,0.0,0.0,0.0,0.0,0.0,0.05505950213049136,-0.007203437392225939,0.8103441100352299,1.4030398037997027,0.8068787578962898,-0.19031262205395236,-0.20159874266215633,0.06460083315675041,-1.198450652803057,-1.40456351464838,1.2860335995366905,0.7119909227238841,-0.017517293393216147,0.4631643494200435
21,0.0,0.0,0.0,0.0,0.0,0.0,0.0,0.0,0.0,0.0,0.0,0.0,0.0,0.0,0.0,0.0,0.0,0.0,0.054513238794350855,-0.0018737234395824962,0.8039794007936286,1.407018988638689,0.8101993912466188,-0.19261202055181123,-0.20514299498787944,0.7354592553106432,-1.3885983494262297,-1.6607204066367975,1.3211770261388789,1.171636202638859,-0.040720384701164195,0.49135999050451645
22,0.0,0.0,0.0,0.0,0.0,0.0,0.0,0.0,0.0,0.0,0.0,0.0,0.0,0.0,0.0,0.0,0.0,0.0,0.05410554465133865,0.004459688239213615,0.7987299460417341,1.4098112446957618,0.7992497992039094,-0.19288425398678324,-0.20685062250162323,1.411202251485741,-1.4445308529553693,-2.110777734308895,1.3287528669412763,1.5454642251724593,-0.027409170874578025,0.4959080561236796
23,0.0,0.0,0.0,0.0,0.0,0.0,0.0,0.0,0.0,0.0,0.0,0.0,0.0,0.0,0.0,0.0,0.0,0.0,0.05377448503697433,0.007885908517924735,0.7971786178236453,1.4104055246380065,0.8001440371487831,-0.19204863497978128,-0.2098597508482302,1.8920056795179012,-1.4342489071014581,-2.49525666789421,1.315257959807966,1.7928818636713817,-0.012346786901586913,0.49569691091753754
24,0.0,0.0,0.0,0.0,0.0,0.0,0.0,0.0,0.0,0.0,0.0,0.0,0.0,0.0,0.0,0.0,0.0,0.0,0.05362799700017473,0.0089994012667098,0.7964545312449312,1.410799514519676,0.8029672135202633,-0.19209317723474698,-0.21119043777773894,2.2321502729909017,-1.3839358834427846,-2.8420460346680065,1.2934618673675307,1.9909295466619967,0.009998983866478172,0.4806662233863903
25,0.0,0.0,0.0,0.0,0.0,0.0,0.0,0.0,0.0,0.0,0.0,0.0,0.0,0.0,0.0,0.0,0.0,0.0,0.05356886807666932,0.014452673925991068,0.7837581158697383,1.4144940251946283,0.8078530437106964,-0.19486020557252298,-0.21505061859087218,2.4746337642183676,-1.3010837040883165,-3.1597624043684016,1.2636524905632793,2.1522702244143543,0.04029914933840389,0.44593988441800114
26,0.0,0.0,0.0,0.0,0.0,0.0,0.0,0.0,0.0,0.0,0.0,0.0,0.0,0.0,0.0,0.0,0.0,0.0,0.05355767824245984,0.020886307436529226,0.7622771959636147,1.4198733177006273,0.8130440585471738,-0.19882455666733717,-0.2184243752103954,2.64920521816141,-1.1828764677687844,-3.4356039412275394,1.2442429889690978,2.385460266359127,0.09132417114500269,0.3797923418600475
27,0.0,0.0,0.0,0.0,0.0,0.0,0.0,0.0,0.0,0.0,0.0,0.0,0.0,0.0,0.0,0.0,0.0,0.0,0.05366369512960098,0.025140225646070217,0.7440438781201508,1.4237145726212248,0.8239474227320713,-0.2015572635506127,-0.22144617680891937,2.7776869065861867,-1.0684068061449503,-3.7031677979880055,1.2106315079537322,2.5336475906891645,0.1356910244683157,0.2936877055590089
28,0.0,0.0,0.0,0.0,0.0,0.0,0.0,0.0,0.0,0.0,0.0,0.0,0.0,0.0,0.0,0.0,0.0,0.0,0.05390018548176601,0.027296752447266908,0.7257818444595244,1.4274105005504767,0.8399741363102218,-0.20604651016498746,-0.22395402571190923,2.878270981502127,-0.953764361081707,-3.963413770162537,1.1649617355486233,2.6819711109270425,0.18062364743653356,0.18744554685396225
29,0.0,0.0,0.0,0.0,0.0,0.0,0.0,0.0,0.0,0.0,0.0,0.0,0.0,0.0,0.0,0.0,0.0,0.0,0.054139133680842735,0.010473591910793837,0.7537981772400868,1.406181666843746,0.8366943726089598,-0.18849173879071612,-0.22400674690934733,2.9576173391841576,-0.8224750582894422,-4.196495464549931,1.1429735599011739,2.757579993252804,0.21183245031309533,0.07682357436977488
30,0.0,0.0,0.0,0.0,0.0,0.0,0.0,0.0,0.0,0.0,0.0,0.0,0.0,0.0,0.0,0.0,0.0,0.0,0.05799281912189554,0.009243149216451767,0.7452434238761099,1.4017320142333494,0.8135140661575522,-0.1877195097550158,-0.2239262892659539,3.019430513615691,-0.6830381138756283,-4.391708924605024,1.126378748773354,2.768618307350173,0.2502407776470238,0.007496826289388081
31,0.0,0.0,0.0,0.0,0.0,0.0,0.0,0.0,0.0,0.0,0.0,0.0,0.0,0.0,0.0,0.0,0.0,0.0,0.05903439346994366,0.00555879081538722,0.7329741050211585,1.4039550726631997,0.8081516000696631,-0.19106633449110547,-0.21847875315984894,3.0682396519178416,-0.5400127288709458,-4.552337045164932,1.1028360554844627,2.745840697349949,0.2873967004684461,-0.043260380501430974
32,0.0,0.0,0.0,0.0,0.0,0.0,0.0,0.0,0.0,0.0,0.0,0.0,0.0,0.0,0.0,0.0,0.0,0.0,0.05911863971520829,-3.0790010452983255e-05,0.7248697172513333,1.4073333112462025,0.8043311089851118,-0.19483287451034345,-0.2097491763810729,3.104232555096834,-0.4193138723680086,-4.66040067329724,1.0695753815113098,2.755481280271559,0.3068964776099348,-0.0890671233588655
33,0.0,0.0,0.0,0.0,0.0,0.0,0.0,0.0,0.0,0.0,0.0,0.0,0.0,0.0,0.0,0.0,0.0,0.0,0.058834561791567666,-0.007539958702887881,0.7182963073179037,1.4105880434586517,0.8062048013199576,-0.19751011184067516,-0.2002975418525867,3.1301891947637404,-0.33210200776221754,-4.732298182796494,1.0322185575414218,2.7552663735119842,0.32947203011502757,-0.10121729437102088
34,0.0,0.0,0.0,0.0,0.0,0.0,0.0,0.0,0.0,0.0,0.0,0.0,0.0,0.0,0.0,0.0,0.0,0.0,0.05855880085757744,-0.027480664997872488,0.7517574062158614,1.3891207926636135,0.8016257999992037,-0.17990046828635603,-0.19620424378808624,3.1477893891768973,-0.26228374974871144,-4.776057990502346,0.9937213608263289,2.760449189101998,0.3360649583662526,-0.10607156453823247
35,0.0,0.0,0.0,0.0,0.0,0.0,0.0,0.0,0.0,0.0,0.0,0.0,0.0,0.0,0.0,0.0,0.0,0.0,0.061886937905671964,-0.0422171642493371,0.7656904557366103,1.3800326726112326,0.7866350728433228,-0.17862452052381045,-0.1869184409560098,3.1605524938201612,-0.2367597566545871,-4.80667059754422,0.9521667280451764,2.749189299234728,0.3380934089948009,-0.10476182045257429
36,0.0,0.0,0.0,0.0,0.0,0.0,0.0,0.0,0.0,0.0,0.0,0.0,0.0,0.0,0.0,0.0,0.0,0.0,0.06269540449592856,-0.04542154054744619,0.7618203636836612,1.3835457445585937,0.79050677307449,-0.1833524159149894,-0.1829344499346918,3.167229340831331,-0.25675753822470115,-4.82332745247083,0.9271896931621719,2.7763175436146095,0.3379253370374215,-0.1367270464552271
37,0.0,0.0,0.0,0.0,0.0,0.0,0.0,0.0,0.0,0.0,0.0,0.0,0.0,0.0,0.0,0.0,0.0,0.0,0.06222770340371138,-0.05127902674773084,0.7595971958232218,1.3883976766294879,0.8012171290835702,-0.1888660572787088,-0.1752030243317416,3.170782538944192,-0.302008134165288,-4.8298861407398235,0.9045535856769932,2.783127570120852,0.3400202780706633,-0.1377073921246696
38,0.0,0.0,0.0,0.0,0.0,0.0,0.0,0.0,0.0,0.0,0.0,0.0,0.0,0.0,0.0,0.0,0.0,0.0,0.061438176746797274,-0.04802363402261122,0.7405790200671789,1.397683538886522,0.8192252383105691,-0.19621273917560064,-0.1740332693672714,3.172979765329919,-0.38682365753807035,-4.847589913998615,0.9191072013283321,2.7629805131754037,0.3402414043083935,-0.15938347288670132
39,0.0,0.0,0.0,0.0,0.0,0.0,0.0,0.0,0.0,0.0,0.0,0.0,0.0,0.0,0.0,0.0,0.0,0.0,0.06063801194079426,-0.05124478467279942,0.7284257359269114,1.4040727127174293,0.8428672988453579,-0.20262379246106244,-0.16896684597714035,3.1771369998625976,-0.4910636542859036,-4.868062186158755,0.9300201616806422,2.6876264030465022,0.33634710323690253,-0.1466862763655203
40,0.0,0.0,0.0,0.0,0.0,0.0,0.0,0.0,0.0,0.0,0.0,0.0,0.0,0.0,0.0,0.0,0.0,0.0,0.06023480999014795,-0.04672279279808195,0.709526229362545,1.4112954007441922,0.8439480902805956,-0.20711034067194323,-0.17002736575521193,3.179447870211648,-0.5936064561528467,-4.892416728807695,0.9720228052640533,2.6028732605170948,0.3268541767263742,-0.13167409440723585
41,0.0,0.0,0.0,0.0,0.0,0.0,0.0,0.0,0.0,0.0,0.0,0.0,0.0,0.0,0.0,0.0,0.0,0.0,0.059663592124886436,-0.04431646509994377,0.6929879278314452,1.4163994498225567,0.8535036703040699,-0.21014885166000796,-0.17071138107221898,3.1804283956865103,-0.6967894864280764,-4.919300247624118,1.0289488948539012,2.4869207652279695,0.3189508395910498,-0.08809512972720056
42,0.0,0.0,0.0,0.0,0.0,0.0,0.0,0.0,0.0,0.0,0.0,0.0,0.0,0.0,0.0,0.0,0.0,0.0,0.05943664098916115,-0.042855326832704925,0.6767342855547523,1.4207653540857987,0.8670959420092648,-0.21458056655477295,-0.1715166278998095,3.1815350175567256,-0.7978005300547668,-4.945371797701719,1.082604841930222,2.3535958585861247,0.31221030290589796,-0.02454175767534046
43,0.0,0.0,0.0,0.0,0.0,0.0,0.0,0.0,0.0,0.0,0.0,0.0,0.0,0.0,0.0,0.0,0.0,0.0,0.05940176386233828,-0.04436203925430861,0.6629632230321305,1.4240966880956187,0.863119671179251,-0.21667882882827794,-0.16583541664470897,3.182428044872331,-0.9011547356496304,-4.968318595370995,1.1355814755084987,2.2026818804512276,0.30313116869789397,0.05847399406871567
44,0.0,0.0,0.0,0.0,0.0,0.0,0.0,0.0,0.0,0.0,0.0,0.0,0.0,0.0,0.0,0.0,0.0,0.0,0.059404539086593634,-0.04577107861177917,0.656395737265891,1.4250192602923397,0.8578971843092428,-0.2162789198301127,-0.16323177251654195,3.182389091168903,-1.0115410899403436,-4.973171155344387,1.1882913824869596,2.0397202766766047,0.2830123465845087,0.15266828248338998
45,0.0,0.0,0.0,0.0,0.0,0.0,0.0,0.0,0.0,0.0,0.0,0.0,0.0,0.0,0.0,0.0,0.0,0.0,0.05956386334050979,-0.041658049261006226,0.6464013548244526,1.4262839551842945,0.8359622463965772,-0.2151622220383883,-0.1638206716001234,3.1815160175246726,-1.1224017163089506,-4.9594354595669365,1.2385471475147403,1.8638223836455463,0.2544982322752003,0.242796730467086
46,0.0,0.0,0.0,0.0,0.0,0.0,0.0,0.0,0.0,0.0,0.0,0.0,0.0,0.0,0.0,0.0,0.0,0.0,0.05963939899170929,-0.034388604012141256,0.6421509243733445,1.4259792821223602,0.8043143920919967,-0.21263689655620704,-0.1669176962409666,3.1812753305426376,-1.244549029884068,-4.939719662218642,1.282605163666501,1.6984620782160043,0.22406910060311783,0.3237022567824767
47,0.0,0.0,0.0,0.0,0.0,0.0,0.0,0.0,0.0,0.0,0.0,0.0,0.0,0.0,0.0,0.0,0.0,0.0,0.05968968350632188,-0.02576058680122811,0.6454600562171725,1.4237684049616608,0.7662087716440378,-0.20792181231453433,-0.16967452740074485,3.181017488979487,-1.3638634126061282,-4.904088184050117,1.3164870323980906,1.551446678819451,0.19431700697522297,0.38493902678569863
48,0.0,0.0,0.0,0.0,0.0,0.0,0.0,0.0,0.0,0.0,0.0,0.0,0.0,0.0,0.0,0.0,0.0,0.0,0.05974016857642234,-0.02298794970617045,0.6652046764980516,1.4175409674706334,0.726340495782127,-0.20111026578359434,-0.168749728604447,3.175142172733609,-1.4595153929979054,-4.842866231531048,1.3474301484772615,1.4097443293721443,0.17063472079614417,0.4242701303560924
49,0.0,0.0,0.0,0.0,0.0,0.0,0.0,0.0,0.0,0.0,0.0,0.0,0.0,0.0,0.0,0.0,0.0,0.0,0.05990026491656597,-0.02362451806542359,0.7022365636703196,1.4069592157922084,0.6919378317874306,-0.19337807937261187,-0.1663130354194688,3.15026607664288,-1.5469193488210344,-4.729017284948095,1.369365113235577,1.3185332548830364,0.14648806132361175,0.4527299312599818
50,0.0,0.0,0.0,0.0,0.0,0.0,0.0,0.0,0.0,0.0,0.0,0.0,0.0,0.0,0.0,0.0,0.0,0.0,0.05996942197206789,-0.021564703165364758,0.7366544632451283,1.3985338732640522,0.6665480777648948,-0.18625838036716563,-0.16961709864716185,3.1195516463269217,-1.6242128802082798,-4.6209951946470715,1.3671441988064956,1.2640986769903755,0.12538756934477593,0.4558373851176112
51,0.0,0.0,0.0,0.0,0.0,0.0,0.0,0.0,0.0,0.0,0.0,0.0,0.0,0.0,0.0,0.0,0.0,0.0,0.05958621755500785,-0.017665525556791715,0.7679384177815596,1.391831830463581,0.6474897245028333,-0.18061528354389256,-0.17252175833310765,3.0809128997393223,-1.675982975643083,-4.533196391643685,1.3735980981402438,1.2285913511208908,0.11312711985491404,0.4783863294954033
52,0.0,0.0,0.0,0.0,0.0,0.0,0.0,0.0,0.0,0.0,0.0,0.0,0.0,0.0,0.0,0.0,0.0,0.0,0.05891972991195794,-0.01076088283590232,0.7930740557514702,1.3885077488657815,0.6473258458266474,-0.1768780906367394,-0.18233195730061982,3.0599479348389647,-1.6945976270413652,-4.459825423211784,1.386232969846701,1.2401858685413076,0.10424963546084365,0.48989938319723625
53,0.0,0.0,0.0,0.0,0.0,0.0,0.0,0.0,0.0,0.0,0.0,0.0,0.0,0.0,0.0,0.0,0.0,0.0,0.05780864619121942,0.00023808214394287382,0.7998974357458467,1.3912006427386703,0.6709022555036209,-0.17699754533035505,-0.19613357542167476,3.0566988555347767,-1.6884298276398337,-4.414673019927533,1.3921584559371747,1.3002406401617648,0.0959844384162882,0.4980833391720659
54,0.0,0.0,0.0,0.0,0.0,0.0,0.0,0.0,0.0,0.0,0.0,0.0,0.0,0.0,0.0,0.0,0.0,0.0,0.056757094081504825,0.0107414970732013,0.7982638621469313,1.395919433964945,0.6957007336004132,-0.17935973202647504,-0.2069132061342561,3.0611562035014437,-1.6485123895250278,-4.38122922151017,1.398396185331279,1.3929911104109776,0.09473889910654706,0.5007939125185021
55,0.0,0.0,0.0,0.0,0.0,0.0,0.0,0.0,0.0,0.0,0.0,0.0,0.0,0.0,0.0,0.0,0.0,0.0,0.0558957838426387,0.018318426677384286,0.7989983401148194,1.3995547566505808,0.7191899116831347,-0.18098784687350591,-0.21429940307765638,3.0634065856114363,-1.589858160920202,-4.361766643005617,1.3807619942904905,1.5007599383957437,0.10671279586538475,0.4957244926226237
56,0.0,0.0,0.0,0.0,0.0,0.0,0.0,0.0,0.0,0.0,0.0,0.0,0.0,0.0,0.0,0.0,0.0,0.0,0.05510329470520681,0.027341688577420573,0.7913974673234659,1.4050398204039218,0.7338481378576506,-0.18412025834301057,-0.22159189988827574,3.066018856737244,-1.511809080851205,-4.369730526339094,1.3495689391197954,1.6512711195039131,0.12514132762662247,0.4748572266181679
57,0.0,0.0,0.0,0.0,0.0,0.0,0.0,0.0,0.0,0.0,0.0,0.0,0.0,0.0,0.0,0.0,0.0,0.0,0.05444753820963491,0.038455309236991836,0.7781411633053197,1.4110853624293584,0.7347860817680456,-0.18589953090866776,-0.2281417282629518,3.0729222007293577,-1.4094324005885026,-4.400823703383063,1.3183736486583797,1.81418142505723,0.15028821511977122,0.43164143678385913
58,0.0,0.0,0.0,0.0,0.0,0.0,0.0,0.0,0.0,0.0,0.0,0.0,0.0,0.0,0.0,0.0,0.0,0.0,0.05387847156438123,0.05094510453819808,0.761995933978656,1.4164935479941585,0.7268041980119121,-0.18650932266605205,-0.23504803945773245,3.081321825287303,-1.3055994766597816,-4.454260147949318,1.274737981332028,1.9812282942944153,0.1770614512295446,0.3606204859834894
59,0.0,0.0,0.0,0.0,0.0,0.0,0.0,0.0,0.0,0.0,0.0,0.0,0.0,0.0,0.0,0.0,0.0,0.0,0.05352116681257476,0.05929459203026834,0.7496646832500357,1.4198071411208624,0.7344843435734164,-0.18702890263193964,-0.24191752411542614,3.0944664471171013,-1.206217662648627,-4.523068492464988,1.2296061292515974,2.1112050139025103,0.19321257498714123,0.2883032291622388
60,0.0,0.0,0.0,0.0,0.0,0.0,0.0,0.0,0.0,0.0,0.0,0.0,0.0,0.0,0.0,0.0,0.0,0.0,0.05344853148065982,0.06534641792872325,0.7434074470390479,1.421662367298276,0.743981138208395,-0.18797189856300112,-0.24672515579240908,3.114852206068433,-1.1007077323325705,-4.620661934455016,1.1754920744639183,2.1997831471349203,0.210166029124652,0.2044496181785535
61,0.0,0.0,0.0,0.0,0.0,0.0,0.0,0.0,0.0,0.0,0.0,0.0,0.0,0.0,0.0,0.0,0.0,0.0,0.05340460757662647,0.06825320346189989,0.7438430563042375,1.421779565365305,0.7390121123403508,-0.18730810300456105,-0.2480723989632653,3.137572869687149,-0.9947602907237862,-4.721162078576389,1.1077741929542022,2.23465114292818,0.2488466228411892,0.12747830484292913
62,0.0,0.0,0.0,0.0,0.0,0.0,0.0,0.0,0.0,0.0,0.0,0.0,0.0,0.0,0.0,0.0,0.0,0.0,0.05329446795633171,0.06835160315735918,0.7496716979811803,1.4201026633102949,0.7324443538403911,-0.18548392558599944,-0.24654893300153116,3.1581387617925674,-0.8812363489286608,-4.7962552212794165,1.0310653206280866,2.264008556815034,0.28876162166406644,0.10701139036965342
63,0.0,0.0,0.0,0.0,0.0,0.0,0.0,0.0,0.0,0.0,0.0,0.0,0.0,0.0,0.0,0.0,0.0,0.0,0.053251925395820174,0.06793648224600203,0.755386743547385,1.4189165110524908,0.7328165630529744,-0.18443794421808601,-0.24759483014740102,3.1749707708118518,-0.771130206851787,-4.846068139118423,0.9447563797424735,2.2911882289279033,0.3194150174744483,0.09418304019203495
64,0.0,0.0,0.0,0.0,0.0,0.0,0.0,0.0,0.0,0.0,0.0,0.0,0.0,0.0,0.0,0.0,0.0,0.0,0.05314440728058981,0.06253133519296616,0.7611494964372516,1.4176584310586609,0.7318616156680261,-0.18402025427601185,-0.2439471581604059,3.184991522577247,-0.6565746274777284,-4.8634515415604636,0.8514017341670199,2.3071686577418338,0.31204329268484754,0.08144180781257464
65,0.0,0.0,0.0,0.0,0.0,0.0,0.0,0.0,0.0,0.0,0.0,0.0,0.0,0.0,0.0,0.0,0.0,0.0,0.05311380162714529,0.056725372634261514,0.7579305419331824,1.418209585379498,0.7377794069448135,-0.1856640937566259,-0.2402618506035348,3.1916684205906285,-0.5681691718718053,-4.869576070914326,0.7627693315538175,2.2891322520338626,0.28903664768102305,0.06808490718086335
66,0.0,0.0,0.0,0.0,0.0,0.0,0.0,0.0,0.0,0.0,0.0,0.0,0.0,0.0,0.0,0.0,0.0,0.0,0.053278350359106934,0.04992290795153767,0.7493887721915558,1.4195724056611356,0.7477074844620195,-0.18845589103260596,-0.23550272741053693,3.1955888680078033,-0.49938223093233414,-4.870235624230698,0.70352887103086,2.2967455671005315,0.27747366865622974,0.0631910315992463
67,0.0,0.0,0.0,0.0,0.0,0.0,0.0,0.0,0.0,0.0,0.0,0.0,0.0,0.0,0.0,0.0,0.0,0.0,0.05358648648289641,0.026994243261791555,0.7700455374944681,1.4109144395569115,0.7967389458164434,-0.18804780372965516,-0.22682363656627358,3.1996457463839327,-0.4569082834066114,-4.871729127556782,0.6433642110134203,2.1203045237555527,0.2369051077183537,0.060785506661397905
68,0.0,0.0,0.0,0.0,0.0,0.0,0.0,0.0,0.0,0.0,0.0,0.0,0.0,0.0,0.0,0.0,0.0,0.0,0.05452131789759061,0.010290241409495866,0.7852945936171697,1.4078003865301907,0.8140579269837139,-0.1915786596887684,-0.21653090822999732,3.207675869509114,-0.47592159525741684,-4.889329895778917,0.5869306289925433,2.043970589969041,0.22925086558654295,-0.007154781157697833
69,0.0,0.0,0.0,0.0,0.0,0.0,0.0,0.0,0.0,0.0,0.0,0.0,0.0,0.0,0.0,0.0,0.0,0.0,0.054665314787070776,0.006512662449308345,0.7754133016635919,1.4125567692139434,0.8383598641065939,-0.1980518634938024,-0.21360867270834574,3.2141710095581026,-0.5189987462370554,-4.910715345121277,0.6288601797217475,2.1492052622886226,0.21666109473518805,-0.029688187629398163
70,0.0,0.0,0.0,0.0,0.0,0.0,0.0,0.0,0.0,0.0,0.0,0.0,0.0,0.0,0.0,0.0,0.0,0.0,0.05457563526544921,0.0025955300087314934,0.7633393278545917,1.417016049398783,0.8573948119180271,-0.2027429106684396,-0.2090268795649867,3.211394784883958,-0.588512095994917,-4.932910928578632,0.7269186469830549,2.222245181759651,0.2521385011164427,-0.04715866750894675
71,0.0,0.0,0.0,0.0,0.0,0.0,0.0,0.0,0.0,0.0,0.0,0.0,0.0,0.0,0.0,0.0,0.0,0.0,0.05458248545986467,-0.0005779207639263206,0.747271199464236,1.4215830275994372,0.87847129228945,-0.20851501743653825,-0.2070972144912215,3.208529629420053,-0.6792136631936088,-4.949866701830141,0.8191618134336875,2.2529793199676247,0.2734890996534142,-0.04601658467707695
72,0.0,0.0,0.0,0.0,0.0,0.0,0.0,0.0,0.0,0.0,0.0,0.0,0.0,0.0,0.0,0.0,0.0,0.0,0.054805573548673416,-0.0019605086465510676,0.738711509849186,1.4240562690293475,0.8748539478376389,-0.2099419024110249,-0.20257816318592436,3.2004241294965303,-0.7662274270784873,-4.956765280472879,0.9245274127315443,2.2482731686015986,0.2824903281433635,-0.02403650396879411
73,0.0,0.0,0.0,0.0,0.0,0.0,0.0,0.0,0.0,0.0,0.0,0.0,0.0,0.0,0.0,0.0,0.0,0.0,0.05478246734958935,-0.0037422415390838287,0.737225552446572,1.424177662931555,0.8584374595234597,-0.20796792688458762,-0.19829313087338982,3.192938104207666,-0.8573400504460428,-4.960239321337386,1.0210406077873544,2.1844605474766396,0.28311668370397614,0.03542321004628858
74,0.0,0.0,0.0,0.0,0.0,0.0,0.0,0.0,0.0,0.0,0.0,0.0,0.0,0.0,0.0,0.0,0.0,0.0,0.054728472863873154,-0.007142081640512038,0.74111610985772,1.421723638064204,0.8362919263001248,-0.203660440663078,-0.19362048250892996,3.1873052588038493,-0.9631321256245559,-4.961819874268235,1.1037679113353163,2.06482789498376,0.27521937415741216,0.1191629363734242
75,0.0,0.0,0.0,0.0,0.0,0.0,0.0,0.0,0.0,0.0,0.0,0.0,0.0,0.0,0.0,0.0,0.0,0.0,0.05488994506169564,-0.010262824412718427,0.752064410485212,1.4167418778584764,0.8024184421609595,-0.19803403612374462,-0.18893084671831045,3.1853273099258996,-1.085647442619773,-4.9667669137113455,1.1727613874606218,1.91204718502315,0.2585884109614595,0.21825169288712984
76,0.0,0.0,0.0,0.0,0.0,0.0,0.0,0.0,0.0,0.0,0.0,0.0,0.0,0.0,0.0,0.0,0.0,0.0,0.0551458679514653,-0.011494841122488917,0.768522326967145,1.4100988687278397,0.7664702024822352,-0.1919445685150426,-0.18547989279826724,3.186460172397571,-1.2152043026859962,-4.964022089943721,1.2290609244959052,1.755527101217404,0.23373660889315173,0.3095019964962849
77,0.0,0.0,0.0,0.0,0.0,0.0,0.0,0.0,0.0,0.0,0.0,0.0,0.0,0.0,0.0,0.0,0.0,0.0,0.055349652481085164,-0.006691420704126372,0.7852987251363068,1.4043547632254423,0.7199657555518142,-0.1865660804946202,-0.1866654961752914,3.19057296171457,-1.3526312885648757,-4.955718384638899,1.2756587614504356,1.5927106291248034,0.20524388931492027,0.3857183778495156
78,0.0,0.0,0.0,0.0,0.0,0.0,0.0,0.0,0.0,0.0,0.0,0.0,0.0,0.0,0.0,0.0,0.0,0.0,0.05552532252007153,-0.006873726507945222,0.809226231243953,1.395550247122155,0.676133422871201,-0.1804812115023058,-0.18135930425262942,3.195228012080813,-1.4728041101094524,-4.9222347490002205,1.3083842576532076,1.4443088918625295,0.17748210587601532,0.4270517609172069
79,0.0,0.0,0.0,0.0,0.0,0.0,0.0,0.0,0.0,0.0,0.0,0.0,0.0,0.0,0.0,0.0,0.0,0.0,0.05579009134045459,-0.007921688570448457,0.8383044873301272,1.3852660540037387,0.6390048948205945,-0.17523189910661124,-0.1788238781243367,3.199537771703643,-1.5887527839542666,-4.8829784308031146,1.333520013452051,1.3225922926064226,0.15263910511426276,0.4558797898781783
80,0.0,0.0,0.0,0.0,0.0,0.0,0.0,0.0,0.0,0.0,0.0,0.0,0.0,0.0,0.0,0.0,0.0,0.0,0.05580971597364351,-0.003914467013194306,0.8648593402022848,1.3779453832154844,0.6090793794685931,-0.17131303268751788,-0.18404919639002684,3.205153325642955,-1.6809336821367193,-4.827001069712806,1.3333955776937712,1.2485463626657418,0.13161452283056432,0.4629954157789129
81,0.0,0.0,0.0,0.0,0.0,0.0,0.0,0.0,0.0,0.0,0.0,0.0,0.0,0.0,0.0,0.0,0.0,0.0,0.055435311852803634,0.0013504928693729669,0.8948980562844526,1.3720731879880887,0.5871858192090671,-0.16850295832247036,-0.18731251733176546,3.20438711556975,-1.7445484859815383,-4.807123239918894,1.339098272843936,1.2008457779959343,0.12074069557568733,0.4886975599065026
82,0.0,0.0,0.0,0.0,0.0,0.0,0.0,0.0,0.0,0.0,0.0,0.0,0.0,0.0,0.0,0.0,0.0,0.0,0.05442605589348582,0.008495083037816292,0.9244906519192936,1.367378787370019,0.5700300989088991,-0.1661399032800954,-0.19205431161629613,3.232076389784749,-1.7748673519644074,-4.833415836632484,1.347280617546975,1.1645217465601487,0.11384948655084902,0.4994830696787579
83,0.0,0.0,0.0,0.0,0.0,0.0,0.0,0.0,0.0,0.0,0.0,0.0,0.0,0.0,0.0,0.0,0.0,0.0,0.05327173055373711,0.013118788201208122,0.9574720079585356,1.3608938553058287,0.5598143430715983,-0.1638613719156802,-0.1967838980141023,3.262866650083327,-1.7760502311383763,-4.910700871458293,1.3502047842826959,1.1424803259633898,0.11791299645811416,0.5066074509821099
84,0.0,0.0,0.0,0.0,0.0,0.0,0.0,0.0,0.0,0.0,0.0,0.0,0.0,0.0,0.0,0.0,0.0,0.0,0.051812558047822685,0.021787296281157338,0.9814820794276348,1.3596927739850222,0.5665442327983706,-0.16182546622933525,-0.20943740468000102,3.2933608596471657,-1.737207245917042,-5.01786200192096,1.3340212302820404,1.1180174789670736,0.13930608894808702,0.5103535817572045
85,0.0,0.0,0.0,0.0,0.0,0.0,0.0,0.0,0.0,0.0,0.0,0.0,0.0,0.0,0.0,0.0,0.0,0.0,0.050191678452609564,0.028563473107969466,1.0030614890740173,1.3575108505555813,0.5767152837920888,-0.15994926897520012,-0.2155471203138811,3.3019690882526374,-1.6782630889176606,-5.084940552909377,1.3096905597410191,1.127290642753858,0.15628052083106708,0.4856155397557255
86,0.0,0.0,0.0,0.0,0.0,0.0,0.0,0.0,0.0,0.0,0.0,0.0,0.0,0.0,0.0,0.0,0.0,0.0,0.04870404071594425,0.03776480268685431,1.0183739112408745,1.3587033186974369,0.5823067299308033,-0.1590522287708759,-0.22235186200643514,3.2970779860262542,-1.5811274319056592,-5.148716010659573,1.2938187470449698,1.1682689495474166,0.1806679814550104,0.4492439875909422
87,0.0,0.0,0.0,0.0,0.0,0.0,0.0,0.0,0.0,0.0,0.0,0.0,0.0,0.0,0.0,0.0,0.0,0.0,0.0470632773347598,0.051759956489886676,1.0166649709000606,1.3664386439655125,0.611370366650135,-0.1583423938266854,-0.23742253935813099,3.283297259005533,-1.4551485141372524,-5.204924448388603,1.280713100290089,1.2583910838623797,0.2144310775784728,0.3932401136227157
88,0.0,0.0,0.0,0.0,0.0,0.0,0.0,0.0,0.0,0.0,0.0,0.0,0.0,0.0,0.0,0.0,0.0,0.0,0.04575151484486938,0.0621135230804818,1.015807915887272,1.370752664325995,0.6294808532774189,-0.1581890154521548,-0.24421145482649512,3.266831875899906,-1.3226293188433083,-5.227218051410549,1.265967291337912,1.3972029136354875,0.24931021660390595,0.327324924934291
89,0.0,0.0,0.0,0.0,0.0,0.0,0.0,0.0,0.0,0.0,0.0,0.0,0.0,0.0,0.0,0.0,0.0,0.0,0.04500833129479746,0.0692933053397341,1.0138218629542723,1.3741593904559888,0.6458606184096903,-0.1582630077129088,-0.24972229390579595,3.250057857137189,-1.1944314203603574,-5.204170144394068,1.240829111310694,1.5882604758832766,0.2705189695266397,0.22030081415571404
90,0.0,0.0,0.0,0.0,0.0,0.0,0.0,0.0,0.0,0.0,0.0,0.0,0.0,0.0,0.0,0.0,0.0,0.0,0.04454360995312868,0.07392336899256663,1.0113752115095305,1.376708550486671,0.6574082293099887,-0.15855031359770855,-0.25315800870201055,3.236545643311406,-1.0736595969433569,-5.172789333571544,1.20985107499314,1.7819429747228304,0.2900594893884135,0.13075380967365804
91,0.0,0.0,0.0,0.0,0.0,0.0,0.0,0.0,0.0,0.0,0.0,0.0,0.0,0.0,0.0,0.0,0.0,0.0,0.04444145055664622,0.06350924928155123,1.0203858272955137,1.368227533626132,0.7080226238539576,-0.156511955501663,-0.257721541691147,3.229946840644297,-0.9459797695676817,-5.178982388601087,1.1797180889819041,1.8747261136637203,0.32380642500953194,0.055481054943281344
92,0.0,0.0,0.0,0.0,0.0,0.0,0.0,0.0,0.0,0.0,0.0,0.0,0.0,0.0,0.0,0.0,0.0,0.0,0.044868560326595336,0.06087790558079869,1.0175055232571304,1.3714825223680578,0.7423648810227496,-0.16133084959378047,-0.26077984887143074,3.2313301721276053,-0.8014088573551549,-5.220756297730391,1.1602425957291458,1.9080040725794527,0.3723136966281172,0.01876408028480324
93,0.0,0.0,0.0,0.0,0.0,0.0,0.0,0.0,0.0,0.0,0.0,0.0,0.0,0.0,0.0,0.0,0.0,0.0,0.04474001494020711,0.057498092136031145,1.0047424072166338,1.3784133490772237,0.784343574785341,-0.16750325981562011,-0.26151275435355814,3.235424023479518,-0.6680070504495188,-5.231014111521488,1.1168838806355001,1.961848917227409,0.42143854052079427,0.0012413273671963987
94,0.0,0.0,0.0,0.0,0.0,0.0,0.0,0.0,0.0,0.0,0.0,0.0,0.0,0.0,0.0,0.0,0.0,0.0,0.044759992936645815,0.053443071741085584,0.9848663689787733,1.3871671098138703,0.8171134092185276,-0.1746945562868643,-0.2595360561990964,3.237457284829462,-0.5446038515389231,-5.206342527360719,1.0664748208428403,2.029447308573551,0.4309015715810753,-0.017609164258696648
95,0.0,0.0,0.0,0.0,0.0,0.0,0.0,0.0,0.0,0.0,0.0,0.0,0.0,0.0,0.0,0.0,0.0,0.0,0.04499140045714511,0.03640126379713373,0.981390059519361,1.3831014704990374,0.8691572100533567,-0.17656877317574568,-0.2556267211458954,3.23552913955856,-0.43005255196876446,-5.154019880993736,1.0088869075143236,2.1188213898636947,0.4207803017784519,-0.025606706844863207
96,0.0,0.0,0.0,0.0,0.0,0.0,0.0,0.0,0.0,0.0,0.0,0.0,0.0,0.0,0.0,0.0,0.0,0.0,0.046116854633247,0.025373104771961537,0.9774085336414828,1.384996351790521,0.8796656862038296,-0.18218862721670898,-0.2476091706285066,3.2334188922052234,-0.35281092647632206,-5.109294397508602,0.9629771631889772,2.188887034421195,0.40078390877911313,-0.03325327957956862
97,0.0,0.0,0.0,0.0,0.0,0.0,0.0,0.0,0.0,0.0,0.0,0.0,0.0,0.0,0.0,0.0,0.0,0.0,0.04642734864743625,0.016007679524316185,0.9671768561241484,1.3887592057450244,0.8916655938726532,-0.18595248628451294,-0.2392218705982321,3.2314906254082856,-0.3086477977487413,-5.072286741423617,0.9228511817599013,2.2456918218916773,0.3807235923844655,-0.03708059102232059
98,0.0,0.0,0.0,0.0,0.0,0.0,0.0,0.0,0.0,0.0,0.0,0.0,0.0,0.0,0.0,0.0,0.0,0.0,0.04671648103688661,0.009527078190740534,0.9502845304198588,1.3941544618960804,0.908776904318654,-0.19092990852027897,-0.232997817658003,3.227228307903543,-0.32752058433605463,-5.0370463110059,0.8938123990835203,2.3312300970659536,0.3635224008236855,-0.06205664473267514
99,0.0,0.0,0.0,0.0,0.0,0.0,0.0,0.0,0.0,0.0,0.0,0.0,0.0,0.0,0.0,0.0,0.0,0.0,0.04717658376789615,0.005658863517332965,0.9287954554170877,1.4004479697266758,0.9291792679390284,-0.19665817121493334,-0.22874687944354763,3.222571154014577,-0.38321351863541575,-5.007119847793462,0.8599129203824177,2.3830971574004267,0.3484557804895885,-0.07954702653103715
100,0.0,0.0,0.0,0.0,0.0,0.0,0.0,0.0,0.0,0.0,0.0,0.0,0.0,0.0,0.0,0.0,0.0,0.0,0.047754891223502224,0.004212698308955418,0.9065607265977367,1.4064742703396111,0.9445670734357023,-0.20206018672143009,-0.22567056254180953,3.2191578263487646,-0.46209824666993393,-4.990171093438525,0.8538414314476735,2.4183227547319923,0.3390385209851356,-0.09329179790207175
101,0.0,0.0,0.0,0.0,0.0,0.0,0.0,0.0,0.0,0.0,0.0,0.0,0.0,0.0,0.0,0.0,0.0,0.0,0.04833011310637419,0.0032267944798493485,0.8853059312723394,1.4116173918832036,0.9537673607472293,-0.20578882918362618,-0.22195755036448325,3.215511470824944,-0.5592462436630593,-4.979538463579194,0.865867742967636,2.4195486694081305,0.334956511935118,-0.08506456504641068
102,0.0,0.0,0.0,0.0,0.0,0.0,0.0,0.0,0.0,0.0,0.0,0.0,0.0,0.0,0.0,0.0,0.0,0.0,0.04885449900377198,0.003520218344364551,0.8660225314228316,1.4157550904079288,0.946267864774634,-0.20747549732083587,-0.21839202397056354,3.2104555074262615,-0.6632876385534561,-4.974399794091521,0.905401015930838,2.3928496768671397,0.32720305392678123,-0.07153215715782275
103,0.0,0.0,0.0,0.0,0.0,0.0,0.0,0.0,0.0,0.0,0.0,0.0,0.0,0.0,0.0,0.0,0.0,0.0,0.04928405403817493,0.010037483150720382,0.8385482668260417,1.4218042684730097,0.9231515218690186,-0.2087971548018958,-0.21787757870918525,3.2040919809898014,-0.754707541441268,-4.97107237162019,0.9610887600712253,2.3464966796371924,0.31559462915659336,-0.050183344353908456
104,0.0,0.0,0.0,0.0,0.0,0.0,0.0,0.0,0.0,0.0,0.0,0.0,0.0,0.0,0.0,0.0,0.0,0.0,0.049588874792191644,0.015399810281298592,0.8202755172749345,1.4239702488207218,0.8923133967178801,-0.20741433956034383,-0.2172713537956467,3.1963769624148286,-0.8448304968524071,-4.964051477853761,1.0208699436364503,2.2784968503310217,0.3041950071544301,-0.004277462442264096
105,0.0,0.0,0.0,0.0,0.0,0.0,0.0,0.0,0.0,0.0,0.0,0.0,0.0,0.0,0.0,0.0,0.0,0.0,0.05004112133571185,0.019639538394598657,0.8133088997616241,1.422163165669582,0.8470124392561694,-0.20287056944850068,-0.21502641034552136,3.190291340495492,-0.9333465001007244,-4.958271832072605,1.0771483238208903,2.1953950983254202,0.2926451774118366,0.05729639001383605
106,0.0,0.0,0.0,0.0,0.0,0.0,0.0,0.0,0.0,0.0,0.0,0.0,0.0,0.0,0.0,0.0,0.0,0.0,0.050552728888296185,0.0233093279190766,0.815580085334187,1.4174146301093167,0.7977097494788583,-0.1965393586822261,-0.21317443768596014,3.185067420253091,-1.025599336596982,-4.950786982194578,1.1411341930078993,2.0655091764970663,0.27548394210827565,0.14009844767459642
107,0.0,0.0,0.0,0.0,0.0,0.0,0.0,0.0,0.0,0.0,0.0,0.0,0.0,0.0,0.0,0.0,0.0,0.0,0.05111452875936383,0.02446935243057891,0.8232297025713574,1.411035549838984,0.7574574793591639,-0.19021231578615663,-0.21159087682445848,3.1814586583709747,-1.1238014154836398,-4.9373941509135095,1.1948890450342087,1.9269136412907606,0.25398496632859213,0.22285945412298436
108,0.0,0.0,0.0,0.0,0.0,0.0,0.0,0.0,0.0,0.0,0.0,0.0,0.0,0.0,0.0,0.0,0.0,0.0,0.051697900869079154,0.02568943296515391,0.8363538178438035,1.4038132651288517,0.7218294634734156,-0.18292552540232146,-0.21081587803089707,3.17892014081588,-1.221903415838752,-4.916040919887258,1.240121168934438,1.7860404105644234,0.23004147264108574,0.29495385000679464
109,0.0,0.0,0.0,0.0,0.0,0.0,0.0,0.0,0.0,0.0,0.0,0.0,0.0,0.0,0.0,0.0,0.0,0.0,0.05200572318312194,0.03080022212415025,0.8536476165419566,1.3980766391115547,0.6796950472969817,-0.17780452191679239,-0.2115951053739755,3.174262614913238,-1.3163661104000246,-4.876900792749362,1.2785348526080618,1.654922358378415,0.20488134549222073,0.3531660983719939
110,0.0,0.0,0.0,0.0,0.0,0.0,0.0,0.0,0.0,0.0,0.0,0.0,0.0,0.0,0.0,0.0,0.0,0.0,0.051881875449234366,0.036693081709533046,0.8718939137180385,1.392993249093648,0.6459030446695866,-0.17307595927183136,-0.21346015858366363,3.169177543581522,-1.39665866345123,-4.822031194999999,1.297909543437388,1.5394399703232904,0.18028398409564136,0.39024693013475054
111,0.0,0.0,0.0,0.0,0.0,0.0,0.0,0.0,0.0,0.0,0.0,0.0,0.0,0.0,0.0,0.0,0.0,0.0,0.051556794910867336,0.041561022668872856,0.8907039275805536,1.3869516330216658,0.6265690168549325,-0.1681246048239128,-0.21663175538339452,3.1636867859250253,-1.446417096541297,-4.79289638049328,1.3190999263809315,1.481105257533853,0.16749489063339965,0.4253622406995447
112,0.0,0.0,0.0,0.0,0.0,0.0,0.0,0.0,0.0,0.0,0.0,0.0,0.0,0.0,0.0,0.0,0.0,0.0,0.05129280169080698,0.045800962646613964,0.9100366614180941,1.381040854353445,0.6116997007549925,-0.16416075955932483,-0.22012755995218428,3.164472552936008,-1.466250883121045,-4.792261800170037,1.3373188678807288,1.4521738088331317,0.15980642742130804,0.44306483854725087
113,0.0,0.0,0.0,0.0,0.0,0.0,0.0,0.0,0.0,0.0,0.0,0.0,0.0,0.0,0.0,0.0,0.0,0.0,0.050932669636610764,0.05165964467454471,0.9282753590867314,1.3777628816308016,0.5970531006086758,-0.16185326026212277,-0.2242917646832823,3.1674571650591226,-1.4559445315070085,-4.820784645229087,1.3446429916652929,1.4610045335165052,0.16326177405582568,0.4477192111569219
114,0.0,0.0,0.0,0.0,0.0,0.0,0.0,0.0,0.0,0.0,0.0,0.0,0.0,0.0,0.0,0.0,0.0,0.0,0.050255003597241533,0.055868268103844994,0.9466077464820142,1.3744078569101592,0.5961854121264979,-0.1596215144357332,-0.22917862053663193,3.172217987966483,-1.4229278824215599,-4.864628432396346,1.3453574380464297,1.4833064157619877,0.17454482189028084,0.4416438695799786
115,0.0,0.0,0.0,0.0,0.0,0.0,0.0,0.0,0.0,0.0,0.0,0.0,0.0,0.0,0.0,0.0,0.0,0.0,0.04930178715317159,0.06629509343054842,0.9510569869586812,1.3779132835812156,0.6081220540859915,-0.15851710535876856,-0.24162486060251895,3.1784911869841626,-1.3648646800823285,-4.95075730608001,1.337722121698771,1.524385582580069,0.20414167874988018,0.41160664755192755
116,0.0,0.0,0.0,0.0,0.0,0.0,0.0,0.0,0.0,0.0,0.0,0.0,0.0,0.0,0.0,0.0,0.0,0.0,0.04827454387238537,0.07581342238048167,0.9540503042398145,1.3812132839368938,0.6100181265004018,-0.1582144574491444,-0.2465449967258674,3.1879322599011117,-1.28328510452748,-5.074771707574193,1.33151896213259,1.5408968097298361,0.2435050613402286,0.360264423807975
117,0.0,0.0,0.0,0.0,0.0,0.0,0.0,0.0,0.0,0.0,0.0,0.0,0.0,0.0,0.0,0.0,0.0,0.0,0.047398914816016505,0.08573758004418917,0.9503872156396168,1.385355203919881,0.613567048961973,-0.1578038407130198,-0.2521863214147146,3.1980937485694936,-1.1891019664677496,-5.200209852122506,1.3204307861791278,1.5555517693599437,0.2877763139517668,0.2903447440180412
118,0.0,0.0,0.0,0.0,0.0,0.0,0.0,0.0,0.0,0.0,0.0,0.0,0.0,0.0,0.0,0.0,0.0,0.0,0.04685977898966634,0.09183944913525995,0.9488634130763478,1.387261856171556,0.6222009670149591,-0.15727392146650315,-0.25694055836803,3.210404807434896,-1.0993364211528145,-5.27919034228286,1.2942277822044574,1.5937575990518769,0.3176417197313946,0.2179085009445944
119,0.0,0.0,0.0,0.0,0.0,0.0,0.0,0.0,0.0,0.0,0.0,0.0,0.0,0.0,0.0,0.0,0.0,0.0,0.046560432300912384,0.09574635203455613,0.9490257894661912,1.388203241612438,0.6314446444293431,-0.15712150876064063,-0.2608123100395224,3.2210785055380313,-1.0123203125444764,-5.323088328103201,1.2564382065376152,1.6459816817287303,0.34627390383795636,0.14286531515228618
120,0.0,0.0,0.0,0.0,0.0,0.0,0.0,0.0,0.0,0.0,0.0,0.0,0.0,0.0,0.0,0.0,0.0,0.0,0.04639957804416077,0.09641705375297363,0.9406422469006911,1.3910848114831047,0.6543895753289759,-0.15907314799645178,-0.26469889950398967,3.230860078258761,-0.9247060804768245,-5.336975706144392,1.2052078264947355,1.6972889872420829,0.3809601021004635,0.10299595540710177
121,0.0,0.0,0.0,0.0,0.0,0.0,0.0,0.0,0.0,0.0,0.0,0.0,0.0,0.0,0.0,0.0,0.0,0.0,0.046456719978630726,0.09726615664260262,0.9301904366911711,1.3943440644154046,0.6809676989386768,-0.16193106428521217,-0.26859282386755173,3.240602778349259,-0.840957948485685,-5.322999315609741,1.1366663962855248,1.7577675179741532,0.42392077088461666,0.10658364729189591
122,0.0,0.0,0.0,0.0,0.0,0.0,0.0,0.0,0.0,0.0,0.0,0.0,0.0,0.0,0.0,0.0,0.0,0.0,0.04659446624761584,0.10113185021726785,0.9132977411895117,1.4004956294652897,0.6980846530572836,-0.16603676887387908,-0.27190697211496434,3.252169492016247,-0.7763139702824439,-5.251681104008322,1.0057868651407378,1.90612548634835,0.43061133399057266,0.10181049667460162
123,0.0,0.0,0.0,0.0,0.0,0.0,0.0,0.0,0.0,0.0,0.0,0.0,0.0,0.0,0.0,0.0,0.0,0.0,0.04663584429733261,0.10424448290023174,0.8955606311782255,1.4058945755257388,0.715996974799362,-0.1686362944606178,-0.2747557845355488,3.2558578222977825,-0.7375928018044735,-5.170651661311092,0.8291622592706106,1.9441130320548397,0.39638168503874055,0.1032214210739173
124,0.0,0.0,0.0,0.0,0.0,0.0,0.0,0.0,0.0,0.0,0.0,0.0,0.0,0.0,0.0,0.0,0.0,0.0,0.04678344826533707,0.10526054038683026,0.8765088119986196,1.4109362894428708,0.7354154219885046,-0.17247125916261075,-0.2766209726031796,3.2466190704354534,-0.6752433763800644,-5.085101306977088,0.6907783795165664,1.985245040958876,0.3413008321604541,0.0746027207028366
125,0.0,0.0,0.0,0.0,0.0,0.0,0.0,0.0,0.0,0.0,0.0,0.0,0.0,0.0,0.0,0.0,0.0,0.0,0.04712702378156103,0.10505273000122095,0.8530994775675157,1.416805738651262,0.7582250220294428,-0.17763224159179541,-0.2781662709728954,3.2395483023412517,-0.6171870548601334,-5.014289445423308,0.5248915061255626,1.6482164805152923,0.27121260729698277,0.04388411536088071
126,0.0,0.0,0.0,0.0,0.0,0.0,0.0,0.0,0.0,0.0,0.0,0.0,0.0,0.0,0.0,0.0,0.0,0.0,0.04754270407710866,0.0994346993701321,0.8320829379537299,1.4211142108729442,0.7746003713028656,-0.18284334903408325,-0.2749566248163789,3.2412940383906332,-0.5930535615977667,-4.9755236831518275,0.38420788022768565,1.3406724727760972,0.23107096330407903,0.02888309276901515
127,0.0,0.0,0.0,0.0,0.0,0.0,0.0,0.0,0.0,0.0,0.0,0.0,0.0,0.0,0.0,0.0,0.0,0.0,0.04813831451747094,0.08959729330044015,0.816676733006028,1.4232589197415635,0.7872127148872551,-0.18643814809561052,-0.26818683351261885,3.2487494454772823,-0.5934849199928837,-4.957581167079978,0.2526238390832536,1.060078212112937,0.21889691457311253,0.03137880087027279
128,0.0,0.0,0.0,0.0,0.0,0.0,0.0,0.0,0.0,0.0,0.0,0.0,0.0,0.0,0.0,0.0,0.0,0.0,0.048881978432402905,0.08944665605776249,0.7916082987598324,1.4280641164386505,0.7930259492140522,-0.19158268100771247,-0.26736692411197693,3.2335633400426183,-0.5875708652622046,-4.917223547189434,0.18981094685605893,1.0602590737094768,0.19760016558204382,-0.02364906461754295
129,0.0,0.0,0.0,0.0,0.0,0.0,0.0,0.0,0.0,0.0,0.0,0.0,0.0,0.0,0.0,0.0,0.0,0.0,0.04947743072491377,0.08911323762341834,0.7713243565341312,1.4311041018123027,0.803183887288942,-0.19465827911685893,-0.2667315274974776,3.2259022937312705,-0.6039536254733421,-4.895156129303268,0.23899512000060266,1.5235294178470862,0.2041499214689786,-0.004456735526130497
130,0.0,0.0,0.0,0.0,0.0,0.0,0.0,0.0,0.0,0.0,0.0,0.0,0.0,0.0,0.0,0.0,0.0,0.0,0.050041053118394255,0.08577216344203155,0.7557852625108255,1.4329116915110598,0.7959998703857937,-0.19611408161516058,-0.2625180814271547,3.2203524511828197,-0.6411475139435495,-4.883340540201144,0.2823041178776953,1.8011278206772903,0.20546993957480575,-0.00441088326904867
131,0.0,0.0,0.0,0.0,0.0,0.0,0.0,0.0,0.0,0.0,0.0,0.0,0.0,0.0,0.0,0.0,0.0,0.0,0.05053664236003089,0.08185519354607712,0.7472060375522697,1.432660281357557,0.7929918506503921,-0.19610997188715212,-0.2586071262987528,3.215529472976123,-0.6787145925319709,-4.88033316106554,0.3772696998132997,2.016487694040003,0.23000814537666683,-0.007297682512787513
132,0.0,0.0,0.0,0.0,0.0,0.0,0.0,0.0,0.0,0.0,0.0,0.0,0.0,0.0,0.0,0.0,0.0,0.0,0.051077183024757576,0.07703943724007879,0.7457772790724893,1.430601092528504,0.7893219967097297,-0.19495263800220833,-0.25470865620104366,3.2095941620782096,-0.7211451187789077,-4.885591632749454,0.5147466803181828,2.1664317203677235,0.2573692920687593,-0.014656782810731087
133,0.0,0.0,0.0,0.0,0.0,0.0,0.0,0.0,0.0,0.0,0.0,0.0,0.0,0.0,0.0,0.0,0.0,0.0,0.05160428428195099,0.07508625964853452,0.7491402497254408,1.4279595426522274,0.7728076735396229,-0.1923704656016609,-0.251809338865841,3.203264545678369,-0.7528235331331231,-4.902358916399469,0.668607346424581,2.238544663335981,0.2732582144477188,-0.02809756207755355
134,0.0,0.0,0.0,0.0,0.0,0.0,0.0,0.0,0.0,0.0,0.0,0.0,0.0,0.0,0.0,0.0,0.0,0.0,0.05189402294363524,0.08220137183932476,0.7429780077248156,1.428560973230245,0.7401393396794529,-0.1898035881487385,-0.25420658228818305,3.19778596546581,-0.7946404327892572,-4.914438109029117,0.7931671420194936,2.2760180676280575,0.2768898394667369,-0.036794312235217695
135,0.0,0.0,0.0,0.0,0.0,0.0,0.0,0.0,0.0,0.0,0.0,0.0,0.0,0.0,0.0,0.0,0.0,0.0,0.051856577827915355,0.0864693824741068,0.7434907520119427,1.4271106151057882,0.7197382055634247,-0.18572080358177442,-0.2548562299291826,3.1922546235062623,-0.8429844345729777,-4.923554869164661,0.9013144349924199,2.2731573586001876,0.27719086542503074,-0.020651593170844015
136,0.0,0.0,0.0,0.0,0.0,0.0,0.0,0.0,0.0,0.0,0.0,0.0,0.0,0.0,0.0,0.0,0.0,0.0,0.051906169129193554,0.09224013454407508,0.7450879274271979,1.4257212368789325,0.6849940719439236,-0.1818906608636151,-0.2546449333734413,3.1874246046578114,-0.8932812237417105,-4.928313423157058,0.9865584045768193,2.2408054365724834,0.2753714721449978,0.011831723445209247
137,0.0,0.0,0.0,0.0,0.0,0.0,0.0,0.0,0.0,0.0,0.0,0.0,0.0,0.0,0.0,0.0,0.0,0.0,0.05189866549539862,0.09305444461167053,0.7542881385908089,1.4213564272001942,0.6678808682547358,-0.1761580013649258,-0.2539616653404343,3.1830134112147537,-0.9448236821597517,-4.928236557319151,1.0552977965933676,2.1889124539036997,0.2723497878305311,0.055941254012426146
138,0.0,0.0,0.0,0.0,0.0,0.0,0.0,0.0,0.0,0.0,0.0,0.0,0.0,0.0,0.0,0.0,0.0,0.0,0.05208790544721455,0.09179664023223295,0.7668336107746594,1.4171300570818244,0.6453837088546193,-0.17277295263478892,-0.25132807074877017,3.180483094241164,-1.0078085226471878,-4.935821884087219,1.1165538718369095,2.103079533180188,0.2679566576707635,0.11567567406008591
139,0.0,0.0,0.0,0.0,0.0,0.0,0.0,0.0,0.0,0.0,0.0,0.0,0.0,0.0,0.0,0.0,0.0,0.0,0.0522296756575456,0.08838995428106489,0.7810406386205054,1.4118755440851667,0.6249136971022287,-0.1694760410508179,-0.24692211253418733,3.178343457166851,-1.076641051414448,-4.935137466456996,1.1696123953771775,1.9979892731888607,0.2565950321656941,0.1793043755781683
140,0.0,0.0,0.0,0.0,0.0,0.0,0.0,0.0,0.0,0.0,0.0,0.0,0.0,0.0,0.0,0.0,0.0,0.0,0.052541026285916406,0.07991882145919961,0.7966536740655554,1.4056420563452974,0.618593047514386,-0.1668390428482811,-0.2416544380870859,3.1768326307606363,-1.158605696171834,-4.925909483365466,1.2141332869777204,1.8823416040839427,0.2410588522330624,0.24978015786756247
141,0.0,0.0,0.0,0.0,0.0,0.0,0.0,0.0,0.0,0.0,0.0,0.0,0.0,0.0,0.0,0.0,0.0,0.0,0.05279226147854501,0.07996646176042839,0.8051522087417146,1.4041064927894154,0.6170920588159642,-0.16681394115972745,-0.24521536381314893,3.1742122212507478,-1.2370424363272439,-4.902892343009368,1.2433142292481052,1.7865890315375759,0.22235837147553195,0.30250811467039757
142,0.0,0.0,0.0,0.0,0.0,0.0,0.0,0.0,0.0,0.0,0.0,0.0,0.0,0.0,0.0,0.0,0.0,0.0,0.052745063468965174,0.07364495244648198,0.8162350734499313,1.4006596375418718,0.621916953092891,-0.16587849708611402,-0.2391090397740475,3.1703009115006897,-1.3142478730619436,-4.874609850242499,1.2718874084432872,1.6962848057440987,0.20449438692844382,0.3533742517370985
143,0.0,0.0,0.0,0.0,0.0,0.0,0.0,0.0,0.0,0.0,0.0,0.0,0.0,0.0,0.0,0.0,0.0,0.0,0.05281745212430164,0.06668328813565967,0.8313362356075511,1.3961038248695974,0.6297321457953141,-0.16484804424087235,-0.2366517800076514,3.1661175809234168,-1.3835555418286867,-4.84367330692895,1.2926157631615545,1.6239324154411068,0.18735207777577842,0.3958250037886365
144,0.0,0.0,0.0,0.0,0.0,0.0,0.0,0.0,0.0,0.0,0.0,0.0,0.0,0.0,0.0,0.0,0.0,0.0,0.0528608463803757,0.05991983094350359,0.8470288923712985,1.3919069655530187,0.6375536368288764,-0.16432817537842517,-0.23432544134201375,3.163536985536698,-1.4348474454747298,-4.826117528283734,1.3087413887377943,1.5573936474554937,0.17639802542306815,0.4208533784998917
145,0.0,0.0,0.0,0.0,0.0,0.0,0.0,0.0,0.0,0.0,0.0,0.0,0.0,0.0,0.0,0.0,0.0,0.0,0.05276120959829757,0.05419214968732226,0.8643505282754813,1.388704687806296,0.6460695394493188,-0.16460670236481043,-0.23287101009690594,3.166657559955615,-1.46334569490834,-4.842288252844178,1.3220664759796261,1.5136596995305058,0.17277733335311873,0.43769946501321777
146,0.0,0.0,0.0,0.0,0.0,0.0,0.0,0.0,0.0,0.0,0.0,0.0,0.0,0.0,0.0,0.0,0.0,0.0,0.05237784216489033,0.04797088119037781,0.880671139454758,1.3860660957744477,0.6623800671869138,-0.16512246489095828,-0.231888496019656,3.1750332625391535,-1.4678706897463436,-4.874041211601705,1.333284410621057,1.461000040064081,0.17085856834119795,0.4456495067192864
147,0.0,0.0,0.0,0.0,0.0,0.0,0.0,0.0,0.0,0.0,0.0,0.0,0.0,0.0,0.0,0.0,0.0,0.0,0.05188462567460057,0.043481957205732065,0.8935334491856365,1.385173518223282,0.6802726502127283,-0.16709375398353474,-0.23176573716162263,3.1821175599537503,-1.4469663014226424,-4.921101717165138,1.337274484506258,1.453540711899359,0.17888555201025821,0.4444236713760461
148,0.0,0.0,0.0,0.0,0.0,0.0,0.0,0.0,0.0,0.0,0.0,0.0,0.0,0.0,0.0,0.0,0.0,0.0,0.051312044299753536,0.04291513649066995,0.9033005365147458,1.3859350874579874,0.6812662613515472,-0.1683838999980591,-0.23058419047980303,3.1892761115313517,-1.4012889942432878,-4.986386356675384,1.3400777340814232,1.4425417671495244,0.1930791617826033,0.4290549129973256
149,0.0,0.0,0.0,0.0,0.0,0.0,0.0,0.0,0.0,0.0,0.0,0.0,0.0,0.0,0.0,0.0,0.0,0.0,0.050619515276466215,0.042182713897892785,0.9120035418188089,1.3858624687802787,0.6868863778380236,-0.16843213035086904,-0.23051199014013257,3.196535616570251,-1.337975915725208,-5.076184825879516,1.3312078201397028,1.4675906919613313,0.22263552305631198,0.39043379407954193
150,0.0,0.0,0.0,0.0,0.0,0.0,0.0,0.0,0.0,0.0,0.0,0.0,0.0,0.0,0.0,0.0,0.0,0.0,0.050016150002029545,0.04487460774505077,0.9107461142326925,1.3887716122331046,0.6937672366074766,-0.16914089088280346,-0.23445936859116356,3.20513939739236,-1.2705840193344011,-5.159553121394127,1.3144578694126425,1.519105345778264,0.25848881158356163,0.3430152589666576
151,0.0,0.0,0.0,0.0,0.0,0.0,0.0,0.0,0.0,0.0,0.0,0.0,0.0,0.0,0.0,0.0,0.0,0.0,0.04949916039414879,0.05152147481141371,0.9017522892001902,1.3935970793346857,0.6979448987302592,-0.17017662983851412,-0.23762297819906789,3.215184222734029,-1.1998001073765117,-5.2193182009294015,1.2873227008897168,1.567257783154913,0.2892417861961034,0.2877308867306623
152,0.0,0.0,0.0,0.0,0.0,0.0,0.0,0.0,0.0,0.0,0.0,0.0,0.0,0.0,0.0,0.0,0.0,0.0,0.04914415088366644,0.05973940126139764,0.8860093502851187,1.3993058001803116,0.7065419368935483,-0.17241892781722754,-0.24450192420509423,3.2242330207954715,-1.1303815007145028,-5.26265962710422,1.2469748324598116,1.6116963088085179,0.32224126316873525,0.21709534708507341
153,0.0,0.0,0.0,0.0,0.0,0.0,0.0,0.0,0.0,0.0,0.0,0.0,0.0,0.0,0.0,0.0,0.0,0.0,0.04908187289152237,0.06286394871402319,0.8747687241690957,1.4026297665660896,0.7051995543864454,-0.17324507205070105,-0.2427023541701312,3.2358754184464122,-1.0681224905334408,-5.292601856405869,1.1926839383226595,1.6478821038166247,0.35656960931910725,0.15859894842234068
154,0.0,0.0,0.0,0.0,0.0,0.0,0.0,0.0,0.0,0.0,0.0,0.0,0.0,0.0,0.0,0.0,0.0,0.0,0.0491230754550196,0.06765220220031226,0.8555688155508318,1.4075464826419612,0.7102544269846489,-0.17535310549006133,-0.24730064772482105,3.246898058246594,-0.9957599256271492,-5.290435985772279,1.1185313874396536,1.702881077980815,0.38500655373726006,0.14484449307238836
155,0.0,0.0,0.0,0.0,0.0,0.0,0.0,0.0,0.0,0.0,0.0,0.0,0.0,0.0,0.0,0.0,0.0,0.0,0.04933448525021424,0.07476293847590357,0.8284460165409753,1.4140211838405996,0.7196424118505905,-0.17887059627898638,-0.2529079321489482,3.2588021043318633,-0.9583276706430429,-5.220250132668422,0.9567808532073523,1.8116083000982424,0.3649863966928621,0.12444965822537693
156,0.0,0.0,0.0,0.0,0.0,0.0,0.0,0.0,0.0,0.0,0.0,0.0,0.0,0.0,0.0,0.0,0.0,0.0,0.0496910300539662,0.08461109919380926,0.7930150601184569,1.4219875844952112,0.7262195558601853,-0.18352334918286584,-0.25908806502803033,3.2602562957649055,-0.9295054697931265,-5.143638592827557,0.7751563946657876,1.8178063973554468,0.32775619281601476,0.10017782155583328
157,0.0,0.0,0.0,0.0,0.0,0.0,0.0,0.0,0.0,0.0,0.0,0.0,0.0,0.0,0.0,0.0,0.0,0.0,0.05003340093356819,0.08580595648018903,0.771781471533923,1.4253433996917848,0.7266381019752969,-0.18520480407802342,-0.25839999655429,3.2563232469752235,-0.9007259094113103,-5.071866903849958,0.5779219860875204,1.6962564221002883,0.27748393824392914,0.08288874574993987
158,0.0,0.0,0.0,0.0,0.0,0.0,0.0,0.0,0.0,0.0,0.0,0.0,0.0,0.0,0.0,0.0,0.0,0.0,0.05057549665553953,0.08757061375660534,0.7599847879249082,1.4263400403913329,0.7242883196653127,-0.1851763123339376,-0.25810006734361995,3.2403316568206892,-0.8360905326913556,-4.9972691958567586,0.4313569609387127,1.536533780315516,0.23038685910418014,0.02804834624042015
159,0.0,0.0,0.0,0.0,0.0,0.0,0.0,0.0,0.0,0.0,0.0,0.0,0.0,0.0,0.0,0.0,0.0,0.0,0.05104589173061657,0.0925115011697254,0.7438669794881673,1.4285517858420835,0.7078163163739971,-0.1849198568159181,-0.25884534519506197,3.2227718597612443,-0.7672639071888088,-4.930611353559258,0.29809945780326075,1.5900750897529417,0.1776004534278916,-0.07519818317132254
160,0.0,0.0,0.0,0.0,0.0,0.0,0.0,0.0,0.0,0.0,0.0,0.0,0.0,0.0,0.0,0.0,0.0,0.0,0.0513689706672761,0.09546443377589485,0.7378008952583747,1.428124400975499,0.6976747245457052,-0.18321543447109667,-0.2594720844206292,3.211801845504048,-0.6895124137792675,-4.88533767199577,0.21878932551029656,1.8804132960445588,0.0945876803068699,-0.1538777008649696
161,0.0,0.0,0.0,0.0,0.0,0.0,0.0,0.0,0.0,0.0,0.0,0.0,0.0,0.0,0.0,0.0,0.0,0.0,0.051683660029871556,0.08235483394793375,0.769120184209102,1.403573121994996,0.6900096223137309,-0.16176712092551546,-0.2613268031478157,3.2085289735437192,-0.5922050861369721,-4.85504953759881,0.14463366243667786,2.373149008285689,-0.06515941045711707,-0.07963738848947678
162,0.0,0.0,0.0,0.0,0.0,0.0,0.0,0.0,0.0,0.0,0.0,0.0,0.0,0.0,0.0,0.0,0.0,0.0,0.0557357253527726,0.07746864290422438,0.7742510015220381,1.3937096908223727,0.6583650502843567,-0.15865843675118368,-0.2572261633008909,3.2049980941544223,-0.5332071100384237,-4.838316590658277,0.11509253873414046,2.7277466999082236,-0.1652618544025311,-0.041824188687081564
163,0.0,0.0,0.0,0.0,0.0,0.0,0.0,0.0,0.0,0.0,0.0,0.0,0.0,0.0,0.0,0.0,0.0,0.0,0.05704521041092154,0.07934240602111078,0.7758075761545767,1.3934978183463393,0.6425450220492797,-0.16031758653688608,-0.25887172175683715,3.205735958406479,-0.4954167200356401,-4.838493819535375,0.16583673836655266,3.073676094750159,-0.17270506591852058,-0.030285202865697875
164,0.0,0.0,0.0,0.0,0.0,0.0,0.0,0.0,0.0,0.0,0.0,0.0,0.0,0.0,0.0,0.0,0.0,0.0,0.05683594021751092,0.08021600871204249,0.7791379472823459,1.3956873506250398,0.6528268832735122,-0.1633562662773642,-0.259508067053428,3.2038884732135795,-0.5177684701549841,-4.8395727935883155,0.1778656073225834,3.2736671871198753,-0.1903896144478929,-0.02924373610087384
165,0.0,0.0,0.0,0.0,0.0,0.0,0.0,0.0,0.0,0.0,0.0,0.0,0.0,0.0,0.0,0.0,0.0,0.0,0.05614023862440537,0.09030403404112407,0.7729688745613771,1.4021559261451935,0.6596288147024654,-0.16761318475962972,-0.2663709849771944,3.208591851427966,-0.599243875839613,-4.857107421528261,0.22276281511004253,3.539865981218095,-0.14046319060939694,-0.14031199265594171
166,0.0,0.0,0.0,0.0,0.0,0.0,0.0,0.0,0.0,0.0,0.0,0.0,0.0,0.0,0.0,0.0,0.0,0.0,0.05514162215299189,0.09531717789632364,0.7649139836036418,1.4080977884318668,0.6771791459852841,-0.1719328570422121,-0.26900830440470525,3.2106568525864274,-0.661284407687498,-4.873233630130283,0.3447909738242083,3.137053054982197,-0.005866039482031404,-0.09647876298444374
167,0.0,0.0,0.0,0.0,0.0,0.0,0.0,0.0,0.0,0.0,0.0,0.0,0.0,0.0,0.0,0.0,0.0,0.0,0.05440313927499461,0.09633969781830226,0.7646389535912254,1.411824134536974,0.6952355426725805,-0.1748349044447991,-0.26949533529830966,3.2102106580916137,-0.7317213583188452,-4.888899856120857,0.4803798835253904,2.869364102712948,0.09128883320389299,-0.07326294677428707
168,0.0,0.0,0.0,0.0,0.0,0.0,0.0,0.0,0.0,0.0,0.0,0.0,0.0,0.0,0.0,0.0,0.0,0.0,0.053766401467474925,0.10568062622742108,0.7505918285454365,1.4188772217778456,0.6972481542579007,-0.1789361556689061,-0.2751078783375948,3.2071330478288735,-0.7918808468139992,-4.900833115115989,0.6018790184455438,2.674375028242377,0.15184236690089992,-0.04977641339299683
169,0.0,0.0,0.0,0.0,0.0,0.0,0.0,0.0,0.0,0.0,0.0,0.0,0.0,0.0,0.0,0.0,0.0,0.0,0.0530469541984157,0.11005870667934892,0.7408377843292163,1.423349081063741,0.7116042646627699,-0.18146491884745575,-0.2775528783148588,3.205386790935254,-0.8686551037064998,-4.9121463400400645,0.7014085317934897,2.5233901276475956,0.1954261416977934,-0.023795767632371845
170,0.0,0.0,0.0,0.0,0.0,0.0,0.0,0.0,0.0,0.0,0.0,0.0,0.0,0.0,0.0,0.0,0.0,0.0,0.05265251794059124,0.11034012995010353,0.7378515482912915,1.4253753370998048,0.7233545131051333,-0.18295093293965278,-0.2774961693940533,3.203851793405588,-0.956632057431456,-4.92131836663381,0.7903489002510736,2.3983008963091583,0.22181050182531645,0.015573379544259955
171,0.0,0.0,0.0,0.0,0.0,0.0,0.0,0.0,0.0,0.0,0.0,0.0,0.0,0.0,0.0,0.0,0.0,0.0,0.05239051083362,0.10352933842405665,0.7443290915561733,1.4241851862152837,0.7117204420465134,-0.18180704861431604,-0.2707795126469246,3.2029746374327552,-1.0576045396468423,-4.924387014916586,0.8575586864247992,2.277559957088928,0.23198764587610576,0.06648928693687114
172,0.0,0.0,0.0,0.0,0.0,0.0,0.0,0.0,0.0,0.0,0.0,0.0,0.0,0.0,0.0,0.0,0.0,0.0,0.0522717417386785,0.09395894060710708,0.7547542532709156,1.4207165344230306,0.6927134978065783,-0.17916950449699598,-0.26199544938541314,3.2036850105621344,-1.1731223780522622,-4.9275216653262355,0.9093189336568402,2.1436777403300593,0.23706528918910666,0.13090213062917455
173,0.0,0.0,0.0,0.0,0.0,0.0,0.0,0.0,0.0,0.0,0.0,0.0,0.0,0.0,0.0,0.0,0.0,0.0,0.0524282622257436,0.0729147640306207,0.7889078741880949,1.4070037558856667,0.7300651917444138,-0.1745838734766104,-0.2560497340045266,3.2058192953267852,-1.314676336326225,-4.924911265208706,0.9549141139668008,1.9994963998748376,0.23230424007279785,0.2139644366706355
174,0.0,0.0,0.0,0.0,0.0,0.0,0.0,0.0,0.0,0.0,0.0,0.0,0.0,0.0,0.0,0.0,0.0,0.0,0.05320385324798225,0.06297906854784241,0.8141507097710491,1.4019925227268755,0.7253504320164388,-0.17566882617347787,-0.24921339646056972,3.214538235653698,-1.472916848209116,-4.918674753564759,0.9949663905840824,1.8531099423946962,0.21543478433925645,0.3039071828514587
175,0.0,0.0,0.0,0.0,0.0,0.0,0.0,0.0,0.0,0.0,0.0,0.0,0.0,0.0,0.0,0.0,0.0,0.0,0.05292102893247318,0.05730815135585071,0.8347436480356618,1.3991332611836451,0.72975295681355,-0.17533162108513226,-0.24598817845135348,3.217375573189434,-1.6553331436742977,-4.879108038380107,1.0268957468255828,1.7212296496416832,0.1780582695082699,0.38412895561484767
176,0.0,0.0,0.0,0.0,0.0,0.0,0.0,0.0,0.0,0.0,0.0,0.0,0.0,0.0,0.0,0.0,0.0,0.0,0.05241424669902918,0.05084521417745067,0.8565447733807862,1.395854672573659,0.7181805459381477,-0.17451568330291736,-0.2386638784198236,3.1446475928251463,-1.8231123149026187,-4.865050245120835,1.0676926412593502,1.4866153825155288,0.16123000386876116,0.4466322937784597
177,0.0,0.0,0.0,0.0,0.0,0.0,0.0,0.0,0.0,0.0,0.0,0.0,0.0,0.0,0.0,0.0,0.0,0.0,0.05176250121275022,0.046851195063158935,0.8755829089084076,1.3926756442636201,0.712309966309606,-0.1729722675238913,-0.23553067856197596,3.127354721809198,-2.0162612578656445,-4.876350443605944,1.1141808792046057,1.2471565790778718,0.13508955606643608,0.4985951565584223
178,0.0,0.0,0.0,0.0,0.0,0.0,0.0,0.0,0.0,0.0,0.0,0.0,0.0,0.0,0.0,0.0,0.0,0.0,0.05126662030381151,0.040358996231203315,0.8892606464079055,1.3903608865507817,0.7123733008471954,-0.17223598111929117,-0.2312948757191386,3.1161297275002746,-2.2193667969614976,-4.906861053083976,1.1586374699549071,0.9776936913329417,0.09540521515038476,0.5348664725800462
179,0.0,0.0,0.0,0.0,0.0,0.0,0.0,0.0,0.0,0.0,0.0,0.0,0.0,0.0,0.0,0.0,0.0,0.0,0.050889763859900725,0.03512362548725473,0.9011796805458067,1.3881232502940073,0.7162058197786317,-0.17181069725846604,-0.228575620417185,3.11523032437337,-2.423810924101847,-4.908489959573427,1.206916764088962,0.7035052730752517,0.04244493655429433,0.5581195304371455
180,0.0,0.0,0.0,0.0,0.0,0.0,0.0,0.0,0.0,0.0,0.0,0.0,0.0,0.0,0.0,0.0,0.0,0.0,0.05056313597778623,0.03515416319600599,0.9156306663703213,1.3856357731173043,0.6946889801215611,-0.17109009263963437,-0.22529486295349688,3.1216449147162835,-2.629149185272194,-4.86159579273224,1.2535418211309703,0.46441920330362607,-0.009609671867055573,0.5571720036143679
181,0.0,0.0,0.0,0.0,0.0,0.0,0.0,0.0,0.0,0.0,0.0,0.0,0.0,0.0,0.0,0.0,0.0,0.0,0.05030164697642057,0.030814163616266006,0.9275039967463058,1.3823141364345615,0.6936791079193573,-0.16929145319458994,-0.22309143001017176,3.1331088672490544,-2.8235434622588538,-4.760900743520233,1.2873235303299801,0.28726891561072393,-0.05610917594198422,0.5351887986552167
182,0.0,0.0,0.0,0.0,0.0,0.0,0.0,0.0,0.0,0.0,0.0,0.0,0.0,0.0,0.0,0.0,0.0,0.0,0.05008302682412272,0.028217196362012312,0.9394396558211341,1.379159052079544,0.7008158441687188,-0.16799101949448575,-0.2237929601945506,3.147903754199997,-2.9980747478283667,-4.6243371830442275,1.3075998698427598,0.16775518292242764,-0.09585086214435132,0.5034155972165038
183,0.0,0.0,0.0,0.0,0.0,0.0,0.0,0.0,0.0,0.0,0.0,0.0,0.0,0.0,0.0,0.0,0.0,0.0,0.04977879403070809,0.027527062126719817,0.9495277014739051,1.3775100522957042,0.7170759700506962,-0.16754721801992464,-0.2291494896144275,3.163811071586502,-3.1503601926416325,-4.472445145857232,1.319845909973106,0.08477328790059167,-0.12834583929615898,0.45309295910807473
184,0.0,0.0,0.0,0.0,0.0,0.0,0.0,0.0,0.0,0.0,0.0,0.0,0.0,0.0,0.0,0.0,0.0,0.0,0.04938452934177456,0.026787991678104722,0.9589859061842135,1.376332407865313,0.7319667930907499,-0.16745831262288466,-0.23074655824722032,3.1785415697690778,-3.275752496988774,-4.346586171855941,1.3241988598498098,0.024826904136496526,-0.15425095604940392,0.40031748148993657
185,0.0,0.0,0.0,0.0,0.0,0.0,0.0,0.0,0.0,0.0,0.0,0.0,0.0,0.0,0.0,0.0,0.0,0.0,0.04893693393001029,0.026265614415280702,0.9678840052923091,1.3754662119759566,0.7436119740970674,-0.16761183984089154,-0.23192737581478834,3.190023824795175,-3.3726125016445274,-4.259789867253122,1.3218732307483094,-0.03409484847481493,-0.17055728024407854,0.35987928179868245
186,0.0,0.0,0.0,0.0,0.0,0.0,0.0,0.0,0.0,0.0,0.0,0.0,0.0,0.0,0.0,0.0,0.0,0.0,0.04844278976026478,0.026933329057787593,0.9753034289161552,1.3753867728349272,0.7548840796613732,-0.16804054939790267,-0.23391810802557486,3.197306971962938,-3.4320626852217075,-4.199422433516159,1.3241395332657817,-0.05930643218585714,-0.1828671300637474,0.33333270220134925
187,0.0,0.0,0.0,0.0,0.0,0.0,0.0,0.0,0.0,0.0,0.0,0.0,0.0,0.0,0.0,0.0,0.0,0.0,0.0479349317367799,0.027795943650295498,0.9804204774492576,1.3761199065956744,0.7684274176770863,-0.16875578833518082,-0.23617865247769296,3.200496360012488,-3.4531324854941388,-4.161582180694391,1.330518065778914,-0.05887414139364531,-0.18957113619159316,0.33149697866593947
188,0.0,0.0,0.0,0.0,0.0,0.0,0.0,0.0,0.0,0.0,0.0,0.0,0.0,0.0,0.0,0.0,0.0,0.0,0.04741355594237815,0.029528059308969633,0.9848299585243727,1.3769759661081262,0.7741390171161266,-0.16968488579015856,-0.23754267688531763,3.202305691086715,-3.437500596899502,-4.169012747525228,1.3250191659268578,-0.045530552226239814,-0.18553810189215267,0.34732850848192864
189,0.0,0.0,0.0,0.0,0.0,0.0,0.0,0.0,0.0,0.0,0.0,0.0,0.0,0.0,0.0,0.0,0.0,0.0,0.04696773791671709,0.030394495984721253,0.990141857988815,1.3767189418187995,0.7674775987045542,-0.17001689425203406,-0.23654240053269812,3.199609494414748,-3.3792726011052894,-4.2204634867943716,1.3189393795421778,0.012436607149741437,-0.17629184775751044,0.3744410907353797
190,0.0,0.0,0.0,0.0,0.0,0.0,0.0,0.0,0.0,0.0,0.0,0.0,0.0,0.0,0.0,0.0,0.0,0.0,0.046536872291741964,0.03699349964848204,0.99686220343163,1.3765988141137453,0.7327753441420439,-0.16955751656516518,-0.23536973723712393,3.194903276017535,-3.293372920889735,-4.281044367858954,1.3147685487320215,0.0719372037921501,-0.15869597070484306,0.4091523556606238
191,0.0,0.0,0.0,0.0,0.0,0.0,0.0,0.0,0.0,0.0,0.0,0.0,0.0,0.0,0.0,0.0,0.0,0.0,0.04608977397988699,0.043755767690435265,1.003278801890144,1.375509297842387,0.7007732024438409,-0.16759391125356496,-0.23557122876948658,3.1930896187692377,-3.117915155797342,-3.6547649468500083,1.3628551551662542,0.7250120499895778,-0.18667967023423795,0.43928632045514
192,0.0,0.0,0.0,0.0,0.0,0.0,0.0,0.0,0.0,0.0,0.0,0.0,0.0,0.0,0.0,0.0,0.0,0.0,0.04590293637359224,0.04409334080516274,0.9999169447412077,1.375417115398238,0.7034952809995998,-0.16569755109940007,-0.23704720199980114,3.19330349031068,-2.9486922060055503,-3.678008728839105,1.406093975064289,0.8075125871736603,-0.19173860321533565,0.4747163119666237
193,0.0,0.0,0.0,0.0,0.0,0.0,0.0,0.0,0.0,0.0,0.0,0.0,0.0,0.0,0.0,0.0,0.0,0.0,0.045953976715513246,0.04775667620980098,1.0009378119645462,1.3750367930093594,0.6822853393760336,-0.16590556283720073,-0.23621848263948908,3.13260722546213,-2.734979878305405,-2.4084663478431088,1.428660593006797,2.2956316211358865,-0.15936260161665416,0.5509114827701409
194,0.0,0.0,0.0,0.0,0.0,0.0,0.0,0.0,0.0,0.0,0.0,0.0,0.0,0.0,0.0,0.0,0.0,0.0,0.04598396811665406,0.05004237910551783,1.0034287543173022,1.3736733727502441,0.6773422592541399,-0.1644788628178799,-0.23811483185247606,3.078472715707687,-2.5199862096603107,-1.4819547478876207,1.4448920624509753,3.6098561794842223,-0.08577197625434216,0.6938992877204903
195,0.0,0.0,0.0,0.0,0.0,0.0,0.0,0.0,0.0,0.0,0.0,0.0,0.0,0.0,0.0,0.0,0.0,0.0,0.04596845180760244,0.05042775235169626,1.0070569868600547,1.3720388471802138,0.6776145682536343,-0.16343091128118112,-0.23949733964948727,2.551671067694059,-2.295158381416119,-0.7515393811555916,1.468920971654422,4.401455340999353,0.027729902351616417,0.7104602091916552
196,0.0,0.0,0.0,0.0,0.0,0.0,0.0,0.0,0.0,0.0,0.0,0.0,0.0,0.0,0.0,0.0,0.0,0.0,0.045980510205159246,0.04855567779297439,1.007628246125069,1.3721090658046409,0.6831740513068612,-0.16420376585698143,-0.23939826439445186,2.9395941694334513,-2.1085764201731294,-0.443060783274874,1.4113557359444282,5.283645377783166,0.11248089044773309,0.6860198423454892
197,0.0,0.0,0.0,0.0,0.0,0.0,0.0,0.0,0.0,0.0,0.0,0.0,0.0,0.0,0.0,0.0,0.0,0.0,0.04590245563774077,0.047441824853214166,1.0075508639823123,1.372692104568076,0.695601469603229,-0.16456075684318264,-0.24054373220503097,3.091032469763611,-1.9394057613359894,-0.02333916066729097,1.3490101553275287,6.019198406947264,0.1609199665677705,0.6012034580240232
198,0.0,0.0,0.0,0.0,0.0,0.0,0.0,0.0,0.0,0.0,0.0,0.0,0.0,0.0,0.0,0.0,0.0,0.0,0.045734251830409384,0.047320197359152334,1.0058144029318317,1.3743679921190362,0.7114077266496989,-0.1653680769763213,-0.24249532941382893,3.1909986744662397,-1.7879990730792905,0.2601185665440359,1.2797391653597507,6.530837130369533,0.19947729759764915,0.5309919549261783
199,0.0,0.0,0.0,0.0,0.0,0.0,0.0,0.0,0.0,0.0,0.0,0.0,0.0,0.0,0.0,0.0,0.0,0.0,0.045472051865915665,0.051901444956371466,1.0020982407067558,1.3780933651076013,0.7090576088889885,-0.16651645694821562,-0.2436862845590891,3.241598017259285,-1.6351991574306932,0.4697494940402609,1.2238729547312397,6.903817632303435,0.22511542494179124,0.4303264859164303
200,0.0,0.0,0.0,0.0,0.0,0.0,0.0,0.0,0.0,0.0,0.0,0.0,0.0,0.0,0.0,0.0,0.0,0.0,0.045163055795180734,0.05348928213631477,0.9967648758062775,1.3805280196824452,0.715200891792947,-0.16662349876224578,-0.24463277887448098,3.2586651683467163,-1.4921201549928378,0.6493473956365707,1.1807805959152138,7.231025550060378,0.24333623457535608,0.3223582185707812
201,0.0,0.0,0.0,0.0,0.0,0.0,0.0,0.0,0.0,0.0,0.0,0.0,0.0,0.0,0.0,0.0,0.0,0.0,0.04505850543732942,0.055325010131394695,0.9874555493465377,1.383302503217092,0.7240376506913022,-0.1668553972156878,-0.24608550418893496,3.2554284351145553,-1.3616357005636839,0.8134831019953994,1.1441679986228943,7.541296283751888,0.2539538092034505,0.2145583775310825
202,0.0,0.0,0.0,0.0,0.0,0.0,0.0,0.0,0.0,0.0,0.0,0.0,0.0,0.0,0.0,0.0,0.0,0.0,0.04521886590527138,0.05469916206401017,0.9797513203866626,1.3852834770918958,0.7275261476638435,-0.1675206555487182,-0.24511556876934953,3.2420326560190404,-1.2273523441322878,0.9262725204536876,1.1496901263260275,7.774906788528698,0.2677105852009692,0.1614374176429107
203,0.0,0.0,0.0,0.0,0.0,0.0,0.0,0.0,0.0,0.0,0.0,0.0,0.0,0.0,0.0,0.0,0.0,0.0,0.04550505307408717,0.050153455601475806,0.9665620936692347,1.3877435750042495,0.7366630097985946,-0.169569525503684,-0.24215475236450013,3.2349911487398395,-1.1050484770356066,0.99383144011825,1.136411557452033,7.948849731319709,0.2833851128255688,0.10068895476860297
204,0.0,0.0,0.0,0.0,0.0,0.0,0.0,0.0,0.0,0.0,0.0,0.0,0.0,0.0,0.0,0.0,0.0,0.0,0.04603881808962188,0.04810895112520113,0.9557197222965682,1.3898180441669994,0.7485462970744594,-0.17124649435168957,-0.24181686799874233,3.232957312895925,-0.9915975163878067,1.0356070064225442,1.111895404239444,8.071253472614409,0.2965529297305449,0.04601312676348124
205,0.0,0.0,0.0,0.0,0.0,0.0,0.0,0.0,0.0,0.0,0.0,0.0,0.0,0.0,0.0,0.0,0.0,0.0,0.04644539258143435,0.051210786774676394,0.9382527797328521,1.3947833788804183,0.7578983980486208,-0.17438039309601266,-0.24537919646313983,3.232554137108832,-0.8840020328887007,1.0694717188636067,1.0835492574182333,8.164822985951423,0.3033314623248655,0.000886505898190254
206,0.0,0.0,0.0,0.0,0.0,0.0,0.0,0.0,0.0,0.0,0.0,0.0,0.0,0.0,0.0,0.0,0.0,0.0,0.04678375626490304,0.05348173389413442,0.9250692634620277,1.3979793841480246,0.7701445022980882,-0.17613521985175004,-0.24694718974242572,3.2315379683435457,-0.7832358113767648,1.099445617655393,1.0570333942752048,8.245708488947948,0.3090237112232107,-0.03441840096635644
207,0.0,0.0,0.0,0.0,0.0,0.0,0.0,0.0,0.0,0.0,0.0,0.0,0.0,0.0,0.0,0.0,0.0,0.0,0.047097980996839525,0.05617594272661738,0.9155773445835846,1.4003246993976117,0.7780731432053549,-0.17741983720713328,-0.24880806074264428,3.2306139050292577,-0.6808738916248538,1.1287630803800202,1.0292498984448801,8.322778776132647,0.30858015046547294,-0.07163595547280158
208,0.0,0.0,0.0,0.0,0.0,0.0,0.0,0.0,0.0,0.0,0.0,0.0,0.0,0.0,0.0,0.0,0.0,0.0,0.047328311838436776,0.060488438119994034,0.9034198829766459,1.4035620105242048,0.7707338070232247,-0.17821264990390875,-0.24937517930608386,3.228039200663555,-0.5734760298920722,1.1701141704699365,0.9913623647144721,8.393971149158949,0.30618774449800096,-0.0772057321753475
209,0.0,0.0,0.0,0.0,0.0,0.0,0.0,0.0,0.0,0.0,0.0,0.0,0.0,0.0,0.0,0.0,0.0,0.0,0.04749219486311073,0.06381056068631728,0.8951831591251452,1.404925762762542,0.7680542998075185,-0.17795617290050691,-0.2508334096500364,3.223599242348029,-0.47436375232288097,1.2177008118678585,0.9382937715536454,8.418101848285234,0.29075842139894525,-0.0661036005152844
210,0.0,0.0,0.0,0.0,0.0,0.0,0.0,0.0,0.0,0.0,0.0,0.0,0.0,0.0,0.0,0.0,0.0,0.0,0.04771191661149603,0.06579015950117288,0.8903041530767346,1.4053280264148766,0.7655859427257866,-0.177597516461471,-0.2518172284349804,3.2189916070376436,-0.3985096767103821,1.2643849172432762,0.8789558069844454,8.414681233321097,0.2658668637866483,-0.05302559965828138
211,0.0,0.0,0.0,0.0,0.0,0.0,0.0,0.0,0.0,0.0,0.0,0.0,0.0,0.0,0.0,0.0,0.0,0.0,0.047913577660596285,0.06655374989378295,0.8884476967457992,1.4049676359194299,0.7590414931102473,-0.17689574864225083,-0.25156350598227767,3.2123065953052894,-0.3276677225379492,1.3157102357178843,0.8088533261247077,8.369521379714113,0.230259324399022,-0.02457696984819092
212,0.0,0.0,0.0,0.0,0.0,0.0,0.0,0.0,0.0,0.0,0.0,0.0,0.0,0.0,0.0,0.0,0.0,0.0,0.04806910332752,0.06810221920592331,0.8883291881377811,1.4042868263726693,0.7547066396452495,-0.17606399442675266,-0.2524622625872976,3.2190770170207044,-0.2788771825216729,1.3416023825257313,0.7007350577628122,7.955190469232822,0.19410050791918093,-0.012035054257074617
213,0.0,0.0,0.0,0.0,0.0,0.0,0.0,0.0,0.0,0.0,0.0,0.0,0.0,0.0,0.0,0.0,0.0,0.0,0.04817804968819337,0.06886340501561718,0.8883124063551622,1.4037709292108167,0.7546876219877455,-0.17553720738752643,-0.25353216264832795,3.2095098644054,-0.23206969895142807,1.3904363526415386,0.6225629111919628,7.162501398258691,0.15748282840822808,0.032957466344410935
214,0.0,0.0,0.0,0.0,0.0,0.0,0.0,0.0,0.0,0.0,0.0,0.0,0.0,0.0,0.0,0.0,0.0,0.0,0.048249080182260484,0.0704716408349235,0.8887387480134042,1.4035794550141263,0.7554969822497463,-0.17532592110681539,-0.2550834184754958,3.204687741966131,-0.21511696837550295,1.4180875531994905,0.5502761582128928,6.5296792742386875,0.12024107028772707,0.07838158817917074
215,0.0,0.0,0.0,0.0,0.0,0.0,0.0,0.0,0.0,0.0,0.0,0.0,0.0,0.0,0.0,0.0,0.0,0.0,0.048213868997712024,0.07494739953446321,0.882551940310607,1.4058874166385875,0.7457847904504286,-0.17548736150891583,-0.25623616168535646,3.1974602047293965,-0.22948004926310234,1.433659099150887,0.4993577068349223,5.741308167418132,0.037423089470152104,0.03820014785530622
216,0.0,0.0,0.0,0.0,0.0,0.0,0.0,0.0,0.0,0.0,0.0,0.0,0.0,0.0,0.0,0.0,0.0,0.0,0.04813727099386554,0.0758661585377823,0.8812782999069635,1.405565853803156,0.7391085190115799,-0.17450086356475747,-0.2557139637904491,3.1886934944214547,-0.25142038396309746,1.4557803244730507,0.5245842948326793,4.539564421236314,0.06096243811033455,0.05502574589310835
217,0.0,0.0,0.0,0.0,0.0,0.0,0.0,0.0,0.0,0.0,0.0,0.0,0.0,0.0,0.0,0.0,0.0,0.0,0.04820012734562855,0.08049573388350513,0.8748095563888422,1.4071552974155885,0.7249208599613881,-0.17390759824573168,-0.2567496678071574,3.1850047028105797,-0.2746088840246308,1.4620769482904137,0.5823658594956685,3.9033766505433114,0.09208051817344912,0.005031973913912441
218,0.0,0.0,0.0,0.0,0.0,0.0,0.0,0.0,0.0,0.0,0.0,0.0,0.0,0.0,0.0,0.0,0.0,0.0,0.04826065214055459,0.0821882484771042,0.871063130614367,1.4071212508346018,0.7210655306357177,-0.17288497467504702,-0.2577878966427887,3.183497032859908,-0.33472638106101776,1.4626187940512434,0.6135841188163397,3.473815107620057,0.11830201752807049,-0.032670613841349144
219,0.0,0.0,0.0,0.0,0.0,0.0,0.0,0.0,0.0,0.0,0.0,0.0,0.0,0.0,0.0,0.0,0.0,0.0,0.04845253437990967,0.08089520435360427,0.8711735719639758,1.4058348805836511,0.7237490126390831,-0.17220071929699038,-0.25802160765988646,3.184515353238139,-0.39798817850522306,1.449040434006165,0.6749371559761138,3.159409566504423,0.15138466206921455,-0.06825295386343894
220,0.0,0.0,0.0,0.0,0.0,0.0,0.0,0.0,0.0,0.0,0.0,0.0,0.0,0.0,0.0,0.0,0.0,0.0,0.04867724861350214,0.07863040513884736,0.87162895809081,1.4050979807753292,0.731688354925488,-0.17333798105554055,-0.258085526573022,3.1882461981078345,-0.49059017728336274,1.4278798386168814,0.7246696040635483,2.9310750770955596,0.18031758970485148,-0.08524360987110398
221,0.0,0.0,0.0,0.0,0.0,0.0,0.0,0.0,0.0,0.0,0.0,0.0,0.0,0.0,0.0,0.0,0.0,0.0,0.048883603228233576,0.07647230611021519,0.87020688245461,1.4055484883710887,0.7427015479424102,-0.1745072404618875,-0.25818112859131814,3.191066934183509,-0.594891112980519,1.402935192674189,0.7817258739234276,2.7388661215212675,0.2101255835334531,-0.08008666764616394
222,0.0,0.0,0.0,0.0,0.0,0.0,0.0,0.0,0.0,0.0,0.0,0.0,0.0,0.0,0.0,0.0,0.0,0.0,0.048925616686630015,0.07479940359613449,0.8645550901795203,1.4072110066111472,0.7596982318810758,-0.17713303767517666,-0.25876231003103767,3.1923753393406193,-0.6960648623107851,1.383182320881004,0.8517413807124478,2.597530913109235,0.22367944431233652,-0.06774933339593373
223,0.0,0.0,0.0,0.0,0.0,0.0,0.0,0.0,0.0,0.0,0.0,0.0,0.0,0.0,0.0,0.0,0.0,0.0,0.0490480744265932,0.07859718459512109,0.8524337606014967,1.4116045131088157,0.7524698237222809,-0.17904227421665656,-0.2584678551925591,3.1917952689668256,-0.80112816577575,1.3608919899064753,0.9325400767553098,2.449050113806129,0.23428573094163038,-0.03149601710030477
224,0.0,0.0,0.0,0.0,0.0,0.0,0.0,0.0,0.0,0.0,0.0,0.0,0.0,0.0,0.0,0.0,0.0,0.0,0.04892201350613985,0.07830821652986392,0.8397054090897668,1.4143229849114591,0.7408588730479687,-0.1791064585913679,-0.25461058708766604,3.193357225224236,-0.9159468418378028,1.3386769630776623,0.9926140152602364,2.2966600798737717,0.24041144108582582,0.020945002260711817
225,0.0,0.0,0.0,0.0,0.0,0.0,0.0,0.0,0.0,0.0,0.0,0.0,0.0,0.0,0.0,0.0,0.0,0.0,0.04910421640533139,0.07473128103679907,0.8327058206770921,1.4142966946524733,0.7219775002126805,-0.17809351026898834,-0.2487881066558277,3.1948300436331634,-1.0494847623102899,1.3249278276877878,1.0481761298262207,2.1344003131043037,0.2421376584295909,0.10355503379240098
226,0.0,0.0,0.0,0.0,0.0,0.0,0.0,0.0,0.0,0.0,0.0,0.0,0.0,0.0,0.0,0.0,0.0,0.0,0.04953247092294394,0.06718180720998009,0.8290250723111464,1.4123394498781952,0.7155857492505422,-0.17714579999759117,-0.24296956901382571,3.1994133761186703,-1.2194700071833589,1.3204942764012477,1.0775101485730032,1.9636084191442944,0.23660761893246945,0.2176870456824873
227,0.0,0.0,0.0,0.0,0.0,0.0,0.0,0.0,0.0,0.0,0.0,0.0,0.0,0.0,0.0,0.0,0.0,0.0,0.05015231164741881,0.06122966415657826,0.8293337818091571,1.4097673623416294,0.7182296932333245,-0.176708727241446,-0.24020627312094858,3.2171944041010976,-1.4123486635211484,1.324126522198179,1.0994479783784565,1.8135847247971517,0.21913185091561624,0.32625363022351206
228,0.0,0.0,0.0,0.0,0.0,0.0,0.0,0.0,0.0,0.0,0.0,0.0,0.0,0.0,0.0,0.0,0.0,0.0,0.05072954398052287,0.05467151925597482,0.833778995491774,1.4067269597110086,0.7118605146887457,-0.1761927855112776,-0.23527530812667796,3.2042053570297404,-1.6209467085045348,1.3828042075841194,1.1196337683392277,1.6523253906229245,0.1793153138665947,0.41981203435414804
229,0.0,0.0,0.0,0.0,0.0,0.0,0.0,0.0,0.0,0.0,0.0,0.0,0.0,0.0,0.0,0.0,0.0,0.0,0.051173972126010187,0.047306167462379874,0.8428166628088763,1.4018839851646132,0.6930803101126176,-0.17446627203494972,-0.22739530416021606,3.175175561996143,-1.8348111116378814,1.4112654141691694,1.138143825575531,1.4488603810821636,0.14790327303033007,0.4852166844886521
230,0.0,0.0,0.0,0.0,0.0,0.0,0.0,0.0,0.0,0.0,0.0,0.0,0.0,0.0,0.0,0.0,0.0,0.0,0.051594702405342335,0.04327311864683539,0.8590228087529241,1.394898344077228,0.6700475637753249,-0.1713405431206899,-0.22284255343969817,3.1577962090118,-2.0576475095455247,1.4210410274464893,1.1630432404477955,1.2145959694877595,0.11201765583102909,0.5213991808096307
231,0.0,0.0,0.0,0.0,0.0,0.0,0.0,0.0,0.0,0.0,0.0,0.0,0.0,0.0,0.0,0.0,0.0,0.0,0.05195011344574219,0.038725797468437136,0.8727830573157528,1.390256671464432,0.6639746929610265,-0.16948373455920904,-0.22126871539825865,3.1497952733413883,-2.279016367361661,1.4389100694536823,1.1970988605279118,0.9669818180048604,0.06163333467041058,0.5458113624506075
232,0.0,0.0,0.0,0.0,0.0,0.0,0.0,0.0,0.0,0.0,0.0,0.0,0.0,0.0,0.0,0.0,0.0,0.0,0.05196670701652979,0.034935494358091956,0.8889235368922297,1.3858359899685082,0.6661816079353688,-0.16826240322347152,-0.22096716040009434,3.147899964314479,-2.49629060922276,1.473737007391882,1.2295400413005204,0.7426858241122627,0.009349486228166025,0.5558169892209261
233,0.0,0.0,0.0,0.0,0.0,0.0,0.0,0.0,0.0,0.0,0.0,0.0,0.0,0.0,0.0,0.0,0.0,0.0,0.051811482244881545,0.030115942123891945,0.9065289225221995,1.3801753821098472,0.6654428083164773,-0.16678540433789224,-0.21892050262166393,3.1521106393960743,-2.707623751403801,1.554300497680285,1.2629625288767665,0.523602883091721,-0.03738298737964808,0.5421099874168617
234,0.0,0.0,0.0,0.0,0.0,0.0,0.0,0.0,0.0,0.0,0.0,0.0,0.0,0.0,0.0,0.0,0.0,0.0,0.05171500184673536,0.026582586392313114,0.9278707265160182,1.3749571433080217,0.6625012129227404,-0.16605934783597584,-0.2182507298772964,3.1591933501623286,-2.8859479369509216,1.660767245363088,1.2892263796270527,0.3464475962882049,-0.07494584362407844,0.5154809846635421
235,0.0,0.0,0.0,0.0,0.0,0.0,0.0,0.0,0.0,0.0,0.0,0.0,0.0,0.0,0.0,0.0,0.0,0.0,0.05119060621800596,0.026848758977634536,0.943510218087205,1.3733463712391683,0.6660220676689957,-0.16576770124566545,-0.22021831081589194,3.169112600665226,-3.0435280003200167,1.7902720006342974,1.308712319076095,0.21912568796549461,-0.10820577680192112,0.47849942163496095
236,0.0,0.0,0.0,0.0,0.0,0.0,0.0,0.0,0.0,0.0,0.0,0.0,0.0,0.0,0.0,0.0,0.0,0.0,0.050423467622589875,0.027204234443589544,0.9566974125027663,1.3720763600083545,0.6809000471941257,-0.1653479349093781,-0.22360869117942095,3.1797927459733626,-3.1752020607217295,1.9248176120955862,1.3223940987958978,0.11839065823709286,-0.13413278197483974,0.436093831639937
237,0.0,0.0,0.0,0.0,0.0,0.0,0.0,0.0,0.0,0.0,0.0,0.0,0.0,0.0,0.0,0.0,0.0,0.0,0.04971226279121546,0.0273085023429391,0.9678819793842715,1.3713787833969533,0.6976753346781902,-0.16545045724409277,-0.22672240824556966,3.1894563882901776,-3.283611165719067,2.0426244451294147,1.3300040253414087,0.026762538607443265,-0.1515557752171188,0.3970034432801898
238,0.0,0.0,0.0,0.0,0.0,0.0,0.0,0.0,0.0,0.0,0.0,0.0,0.0,0.0,0.0,0.0,0.0,0.0,0.04896749377513887,0.030796596108735173,0.9727980099501496,1.3740650202770068,0.7112278134268019,-0.16739544058396363,-0.2305867864501757,3.1975271757913126,-3.3688279157571923,2.139306304627729,1.3336587700259517,-0.057393948818469834,-0.16355996578383036,0.36588948389636927
239,0.0,0.0,0.0,0.0,0.0,0.0,0.0,0.0,0.0,0.0,0.0,0.0,0.0,0.0,0.0,0.0,0.0,0.0,0.04826010757193553,0.03219817578758673,0.976806995917443,1.3754851760584839,0.7271383520765546,-0.16796446495364112,-0.23310292978661137,3.203487965238816,-3.4274974377529692,2.2318295845427523,1.341575768028419,-0.1019003715299103,-0.1742170663676906,0.33934431633220485
240,0.0,0.0,0.0,0.0,0.0,0.0,0.0,0.0,0.0,0.0,0.0,0.0,0.0,0.0,0.0,0.0,0.0,0.0,0.0477541984488365,0.03238336453421833,0.9805845950256104,1.376168545721861,0.74021572200382,-0.16848035079568285,-0.234634089774737,3.2086996801160894,-3.4665404531191277,2.325568796652337,1.3491148424678752,-0.11939141996210303,-0.18171429121897398,0.31867944837080375
241,0.0,0.0,0.0,0.0,0.0,0.0,0.0,0.0,0.0,0.0,0.0,0.0,0.0,0.0,0.0,0.0,0.0,0.0,0.047415694589263924,0.03072169675827165,0.9836494881924243,1.3764190308654438,0.75147048748372,-0.1692019697079235,-0.2347526599433026,3.2133819721498127,-3.486134448450278,2.421463198209326,1.3561192077663997,-0.10514779935395761,-0.18678199581534574,0.3051287556278861
242,0.0,0.0,0.0,0.0,0.0,0.0,0.0,0.0,0.0,0.0,0.0,0.0,0.0,0.0,0.0,0.0,0.0,0.0,0.047183753436722174,0.02889948817541638,0.9856159383628167,1.3768849421037217,0.7606598017454484,-0.17014897230707893,-0.2344508877002584,3.2177974921228474,-3.4933118612463026,2.515826366889208,1.361745522921951,-0.07426151093329049,-0.1903083778910271,0.29699723090952096
243,0.0,0.0,0.0,0.0,0.0,0.0,0.0,0.0,0.0,0.0,0.0,0.0,0.0,0.0,0.0,0.0,0.0,0.0,0.047029317485433424,0.02625297035196065,0.9868375903188576,1.3771500032426707,0.7672158565908981,-0.1709556117121388,-0.23310407703854127,3.2212510985765093,-3.489698028522597,2.6045568068410168,1.3663063965888333,-0.03279055249294933,-0.1912513270759121,0.297801854362519
