njanwani/something/primitives/data/Wave.csv
,left_hip_pitch_joint,left_hip_roll_joint,left_hip_yaw_joint,left_knee_joint,left_ankle_pitch_joint,left_ankle_roll_joint,right_hip_pitch_joint,right_hip_roll_joint,right_hip_yaw_joint,right_knee_joint,right_ankle_pitch_joint,right_ankle_roll_joint,waist_yaw_joint,waist_roll_joint,waist_pitch_joint,head_pitch_joint,head_yaw_joint,head_roll_joint,left_shoulder_pitch_joint,left_shoulder_roll_joint,left_shoulder_yaw_joint,left_elbow_joint,left_wrist_roll_joint,left_wrist_pitch_joint,left_wrist_yaw_joint,right_shoulder_pitch_joint,right_shoulder_roll_joint,right_shoulder_yaw_joint,right_elbow_joint,right_wrist_roll_joint,right_wrist_pitch_joint,right_wrist_yaw_joint
0,0.0,0.0,0.0,0.0,0.0,0.0,0.0,0.0,0.0,0.0,0.0,0.0,0.0,0.0,0.0,0.0,0.0,0.0,0.05573405474045463,0.022613112148956883,0.757976317175329,1.4245164558397274,0.2739737869740727,-0.17528711963226448,-0.0670123812721948,0.0,0.0,0.0,0.0,0.0,0.0,0.0
1,0.0,0.0,0.0,0.0,0.0,0.0,0.0,0.0,0.0,0.0,0.0,0.0,0.0,0.0,0.0,0.0,0.0,0.0,0.053369904047676685,0.009072239318371344,0.7896287677075745,1.3473127124290178,0.32527718386255366,-0.11379545547458429,-0.14924622650114006,0.0,0.0,0.0,0.0,0.0,0.0,0.0
2,0.0,0.0,0.0,0.0,0.0,0.0,0.0,0.0,0.0,0.0,0.0,0.0,0.0,0.0,0.0,0.0,0.0,0.0,0.07097090955698244,-0.029580936624420087,0.8829286431164401,1.2666486527759202,0.39803448318174883,-0.08635064921129086,-0.1769030287870928,0.0,0.0,0.0,0.0,0.0,0.0,0.0
3,0.0,0.0,0.0,0.0,0.0,0.0,0.0,0.0,0.0,0.0,0.0,0.0,0.0,0.0,0.0,0.0,0.0,0.0,0.07457457039184237,-0.033647961293066284,0.9383960875017081,1.2872323161646204,0.4350468791344879,-0.17662679759408823,-0.17116462856861164,0.0,0.0,0.0,0.0,0.0,0.0,0.0
4,0.0,0.0,0.0,0.0,0.0,0.0,0.0,0.0,0.0,0.0,0.0,0.0,0.0,0.0,0.0,0.0,0.0,0.0,0.0694953026742275,-0.03589896741094052,0.9923681919456843,1.302765080378547,0.515637801688043,-0.16428700837905313,-0.1963420265169895,0.0,0.0,0.0,0.0,0.0,0.0,0.0
5,0.0,0.0,0.0,0.0,0.0,0.0,0.0,0.0,0.0,0.0,0.0,0.0,0.0,0.0,0.0,0.0,0.0,0.0,0.05891886558063295,-0.02778887493313878,1.041174076104137,1.3149844138637095,0.5408195490490997,-0.16221147495018096,-0.18676063724192826,0.0,0.0,0.0,0.0,0.0,0.0,0.0
6,0.0,0.0,0.0,0.0,0.0,0.0,0.0,0.0,0.0,0.0,0.0,0.0,0.0,0.0,0.0,0.0,0.0,0.0,0.05439722767217583,-0.030094156055231927,1.0594851868371815,1.3239822165102793,0.6284461642428171,-0.1618363106358201,-0.20748772855671688,0.0,0.0,0.0,0.0,0.0,0.0,0.0
7,0.0,0.0,0.0,0.0,0.0,0.0,0.0,0.0,0.0,0.0,0.0,0.0,0.0,0.0,0.0,0.0,0.0,0.0,0.0506694831711528,-0.02124925109569873,1.074328173895838,1.3317815786403258,0.6132852643193285,-0.16716583951323843,-0.19476019568981495,0.0,0.0,0.0,0.0,0.0,0.0,0.0
8,0.0,0.0,0.0,0.0,0.0,0.0,0.0,0.0,0.0,0.0,0.0,0.0,0.0,0.0,0.0,0.0,0.0,0.0,0.04956790539381433,-0.030594812848078287,1.0990982046025577,1.319691302047039,0.5514852263333007,-0.1687710654279779,-0.1782656301447082,0.0,0.0,0.0,0.0,0.0,0.0,0.0
9,0.0,0.0,0.0,0.0,0.0,0.0,0.0,0.0,0.0,0.0,0.0,0.0,0.0,0.0,0.0,0.0,0.0,0.0,0.047720530266791406,0.00289852319157511,1.1339848212093453,1.3185842493967135,0.49207998069018855,-0.16916698241197087,-0.21449238121010938,0.0,0.0,0.0,0.0,0.0,0.0,0.0
10,0.0,0.0,0.0,0.0,0.0,0.0,0.0,0.0,0.0,0.0,0.0,0.0,0.0,0.0,0.0,0.0,0.0,0.0,0.046248435754954124,0.012247471052817446,1.157490975610865,1.3102405452734454,0.453644835414995,-0.16638509114192143,-0.20468081465065383,0.0,0.0,0.0,0.0,0.0,0.0,0.0
11,0.0,0.0,0.0,0.0,0.0,0.0,0.0,0.0,0.0,0.0,0.0,0.0,0.0,0.0,0.0,0.0,0.0,0.0,0.044672011846601974,0.03148317060435842,1.184402522895571,1.302494001162357,0.39331965558515286,-0.1670440436318259,-0.214042379428172,0.0,0.0,0.0,0.0,0.0,0.0,0.0
12,0.0,0.0,0.0,0.0,0.0,0.0,0.0,0.0,0.0,0.0,0.0,0.0,0.0,0.0,0.0,0.0,0.0,0.0,0.04340370580323483,0.05206445319557601,1.2135332920976099,1.2923959155769478,0.3434841712238793,-0.1679013493616991,-0.22726081123992897,0.0,0.0,0.0,0.0,0.0,0.0,0.0
13,0.0,0.0,0.0,0.0,0.0,0.0,0.0,0.0,0.0,0.0,0.0,0.0,0.0,0.0,0.0,0.0,0.0,0.0,0.04187956272335961,0.07432195738730508,1.2433304055128651,1.2828045413982596,0.2994278046812152,-0.168060700054753,-0.2432100410491506,0.0,0.0,0.0,0.0,0.0,0.0,0.0
14,0.0,0.0,0.0,0.0,0.0,0.0,0.0,0.0,0.0,0.0,0.0,0.0,0.0,0.0,0.0,0.0,0.0,0.0,0.03975012366917416,0.10148970151463042,1.2744019377631115,1.2739406422006545,0.2537241593705435,-0.1680692818242963,-0.2612413072837658,0.0,0.0,0.0,0.0,0.0,0.0,0.0
15,0.0,0.0,0.0,0.0,0.0,0.0,0.0,0.0,0.0,0.0,0.0,0.0,0.0,0.0,0.0,0.0,0.0,0.0,0.03755526895065949,0.12864546302266433,1.3044205018542396,1.264255320857405,0.20583519576931197,-0.16847658522646386,-0.2785675766783428,0.0,0.0,0.0,0.0,0.0,0.0,0.0
16,0.0,0.0,0.0,0.0,0.0,0.0,0.0,0.0,0.0,0.0,0.0,0.0,0.0,0.0,0.0,0.0,0.0,0.0,0.037537816358442604,0.12415146739875894,1.3218597195813417,1.2450800311521726,0.19059402919066032,-0.16738376576198422,-0.2844291649874333,0.0,0.0,0.0,0.0,0.0,0.0,0.0
17,0.0,0.0,0.0,0.0,0.0,0.0,0.0,0.0,0.0,0.0,0.0,0.0,0.0,0.0,0.0,0.0,0.0,0.0,0.03393230696328125,0.16800546077529438,1.3567338420053323,1.2430059300667504,0.13474321079964574,-0.16973336608887996,-0.30788488958770277,0.0,0.0,0.0,0.0,0.0,0.0,0.0
18,0.0,0.0,0.0,0.0,0.0,0.0,0.0,0.0,0.0,0.0,0.0,0.0,0.0,0.0,0.0,0.0,0.0,0.0,0.030543051155979477,0.20651577886010428,1.385484339753653,1.2408970471450647,0.09514734355436238,-0.16560471772162563,-0.3287650313546513,0.0,0.0,0.0,0.0,0.0,0.0,0.0
19,0.0,0.0,0.0,0.0,0.0,0.0,0.0,0.0,0.0,0.0,0.0,0.0,0.0,0.0,0.0,0.0,0.0,0.0,0.02635971219103995,0.25574337996835056,1.4145312432864674,1.238520084679219,0.05691597601538924,-0.16011240226222756,-0.3510600231528939,0.0,0.0,0.0,0.0,0.0,0.0,0.0
20,0.0,0.0,0.0,0.0,0.0,0.0,0.0,0.0,0.0,0.0,0.0,0.0,0.0,0.0,0.0,0.0,0.0,0.0,0.024026546916812868,0.2918381432670153,1.4354737165046365,1.2257801628427234,-0.008604695337488824,-0.16591960810449516,-0.3658044728186502,0.0,0.0,0.0,0.0,0.0,0.0,0.0
21,0.0,0.0,0.0,0.0,0.0,0.0,0.0,0.0,0.0,0.0,0.0,0.0,0.0,0.0,0.0,0.0,0.0,0.0,0.02288879694626446,0.3330561096767561,1.4608952276579878,1.1939722514500675,-0.09308583899285026,-0.1638136800480897,-0.3934401086407552,0.0,0.0,0.0,0.0,0.0,0.0,0.0
22,0.0,0.0,0.0,0.0,0.0,0.0,0.0,0.0,0.0,0.0,0.0,0.0,0.0,0.0,0.0,0.0,0.0,0.0,0.021205735819115078,0.36348604826255476,1.4753809733888605,1.176413497008254,-0.14071936858889908,-0.17294663215436037,-0.4034821882049399,0.0,0.0,0.0,0.0,0.0,0.0,0.0
23,0.0,0.0,0.0,0.0,0.0,0.0,0.0,0.0,0.0,0.0,0.0,0.0,0.0,0.0,0.0,0.0,0.0,0.0,0.017975185618855423,0.42644498701051614,1.5015968472769996,1.139084831854097,-0.23526957304961668,-0.17933715055660146,-0.43320967871972366,0.0,0.0,0.0,0.0,0.0,0.0,0.0
24,0.0,0.0,0.0,0.0,0.0,0.0,0.0,0.0,0.0,0.0,0.0,0.0,0.0,0.0,0.0,0.0,0.0,0.0,0.016135739706929966,0.46290969615230165,1.5159763006673777,1.1298889392750944,-0.25647491096390224,-0.19411537244994634,-0.4351630844900749,0.0,0.0,0.0,0.0,0.0,0.0,0.0
25,0.0,0.0,0.0,0.0,0.0,0.0,0.0,0.0,0.0,0.0,0.0,0.0,0.0,0.0,0.0,0.0,0.0,0.0,0.012048533479001793,0.5092877173740875,1.5263327931119357,1.095219520680984,-0.2867687126956113,-0.22356964012269734,-0.4411122367382707,0.0,0.0,0.0,0.0,0.0,0.0,0.0
26,0.0,0.0,0.0,0.0,0.0,0.0,0.0,0.0,0.0,0.0,0.0,0.0,0.0,0.0,0.0,0.0,0.0,0.0,0.00975962884340344,0.5646830096929207,1.5353505655437858,1.0372560927901684,-0.3038164798857313,-0.25281216064477163,-0.42673749095264235,0.0,0.0,0.0,0.0,0.0,0.0,0.0
27,0.0,0.0,0.0,0.0,0.0,0.0,0.0,0.0,0.0,0.0,0.0,0.0,0.0,0.0,0.0,0.0,0.0,0.0,0.005719465292349623,0.6328837991786649,1.540274257316136,0.983699834950357,-0.29763476236316183,-0.3001147713672053,-0.4034252289951979,0.0,0.0,0.0,0.0,0.0,0.0,0.0
28,0.0,0.0,0.0,0.0,0.0,0.0,0.0,0.0,0.0,0.0,0.0,0.0,0.0,0.0,0.0,0.0,0.0,0.0,0.0041981664482048835,0.6700846622778283,1.538738816600133,0.9282434450269255,-0.2795937497490234,-0.3378247178818563,-0.35944042533169457,0.0,0.0,0.0,0.0,0.0,0.0,0.0
29,0.0,0.0,0.0,0.0,0.0,0.0,0.0,0.0,0.0,0.0,0.0,0.0,0.0,0.0,0.0,0.0,0.0,0.0,0.004917788343761232,0.6711000268541841,1.5387914834424996,0.9035981884520781,-0.2788227463561282,-0.3587974364778409,-0.3539382628969475,0.0,0.0,0.0,0.0,0.0,0.0,0.0
30,0.0,0.0,0.0,0.0,0.0,0.0,0.0,0.0,0.0,0.0,0.0,0.0,0.0,0.0,0.0,0.0,0.0,0.0,0.0008882435551225312,0.7461170932495247,1.5408366674350993,0.8421271833902245,-0.23616883997332858,-0.47045595362149484,-0.3039034517081629,0.0,0.0,0.0,0.0,0.0,0.0,0.0
31,0.0,0.0,0.0,0.0,0.0,0.0,0.0,0.0,0.0,0.0,0.0,0.0,0.0,0.0,0.0,0.0,0.0,0.0,-0.0012542733159300312,0.7237736406087881,1.5463247315877318,0.7379049500332064,-0.16320196706015552,-0.5612255108101099,-0.24438987846859253,0.0,0.0,0.0,0.0,0.0,0.0,0.0
32,0.0,0.0,0.0,0.0,0.0,0.0,0.0,0.0,0.0,0.0,0.0,0.0,0.0,0.0,0.0,0.0,0.0,0.0,-0.00764623745077737,0.7342434074690339,1.560084226312657,0.6278198389622098,-0.09706771788877275,-0.6408574259048593,-0.17331482973921541,0.0,0.0,0.0,0.0,0.0,0.0,0.0
33,0.0,0.0,0.0,0.0,0.0,0.0,0.0,0.0,0.0,0.0,0.0,0.0,0.0,0.0,0.0,0.0,0.0,0.0,-0.012592538372288424,0.7691867625754168,1.5728759265529988,0.48323968642358966,-0.047257475807054194,-0.6293685377296199,-0.14091429466896188,0.0,0.0,0.0,0.0,0.0,0.0,0.0
34,0.0,0.0,0.0,0.0,0.0,0.0,0.0,0.0,0.0,0.0,0.0,0.0,0.0,0.0,0.0,0.0,0.0,0.0,-0.01512873972674772,0.8312959591952076,1.5734846974700007,0.4133415650577208,-0.042088130816893596,-0.5877025585014982,-0.14069351808154218,0.0,0.0,0.0,0.0,0.0,0.0,0.0
35,0.0,0.0,0.0,0.0,0.0,0.0,0.0,0.0,0.0,0.0,0.0,0.0,0.0,0.0,0.0,0.0,0.0,0.0,-0.01746179435267125,0.8934319757617575,1.5729111366975654,0.37054044717735135,-0.0705066402207144,-0.5395921236016381,-0.1665711938218698,0.0,0.0,0.0,0.0,0.0,0.0,0.0
36,0.0,0.0,0.0,0.0,0.0,0.0,0.0,0.0,0.0,0.0,0.0,0.0,0.0,0.0,0.0,0.0,0.0,0.0,-0.038552365378497516,0.9425946045873405,1.581459965883258,0.1391919059822835,-0.09105075800676038,-0.346352035784849,-0.20422918544108531,0.0,0.0,0.0,0.0,0.0,0.0,0.0
37,0.0,0.0,0.0,0.0,0.0,0.0,0.0,0.0,0.0,0.0,0.0,0.0,0.0,0.0,0.0,0.0,0.0,0.0,-0.038241320203343095,0.9161286746038515,1.5706158752384347,0.1632361482062823,-0.24308340549755975,-0.44498513023074143,-0.2919707557505382,0.0,0.0,0.0,0.0,0.0,0.0,0.0
38,0.0,0.0,0.0,0.0,0.0,0.0,0.0,0.0,0.0,0.0,0.0,0.0,0.0,0.0,0.0,0.0,0.0,0.0,-0.020046303835019645,0.9926872420590106,1.5636765672212884,0.053286052741859956,-0.17218119949211066,-0.37642131097696974,-0.18533213479295874,0.0,0.0,0.0,0.0,0.0,0.0,0.0
39,0.0,0.0,0.0,0.0,0.0,0.0,0.0,0.0,0.0,0.0,0.0,0.0,0.0,0.0,0.0,0.0,0.0,0.0,-0.032723667806630934,1.079813549556124,1.5634517345611203,-0.012377210993446523,-0.148015077373673,-0.29210202507796995,-0.1625897303920317,0.0,0.0,0.0,0.0,0.0,0.0,0.0
40,0.0,0.0,0.0,0.0,0.0,0.0,0.0,0.0,0.0,0.0,0.0,0.0,0.0,0.0,0.0,0.0,0.0,0.0,-0.03939493960310789,1.0929646804195898,1.5629903034931625,-0.09886095561329498,-0.17250937488310467,-0.28869615007229155,-0.18383603173348906,0.0,0.0,0.0,0.0,0.0,0.0,0.0
41,0.0,0.0,0.0,0.0,0.0,0.0,0.0,0.0,0.0,0.0,0.0,0.0,0.0,0.0,0.0,0.0,0.0,0.0,-0.037680313033865084,1.131393738284354,1.5588950553879837,-0.14701703886936335,-0.21514525085811284,-0.25125037649205695,-0.1782724142735949,0.0,0.0,0.0,0.0,0.0,0.0,0.0
42,0.0,0.0,0.0,0.0,0.0,0.0,0.0,0.0,0.0,0.0,0.0,0.0,0.0,0.0,0.0,0.0,0.0,0.0,-0.042380965715274645,1.1673945776462333,1.5571774581252162,-0.21258302775355153,-0.3384395583705915,-0.19727805401769244,-0.21627218620003982,0.0,0.0,0.0,0.0,0.0,0.0,0.0
43,0.0,0.0,0.0,0.0,0.0,0.0,0.0,0.0,0.0,0.0,0.0,0.0,0.0,0.0,0.0,0.0,0.0,0.0,-0.039655606732791344,1.197541991272337,1.5535580229626789,-0.24802948624690135,-0.3158285581454055,-0.18218432396696585,-0.18044640415777255,0.0,0.0,0.0,0.0,0.0,0.0,0.0
44,0.0,0.0,0.0,0.0,0.0,0.0,0.0,0.0,0.0,0.0,0.0,0.0,0.0,0.0,0.0,0.0,0.0,0.0,-0.04523443951256697,1.227476966574992,1.548424220243335,-0.25979779724752783,-0.36036193435769803,-0.1813616227641047,-0.19049946916063837,0.0,0.0,0.0,0.0,0.0,0.0,0.0
45,0.0,0.0,0.0,0.0,0.0,0.0,0.0,0.0,0.0,0.0,0.0,0.0,0.0,0.0,0.0,0.0,0.0,0.0,-0.04831585968102594,1.2595372041697408,1.5472640022012827,-0.30272336004580885,-0.34703317597143024,-0.16593037197377486,-0.17920105201534356,0.0,0.0,0.0,0.0,0.0,0.0,0.0
46,0.0,0.0,0.0,0.0,0.0,0.0,0.0,0.0,0.0,0.0,0.0,0.0,0.0,0.0,0.0,0.0,0.0,0.0,-0.04320227398438307,1.287344496880472,1.5449879923557517,-0.3876460691911752,-0.4531822626269834,-0.11552228418980408,-0.1640936882769732,0.0,0.0,0.0,0.0,0.0,0.0,0.0
47,0.0,0.0,0.0,0.0,0.0,0.0,0.0,0.0,0.0,0.0,0.0,0.0,0.0,0.0,0.0,0.0,0.0,0.0,-0.06264376747889218,1.3249248927279633,1.5323338498597299,-0.40637283685282094,-0.47334025168719773,-0.13195692639219164,-0.18369862507143783,0.0,0.0,0.0,0.0,0.0,0.0,0.0
48,0.0,0.0,0.0,0.0,0.0,0.0,0.0,0.0,0.0,0.0,0.0,0.0,0.0,0.0,0.0,0.0,0.0,0.0,-0.06650452140374198,1.338044777738158,1.5304260941715928,-0.42486918044590755,-0.4724221705932727,-0.13020368706970153,-0.19161918134648093,0.0,0.0,0.0,0.0,0.0,0.0,0.0
49,0.0,0.0,0.0,0.0,0.0,0.0,0.0,0.0,0.0,0.0,0.0,0.0,0.0,0.0,0.0,0.0,0.0,0.0,-0.067561587496772,1.3640413743295399,1.5289149973641227,-0.5074152540531621,-0.5082206202051316,-0.09363189911329328,-0.16558600791814412,0.0,0.0,0.0,0.0,0.0,0.0,0.0
50,0.0,0.0,0.0,0.0,0.0,0.0,0.0,0.0,0.0,0.0,0.0,0.0,0.0,0.0,0.0,0.0,0.0,0.0,-0.06351703358036659,1.3750290656234285,1.528578154955814,-0.5498289896958498,-0.6153039735040906,-0.08381102549845665,-0.17062506970726052,0.0,0.0,0.0,0.0,0.0,0.0,0.0
51,0.0,0.0,0.0,0.0,0.0,0.0,0.0,0.0,0.0,0.0,0.0,0.0,0.0,0.0,0.0,0.0,0.0,0.0,-0.06469705801752833,1.3842855816345128,1.526858400735715,-0.5998248258110945,-0.6748589866438145,-0.06285701885202422,-0.15636195702568323,0.0,0.0,0.0,0.0,0.0,0.0,0.0
52,0.0,0.0,0.0,0.0,0.0,0.0,0.0,0.0,0.0,0.0,0.0,0.0,0.0,0.0,0.0,0.0,0.0,0.0,-0.0602880349485485,1.3855940624218135,1.530856206174493,-0.6522192409790625,-0.7548417490623365,-0.04123373689109099,-0.12932711295217852,0.0,0.0,0.0,0.0,0.0,0.0,0.0
53,0.0,0.0,0.0,0.0,0.0,0.0,0.0,0.0,0.0,0.0,0.0,0.0,0.0,0.0,0.0,0.0,0.0,0.0,-0.05929425480002044,1.3734802556513395,1.5284773433652867,-0.6817123552568793,-0.992827415217199,-0.035117216415637906,-0.18633254950237851,0.0,0.0,0.0,0.0,0.0,0.0,0.0
54,0.0,0.0,0.0,0.0,0.0,0.0,0.0,0.0,0.0,0.0,0.0,0.0,0.0,0.0,0.0,0.0,0.0,0.0,-0.06380095203309102,1.3845367021481576,1.5247689968033007,-0.7081818123758707,-1.0317460532275424,-0.02421154956124795,-0.16879816040015766,0.0,0.0,0.0,0.0,0.0,0.0,0.0
55,0.0,0.0,0.0,0.0,0.0,0.0,0.0,0.0,0.0,0.0,0.0,0.0,0.0,0.0,0.0,0.0,0.0,0.0,-0.06564791187210411,1.379418292610662,1.5258719942038959,-0.7398115970440482,-0.9767232399098806,0.0030248332515168154,-0.13044049529889334,0.0,0.0,0.0,0.0,0.0,0.0,0.0
56,0.0,0.0,0.0,0.0,0.0,0.0,0.0,0.0,0.0,0.0,0.0,0.0,0.0,0.0,0.0,0.0,0.0,0.0,-0.06514377431182791,1.3827029737170264,1.5232372737408928,-0.7219785459031338,-1.1243163955139415,-0.023721077829795576,-0.19813092555225956,0.0,0.0,0.0,0.0,0.0,0.0,0.0
57,0.0,0.0,0.0,0.0,0.0,0.0,0.0,0.0,0.0,0.0,0.0,0.0,0.0,0.0,0.0,0.0,0.0,0.0,-0.06746246118110627,1.4012996429675166,1.5219541392880862,-0.7088470820004519,-0.8821951277005357,-0.035271038420943854,-0.14974662304878517,0.0,0.0,0.0,0.0,0.0,0.0,0.0
58,0.0,0.0,0.0,0.0,0.0,0.0,0.0,0.0,0.0,0.0,0.0,0.0,0.0,0.0,0.0,0.0,0.0,0.0,-0.08285476039656249,1.4135802170876783,1.5124302170267723,-0.6766031063489216,-0.6259519437304666,-0.05585704328851929,-0.12542597190863125,0.0,0.0,0.0,0.0,0.0,0.0,0.0
59,0.0,0.0,0.0,0.0,0.0,0.0,0.0,0.0,0.0,0.0,0.0,0.0,0.0,0.0,0.0,0.0,0.0,0.0,-0.08335421236320159,1.4202726512702621,1.513370819376899,-0.6423610844003375,-0.6987140890439686,-0.0379230592350217,-0.13594412465890526,0.0,0.0,0.0,0.0,0.0,0.0,0.0
60,0.0,0.0,0.0,0.0,0.0,0.0,0.0,0.0,0.0,0.0,0.0,0.0,0.0,0.0,0.0,0.0,0.0,0.0,-0.07459794151260833,1.4418063882064658,1.516538428665586,-0.5887704912790125,-0.8219255518621601,-0.024648932431744063,-0.14792482748918556,0.0,0.0,0.0,0.0,0.0,0.0,0.0
61,0.0,0.0,0.0,0.0,0.0,0.0,0.0,0.0,0.0,0.0,0.0,0.0,0.0,0.0,0.0,0.0,0.0,0.0,-0.07224155722557987,1.430199415600389,1.5180429470641796,-0.5281327709837066,-0.8284628521984827,-0.05993518582575524,-0.192917553574246,0.0,0.0,0.0,0.0,0.0,0.0,0.0
62,0.0,0.0,0.0,0.0,0.0,0.0,0.0,0.0,0.0,0.0,0.0,0.0,0.0,0.0,0.0,0.0,0.0,0.0,-0.06860581300964741,1.426653189240743,1.5195630461247638,-0.4658655463331571,-0.7296795508037195,-0.09023289197134075,-0.2041928990721656,0.0,0.0,0.0,0.0,0.0,0.0,0.0
63,0.0,0.0,0.0,0.0,0.0,0.0,0.0,0.0,0.0,0.0,0.0,0.0,0.0,0.0,0.0,0.0,0.0,0.0,-0.08795248111909541,1.4547541047095014,1.5150645109421823,-0.3672121006760166,-0.482458808927273,-0.09182448699419819,-0.17327884050071454,0.0,0.0,0.0,0.0,0.0,0.0,0.0
64,0.0,0.0,0.0,0.0,0.0,0.0,0.0,0.0,0.0,0.0,0.0,0.0,0.0,0.0,0.0,0.0,0.0,0.0,-0.0891876361004598,1.4733305581061702,1.5110766563101785,-0.27676060218634074,-0.48882344380185777,-0.10618927707951217,-0.17163671093976912,0.0,0.0,0.0,0.0,0.0,0.0,0.0
65,0.0,0.0,0.0,0.0,0.0,0.0,0.0,0.0,0.0,0.0,0.0,0.0,0.0,0.0,0.0,0.0,0.0,0.0,-0.0752287177473081,1.4695142279852182,1.5238523436691749,-0.1831853528701292,-0.3974059709055765,-0.13308301936322053,-0.14383000478536334,0.0,0.0,0.0,0.0,0.0,0.0,0.0
66,0.0,0.0,0.0,0.0,0.0,0.0,0.0,0.0,0.0,0.0,0.0,0.0,0.0,0.0,0.0,0.0,0.0,0.0,-0.07277279229528466,1.4806800098855637,1.5192340906317436,-0.05921444386679059,-0.5494851547973418,-0.14610781495803465,-0.23643367912624172,0.0,0.0,0.0,0.0,0.0,0.0,0.0
67,0.0,0.0,0.0,0.0,0.0,0.0,0.0,0.0,0.0,0.0,0.0,0.0,0.0,0.0,0.0,0.0,0.0,0.0,-0.07210117412531628,1.5122432899862528,1.5198580583280912,0.039932969381485627,-0.3969114367650274,-0.172326555466477,-0.18271456225879706,0.0,0.0,0.0,0.0,0.0,0.0,0.0
68,0.0,0.0,0.0,0.0,0.0,0.0,0.0,0.0,0.0,0.0,0.0,0.0,0.0,0.0,0.0,0.0,0.0,0.0,-0.05727121536385986,1.4947451308571609,1.5262253487610133,0.09391264800845137,-0.6170203426016574,-0.1493395842565816,-0.2402471389070511,0.0,0.0,0.0,0.0,0.0,0.0,0.0
69,0.0,0.0,0.0,0.0,0.0,0.0,0.0,0.0,0.0,0.0,0.0,0.0,0.0,0.0,0.0,0.0,0.0,0.0,-0.06003860054360905,1.5331408735237766,1.5204663936914868,0.22129589468981495,-0.4913690413943996,-0.22768112036663243,-0.23675432852356648,0.0,0.0,0.0,0.0,0.0,0.0,0.0
70,0.0,0.0,0.0,0.0,0.0,0.0,0.0,0.0,0.0,0.0,0.0,0.0,0.0,0.0,0.0,0.0,0.0,0.0,-0.0694853670855485,1.5180103723770855,1.5177314753624018,0.27016568702050775,-0.564051854114263,-0.1875699687132675,-0.28218403452395124,0.0,0.0,0.0,0.0,0.0,0.0,0.0
71,0.0,0.0,0.0,0.0,0.0,0.0,0.0,0.0,0.0,0.0,0.0,0.0,0.0,0.0,0.0,0.0,0.0,0.0,-0.06462807876487262,1.5333242633993036,1.5202632978665782,0.37732274647667213,-0.5612904551775821,-0.21302527064365084,-0.29231075987135974,0.0,0.0,0.0,0.0,0.0,0.0,0.0
72,0.0,0.0,0.0,0.0,0.0,0.0,0.0,0.0,0.0,0.0,0.0,0.0,0.0,0.0,0.0,0.0,0.0,0.0,-0.0788084403636506,1.5627131071908342,1.5171825798124918,0.49107054245947307,-0.6699192445444715,-0.19956901902967308,-0.3868460961519728,0.0,0.0,0.0,0.0,0.0,0.0,0.0
73,0.0,0.0,0.0,0.0,0.0,0.0,0.0,0.0,0.0,0.0,0.0,0.0,0.0,0.0,0.0,0.0,0.0,0.0,-0.061815348130881034,1.5620850963897521,1.5185022577845306,0.5405738870288991,-0.6599547329655808,-0.21456757107265825,-0.35982870980943354,0.0,0.0,0.0,0.0,0.0,0.0,0.0
74,0.0,0.0,0.0,0.0,0.0,0.0,0.0,0.0,0.0,0.0,0.0,0.0,0.0,0.0,0.0,0.0,0.0,0.0,-0.053868729488242464,1.549880907619591,1.5196530109564872,0.5956663204809383,-0.6527349061915119,-0.18316041211111447,-0.3479034188875873,0.0,0.0,0.0,0.0,0.0,0.0,0.0
75,0.0,0.0,0.0,0.0,0.0,0.0,0.0,0.0,0.0,0.0,0.0,0.0,0.0,0.0,0.0,0.0,0.0,0.0,-0.06104439660847777,1.5534874134934413,1.5214223667626827,0.6431862717645345,-0.6736209750649375,-0.15994419685357675,-0.3706260286173864,0.0,0.0,0.0,0.0,0.0,0.0,0.0
76,0.0,0.0,0.0,0.0,0.0,0.0,0.0,0.0,0.0,0.0,0.0,0.0,0.0,0.0,0.0,0.0,0.0,0.0,-0.06548363105043867,1.5595501742392346,1.523805972126514,0.681585154384054,-0.7038498414065375,-0.13588762390404585,-0.38763978994645953,0.0,0.0,0.0,0.0,0.0,0.0,0.0
77,0.0,0.0,0.0,0.0,0.0,0.0,0.0,0.0,0.0,0.0,0.0,0.0,0.0,0.0,0.0,0.0,0.0,0.0,-0.0673697143207462,1.5900212820254116,1.5243137630561305,0.7247798583090762,-0.7246733406255509,-0.14970651124815634,-0.40565367932575236,0.0,0.0,0.0,0.0,0.0,0.0,0.0
78,0.0,0.0,0.0,0.0,0.0,0.0,0.0,0.0,0.0,0.0,0.0,0.0,0.0,0.0,0.0,0.0,0.0,0.0,-0.06599489166543818,1.5939949621815581,1.5244270385451437,0.7243839256072794,-0.7237607063857227,-0.13018418781370708,-0.38716462028477866,0.0,0.0,0.0,0.0,0.0,0.0,0.0
79,0.0,0.0,0.0,0.0,0.0,0.0,0.0,0.0,0.0,0.0,0.0,0.0,0.0,0.0,0.0,0.0,0.0,0.0,-0.07374795010995018,1.5961430580606113,1.5252746430967896,0.7065619789052474,-0.6990055550941661,-0.1451757302263049,-0.38283473506732624,0.0,0.0,0.0,0.0,0.0,0.0,0.0
80,0.0,0.0,0.0,0.0,0.0,0.0,0.0,0.0,0.0,0.0,0.0,0.0,0.0,0.0,0.0,0.0,0.0,0.0,-0.06870276433156816,1.583206877755701,1.5280827402830088,0.6926687106391547,-0.6434644232199029,-0.1679864631449083,-0.3758130940425586,0.0,0.0,0.0,0.0,0.0,0.0,0.0
81,0.0,0.0,0.0,0.0,0.0,0.0,0.0,0.0,0.0,0.0,0.0,0.0,0.0,0.0,0.0,0.0,0.0,0.0,-0.05734929016663916,1.583456311721847,1.5289550911196514,0.6362597398751765,-0.46887908115344157,-0.2997111863035675,-0.34078419373033103,0.0,0.0,0.0,0.0,0.0,0.0,0.0
82,0.0,0.0,0.0,0.0,0.0,0.0,0.0,0.0,0.0,0.0,0.0,0.0,0.0,0.0,0.0,0.0,0.0,0.0,-0.04796200130807429,1.5023742869937862,1.538272189837645,0.47839743247405625,-0.23567103240099585,-0.3518101075769883,-0.2050187094857567,0.0,0.0,0.0,0.0,0.0,0.0,0.0
83,0.0,0.0,0.0,0.0,0.0,0.0,0.0,0.0,0.0,0.0,0.0,0.0,0.0,0.0,0.0,0.0,0.0,0.0,-0.03398687858151738,1.4383990271548874,1.5451618394966509,0.32242964229898546,-0.26478225767934616,-0.30907284922736245,-0.15650932765632952,0.0,0.0,0.0,0.0,0.0,0.0,0.0
84,0.0,0.0,0.0,0.0,0.0,0.0,0.0,0.0,0.0,0.0,0.0,0.0,0.0,0.0,0.0,0.0,0.0,0.0,-0.047959077118817056,1.3899208615565513,1.5427692300410072,0.17630799564495378,-0.3022181948453453,-0.2504362913261848,-0.20497710661580215,0.0,0.0,0.0,0.0,0.0,0.0,0.0
85,0.0,0.0,0.0,0.0,0.0,0.0,0.0,0.0,0.0,0.0,0.0,0.0,0.0,0.0,0.0,0.0,0.0,0.0,-0.05279718259057238,1.3681975042791201,1.545312033065563,0.04907565503184885,-0.40577198752673604,-0.15316449141889274,-0.18787376845047749,0.0,0.0,0.0,0.0,0.0,0.0,0.0
86,0.0,0.0,0.0,0.0,0.0,0.0,0.0,0.0,0.0,0.0,0.0,0.0,0.0,0.0,0.0,0.0,0.0,0.0,-0.03396494849194931,1.3400875482649244,1.552493270058978,-0.03040276774991576,-0.2515180971808072,-0.19263783666088447,-0.15552375742640284,0.0,0.0,0.0,0.0,0.0,0.0,0.0
87,0.0,0.0,0.0,0.0,0.0,0.0,0.0,0.0,0.0,0.0,0.0,0.0,0.0,0.0,0.0,0.0,0.0,0.0,-0.05688234968893746,1.320453790018346,1.5489210289284983,-0.12069782274693275,-0.18096798470194395,-0.19435945578228603,-0.15514639465949742,0.0,0.0,0.0,0.0,0.0,0.0,0.0
88,0.0,0.0,0.0,0.0,0.0,0.0,0.0,0.0,0.0,0.0,0.0,0.0,0.0,0.0,0.0,0.0,0.0,0.0,-0.041297213294269934,1.279880905898556,1.5464771585573285,-0.2095964820584049,-0.32551772156659686,-0.16987063972526525,-0.1180550049308259,0.0,0.0,0.0,0.0,0.0,0.0,0.0
89,0.0,0.0,0.0,0.0,0.0,0.0,0.0,0.0,0.0,0.0,0.0,0.0,0.0,0.0,0.0,0.0,0.0,0.0,-0.046705815647621204,1.248118915275774,1.5491596518357091,-0.270438614294837,-0.29960342102769083,-0.156360033066469,-0.16001491965113157,0.0,0.0,0.0,0.0,0.0,0.0,0.0
90,0.0,0.0,0.0,0.0,0.0,0.0,0.0,0.0,0.0,0.0,0.0,0.0,0.0,0.0,0.0,0.0,0.0,0.0,-0.03711327423154057,1.2208957909853204,1.5513957753348306,-0.3858907997225569,-0.4462311015209277,-0.14017333495447193,-0.21366070015945626,0.0,0.0,0.0,0.0,0.0,0.0,0.0
91,0.0,0.0,0.0,0.0,0.0,0.0,0.0,0.0,0.0,0.0,0.0,0.0,0.0,0.0,0.0,0.0,0.0,0.0,-0.036233032144636204,1.227019384703814,1.547421451059457,-0.49232730670271463,-0.4935270508330714,-0.11694646604258718,-0.1571103787564896,0.0,0.0,0.0,0.0,0.0,0.0,0.0
92,0.0,0.0,0.0,0.0,0.0,0.0,0.0,0.0,0.0,0.0,0.0,0.0,0.0,0.0,0.0,0.0,0.0,0.0,-0.03900546440063639,1.1872531959838202,1.5484738249489112,-0.5650870984920804,-0.42844968823722446,-0.13770710971358252,-0.1919023012036648,0.0,0.0,0.0,0.0,0.0,0.0,0.0
93,0.0,0.0,0.0,0.0,0.0,0.0,0.0,0.0,0.0,0.0,0.0,0.0,0.0,0.0,0.0,0.0,0.0,0.0,-0.04084660010429468,1.2026945128747357,1.5443349506792563,-0.650199294390698,-0.5351490702678634,-0.08794185147824456,-0.14045515759069863,0.0,0.0,0.0,0.0,0.0,0.0,0.0
94,0.0,0.0,0.0,0.0,0.0,0.0,0.0,0.0,0.0,0.0,0.0,0.0,0.0,0.0,0.0,0.0,0.0,0.0,-0.04152579389036896,1.1759380624901683,1.5445322005917717,-0.7175176335663848,-0.6140432808971297,-0.0816570029499668,-0.1693679137815527,0.0,0.0,0.0,0.0,0.0,0.0,0.0
95,0.0,0.0,0.0,0.0,0.0,0.0,0.0,0.0,0.0,0.0,0.0,0.0,0.0,0.0,0.0,0.0,0.0,0.0,-0.04213806186891962,1.1814816507959425,1.5409029333331914,-0.7587661954955393,-0.6803358496659916,-0.08437761204965433,-0.16943989446404048,0.0,0.0,0.0,0.0,0.0,0.0,0.0
96,0.0,0.0,0.0,0.0,0.0,0.0,0.0,0.0,0.0,0.0,0.0,0.0,0.0,0.0,0.0,0.0,0.0,0.0,-0.040536703581836225,1.1604102440725463,1.533270739109645,-0.8092469529317157,-0.7680380905516767,-0.08748335490953765,-0.17760175086087193,0.0,0.0,0.0,0.0,0.0,0.0,0.0
97,0.0,0.0,0.0,0.0,0.0,0.0,0.0,0.0,0.0,0.0,0.0,0.0,0.0,0.0,0.0,0.0,0.0,0.0,-0.043160379546997724,1.1563319543453319,1.534792105716583,-0.841039443164513,-0.7200175585021316,-0.08266138204255076,-0.16315112247375887,0.0,0.0,0.0,0.0,0.0,0.0,0.0
98,0.0,0.0,0.0,0.0,0.0,0.0,0.0,0.0,0.0,0.0,0.0,0.0,0.0,0.0,0.0,0.0,0.0,0.0,-0.04389136407664098,1.152058014300063,1.5340859742368294,-0.8457566374699271,-0.7378364976526041,-0.0891747635769764,-0.20171681028430943,0.0,0.0,0.0,0.0,0.0,0.0,0.0
99,0.0,0.0,0.0,0.0,0.0,0.0,0.0,0.0,0.0,0.0,0.0,0.0,0.0,0.0,0.0,0.0,0.0,0.0,-0.045283609279078756,1.1498894722617903,1.5333630573014234,-0.8497407715941385,-0.7360079429276286,-0.10283343106554856,-0.1877861518922236,0.0,0.0,0.0,0.0,0.0,0.0,0.0
100,0.0,0.0,0.0,0.0,0.0,0.0,0.0,0.0,0.0,0.0,0.0,0.0,0.0,0.0,0.0,0.0,0.0,0.0,-0.039282469402280557,1.1505768118221036,1.5238224775647837,-0.8225564785838769,-0.8026010299575989,-0.13746940832119664,-0.23065940142760696,0.0,0.0,0.0,0.0,0.0,0.0,0.0
101,0.0,0.0,0.0,0.0,0.0,0.0,0.0,0.0,0.0,0.0,0.0,0.0,0.0,0.0,0.0,0.0,0.0,0.0,-0.04189031480864824,1.158995364569589,1.5268288101383685,-0.7961376467418885,-0.6881300214679582,-0.15729546649282458,-0.19773273301079802,0.0,0.0,0.0,0.0,0.0,0.0,0.0
102,0.0,0.0,0.0,0.0,0.0,0.0,0.0,0.0,0.0,0.0,0.0,0.0,0.0,0.0,0.0,0.0,0.0,0.0,-0.041000819729009375,1.1688612567409868,1.5280155297872506,-0.7764899371121201,-0.5763621404730495,-0.15943887461104642,-0.1533793266647564,0.0,0.0,0.0,0.0,0.0,0.0,0.0
103,0.0,0.0,0.0,0.0,0.0,0.0,0.0,0.0,0.0,0.0,0.0,0.0,0.0,0.0,0.0,0.0,0.0,0.0,-0.05898192744813613,1.2100557306080904,1.5398587277334448,-0.7580702114092742,-0.6152567063163457,-0.034632014327875174,-0.1459720129056512,0.0,0.0,0.0,0.0,0.0,0.0,0.0
104,0.0,0.0,0.0,0.0,0.0,0.0,0.0,0.0,0.0,0.0,0.0,0.0,0.0,0.0,0.0,0.0,0.0,0.0,-0.04639042771365074,1.204353027760052,1.5432048809644092,-0.7165249554424308,-0.7030560155908977,-0.05475713590944696,-0.14543451545282857,0.0,0.0,0.0,0.0,0.0,0.0,0.0
105,0.0,0.0,0.0,0.0,0.0,0.0,0.0,0.0,0.0,0.0,0.0,0.0,0.0,0.0,0.0,0.0,0.0,0.0,-0.05246725465024843,1.2107130531230565,1.539609601978494,-0.6786916948637352,-0.47857366608683416,-0.04635420918247974,-0.16569253203944126,0.0,0.0,0.0,0.0,0.0,0.0,0.0
106,0.0,0.0,0.0,0.0,0.0,0.0,0.0,0.0,0.0,0.0,0.0,0.0,0.0,0.0,0.0,0.0,0.0,0.0,-0.04909614766192827,1.2311166061671814,1.5468596463845194,-0.6138611085893365,-0.7132482331627479,-0.04215818902541626,-0.1741626674703852,0.0,0.0,0.0,0.0,0.0,0.0,0.0
107,0.0,0.0,0.0,0.0,0.0,0.0,0.0,0.0,0.0,0.0,0.0,0.0,0.0,0.0,0.0,0.0,0.0,0.0,-0.04144438481147031,1.234294656909248,1.5436377937700838,-0.5638300566640618,-0.5145537252876455,-0.06674300417793813,-0.11143230998883365,0.0,0.0,0.0,0.0,0.0,0.0,0.0
108,0.0,0.0,0.0,0.0,0.0,0.0,0.0,0.0,0.0,0.0,0.0,0.0,0.0,0.0,0.0,0.0,0.0,0.0,-0.04799321069441049,1.2738908855943356,1.5371669887664268,-0.49260769422948736,-0.6188048480061076,-0.03229241804060962,-0.1404409575694635,0.0,0.0,0.0,0.0,0.0,0.0,0.0
109,0.0,0.0,0.0,0.0,0.0,0.0,0.0,0.0,0.0,0.0,0.0,0.0,0.0,0.0,0.0,0.0,0.0,0.0,-0.036398935427820536,1.2435814076086602,1.545543439417856,-0.4096347684615211,-0.5712439126026136,-0.1124752646791067,-0.1720822189116463,0.0,0.0,0.0,0.0,0.0,0.0,0.0
110,0.0,0.0,0.0,0.0,0.0,0.0,0.0,0.0,0.0,0.0,0.0,0.0,0.0,0.0,0.0,0.0,0.0,0.0,-0.04594410910757506,1.2623162226072007,1.5448160041734114,-0.3324362835976003,-0.43088837828931714,-0.09017121474891872,-0.14623668118278382,0.0,0.0,0.0,0.0,0.0,0.0,0.0
111,0.0,0.0,0.0,0.0,0.0,0.0,0.0,0.0,0.0,0.0,0.0,0.0,0.0,0.0,0.0,0.0,0.0,0.0,-0.04679990475952097,1.278523492429293,1.5465465840439163,-0.2307682919403554,-0.41964974429632407,-0.1251523819889944,-0.1739320331071558,0.0,0.0,0.0,0.0,0.0,0.0,0.0
112,0.0,0.0,0.0,0.0,0.0,0.0,0.0,0.0,0.0,0.0,0.0,0.0,0.0,0.0,0.0,0.0,0.0,0.0,-0.04109622896852316,1.2948019576107817,1.545396830266297,-0.18590980019305045,-0.5210812769016855,-0.10714888665832308,-0.1916157866502397,0.0,0.0,0.0,0.0,0.0,0.0,0.0
113,0.0,0.0,0.0,0.0,0.0,0.0,0.0,0.0,0.0,0.0,0.0,0.0,0.0,0.0,0.0,0.0,0.0,0.0,-0.04242136190937336,1.3019640830281123,1.5489520574714672,-0.10991942355961962,-0.36891201018888137,-0.14796436695089218,-0.17537823912399234,0.0,0.0,0.0,0.0,0.0,0.0,0.0
114,0.0,0.0,0.0,0.0,0.0,0.0,0.0,0.0,0.0,0.0,0.0,0.0,0.0,0.0,0.0,0.0,0.0,0.0,-0.0453597291842765,1.321169975989012,1.5461044445965964,-0.04301074134891597,-0.3933033572399262,-0.15715392929473168,-0.1863421812476219,0.0,0.0,0.0,0.0,0.0,0.0,0.0
115,0.0,0.0,0.0,0.0,0.0,0.0,0.0,0.0,0.0,0.0,0.0,0.0,0.0,0.0,0.0,0.0,0.0,0.0,-0.04664659742518964,1.337781019998493,1.5464561891024853,0.017463382446495767,-0.3672705429041103,-0.16739362117674797,-0.18920108364136365,0.0,0.0,0.0,0.0,0.0,0.0,0.0
116,0.0,0.0,0.0,0.0,0.0,0.0,0.0,0.0,0.0,0.0,0.0,0.0,0.0,0.0,0.0,0.0,0.0,0.0,-0.04753452967713364,1.3501525212805685,1.5453472914473083,0.08049737563141113,-0.3743568973209518,-0.17936409097724001,-0.19926529790009645,0.0,0.0,0.0,0.0,0.0,0.0,0.0
117,0.0,0.0,0.0,0.0,0.0,0.0,0.0,0.0,0.0,0.0,0.0,0.0,0.0,0.0,0.0,0.0,0.0,0.0,-0.046955675234329634,1.3827452993897686,1.5428186960274535,0.19833583116177295,-0.36884602918828036,-0.21792896909702228,-0.2136875637807265,0.0,0.0,0.0,0.0,0.0,0.0,0.0
118,0.0,0.0,0.0,0.0,0.0,0.0,0.0,0.0,0.0,0.0,0.0,0.0,0.0,0.0,0.0,0.0,0.0,0.0,-0.04974576029548808,1.3997482127364014,1.5432907085591265,0.27420538325779675,-0.39006220456481816,-0.23179233049756548,-0.2869033942009459,0.0,0.0,0.0,0.0,0.0,0.0,0.0
119,0.0,0.0,0.0,0.0,0.0,0.0,0.0,0.0,0.0,0.0,0.0,0.0,0.0,0.0,0.0,0.0,0.0,0.0,-0.04622624536452513,1.385461429391167,1.5451382176289994,0.2941173472158113,-0.4333811198028252,-0.2098622419076011,-0.25763137906384875,0.0,0.0,0.0,0.0,0.0,0.0,0.0
120,0.0,0.0,0.0,0.0,0.0,0.0,0.0,0.0,0.0,0.0,0.0,0.0,0.0,0.0,0.0,0.0,0.0,0.0,-0.04252294947928084,1.3973291842278086,1.5427960303371935,0.337418011911947,-0.4273477986241158,-0.23509791884516482,-0.25865127851613434,0.0,0.0,0.0,0.0,0.0,0.0,0.0
121,0.0,0.0,0.0,0.0,0.0,0.0,0.0,0.0,0.0,0.0,0.0,0.0,0.0,0.0,0.0,0.0,0.0,0.0,-0.043765029156038346,1.3910345133648636,1.5445718736388865,0.34502697951210753,-0.38280260104506575,-0.23693131825278438,-0.24389300573456676,0.0,0.0,0.0,0.0,0.0,0.0,0.0
122,0.0,0.0,0.0,0.0,0.0,0.0,0.0,0.0,0.0,0.0,0.0,0.0,0.0,0.0,0.0,0.0,0.0,0.0,-0.04512194246090873,1.387566341781853,1.5465888710340776,0.3501824151480248,-0.3419364507236541,-0.24276316636509213,-0.23514497346826652,0.0,0.0,0.0,0.0,0.0,0.0,0.0
123,0.0,0.0,0.0,0.0,0.0,0.0,0.0,0.0,0.0,0.0,0.0,0.0,0.0,0.0,0.0,0.0,0.0,0.0,-0.04699060024397696,1.3883597994921069,1.5486553002995933,0.33749127958874603,-0.2924882752151191,-0.24504341641738622,-0.2210988078800787,0.0,0.0,0.0,0.0,0.0,0.0,0.0
124,0.0,0.0,0.0,0.0,0.0,0.0,0.0,0.0,0.0,0.0,0.0,0.0,0.0,0.0,0.0,0.0,0.0,0.0,-0.050455892055811365,1.3948652055133979,1.5501602944648487,0.3148100021721779,-0.23031108956959678,-0.2671150031094084,-0.20804141729758102,0.0,0.0,0.0,0.0,0.0,0.0,0.0
125,0.0,0.0,0.0,0.0,0.0,0.0,0.0,0.0,0.0,0.0,0.0,0.0,0.0,0.0,0.0,0.0,0.0,0.0,-0.046027756904442614,1.358646025015111,1.5509038344600878,0.26579077648349,-0.22464522510784976,-0.27671293549069625,-0.17940904125776666,0.0,0.0,0.0,0.0,0.0,0.0,0.0
126,0.0,0.0,0.0,0.0,0.0,0.0,0.0,0.0,0.0,0.0,0.0,0.0,0.0,0.0,0.0,0.0,0.0,0.0,-0.04648010179514974,1.320841593684393,1.552812736205532,0.21967851080084744,-0.17544122058358744,-0.2969468697318385,-0.17759452677702525,0.0,0.0,0.0,0.0,0.0,0.0,0.0
127,0.0,0.0,0.0,0.0,0.0,0.0,0.0,0.0,0.0,0.0,0.0,0.0,0.0,0.0,0.0,0.0,0.0,0.0,-0.04361002700134136,1.3076069735962457,1.5580313147885323,0.1526271602721968,-0.1298495590655805,-0.33809183181980607,-0.16983044339530967,0.0,0.0,0.0,0.0,0.0,0.0,0.0
128,0.0,0.0,0.0,0.0,0.0,0.0,0.0,0.0,0.0,0.0,0.0,0.0,0.0,0.0,0.0,0.0,0.0,0.0,-0.04432413943952091,1.2647222891915066,1.5570892778895644,0.06409180981502549,-0.14218407129976116,-0.30850595352469423,-0.15010107670036346,0.0,0.0,0.0,0.0,0.0,0.0,0.0
129,0.0,0.0,0.0,0.0,0.0,0.0,0.0,0.0,0.0,0.0,0.0,0.0,0.0,0.0,0.0,0.0,0.0,0.0,-0.045586545854752275,1.253529716831352,1.5547581326012307,-0.04111793800748151,-0.25728764013542776,-0.1839520731051746,-0.18263087159713345,0.0,0.0,0.0,0.0,0.0,0.0,0.0
130,0.0,0.0,0.0,0.0,0.0,0.0,0.0,0.0,0.0,0.0,0.0,0.0,0.0,0.0,0.0,0.0,0.0,0.0,-0.03690117079804124,1.230920242910044,1.555468337528488,-0.09770636105220876,-0.23053071890493673,-0.20483123870585812,-0.16532095513726197,0.0,0.0,0.0,0.0,0.0,0.0,0.0
131,0.0,0.0,0.0,0.0,0.0,0.0,0.0,0.0,0.0,0.0,0.0,0.0,0.0,0.0,0.0,0.0,0.0,0.0,-0.038869965959966474,1.2102523566100376,1.5566421977245242,-0.15902415495882782,-0.23433271004784584,-0.20242373014256332,-0.1471998431200059,0.0,0.0,0.0,0.0,0.0,0.0,0.0
132,0.0,0.0,0.0,0.0,0.0,0.0,0.0,0.0,0.0,0.0,0.0,0.0,0.0,0.0,0.0,0.0,0.0,0.0,-0.0429584522356654,1.1862196593867833,1.5554679811238348,-0.21659929071732958,-0.202990673876148,-0.1920454046589816,-0.15607530986348567,0.0,0.0,0.0,0.0,0.0,0.0,0.0
133,0.0,0.0,0.0,0.0,0.0,0.0,0.0,0.0,0.0,0.0,0.0,0.0,0.0,0.0,0.0,0.0,0.0,0.0,-0.03665803818416499,1.1616240050206925,1.5543621006185773,-0.2783697408215957,-0.27010746144457,-0.1958414239128167,-0.1286339067914713,0.0,0.0,0.0,0.0,0.0,0.0,0.0
134,0.0,0.0,0.0,0.0,0.0,0.0,0.0,0.0,0.0,0.0,0.0,0.0,0.0,0.0,0.0,0.0,0.0,0.0,-0.04442781678882762,1.1547917950896285,1.5555834820548615,-0.34149824112465466,-0.2576380878635845,-0.16801743496433905,-0.15070127180332915,0.0,0.0,0.0,0.0,0.0,0.0,0.0
135,0.0,0.0,0.0,0.0,0.0,0.0,0.0,0.0,0.0,0.0,0.0,0.0,0.0,0.0,0.0,0.0,0.0,0.0,-0.0367771757557618,1.1480877221195056,1.555119082102206,-0.39190076282137554,-0.3431965186260715,-0.13839388806182312,-0.13669031636402837,0.0,0.0,0.0,0.0,0.0,0.0,0.0
136,0.0,0.0,0.0,0.0,0.0,0.0,0.0,0.0,0.0,0.0,0.0,0.0,0.0,0.0,0.0,0.0,0.0,0.0,-0.03582801171509394,1.1300857911321298,1.549108597294775,-0.47290960536219434,-0.3812983232871655,-0.17449682356046398,-0.1624050260217842,0.0,0.0,0.0,0.0,0.0,0.0,0.0
137,0.0,0.0,0.0,0.0,0.0,0.0,0.0,0.0,0.0,0.0,0.0,0.0,0.0,0.0,0.0,0.0,0.0,0.0,-0.0351796460630897,1.1151686991783931,1.5525851291858652,-0.5469702617797091,-0.3340659696685917,-0.15148296970758204,-0.13534472931658034,0.0,0.0,0.0,0.0,0.0,0.0,0.0
138,0.0,0.0,0.0,0.0,0.0,0.0,0.0,0.0,0.0,0.0,0.0,0.0,0.0,0.0,0.0,0.0,0.0,0.0,-0.04060702747065483,1.0915887060926486,1.5452643690289605,-0.5922842029196096,-0.46064525696474334,-0.15091215389398896,-0.17930377881610682,0.0,0.0,0.0,0.0,0.0,0.0,0.0
139,0.0,0.0,0.0,0.0,0.0,0.0,0.0,0.0,0.0,0.0,0.0,0.0,0.0,0.0,0.0,0.0,0.0,0.0,-0.04355758786823851,1.1090472005996141,1.5506743924029958,-0.6457120607846579,-0.5186816378463732,-0.10613275818534512,-0.19900754738734966,0.0,0.0,0.0,0.0,0.0,0.0,0.0
140,0.0,0.0,0.0,0.0,0.0,0.0,0.0,0.0,0.0,0.0,0.0,0.0,0.0,0.0,0.0,0.0,0.0,0.0,-0.03388608970336415,1.0944283773123265,1.548535747704407,-0.6783593220708267,-0.5861691235151546,-0.11726261842263982,-0.1827077040535914,0.0,0.0,0.0,0.0,0.0,0.0,0.0
141,0.0,0.0,0.0,0.0,0.0,0.0,0.0,0.0,0.0,0.0,0.0,0.0,0.0,0.0,0.0,0.0,0.0,0.0,-0.03965388468336867,1.097649468942476,1.5491507680095695,-0.720517825458097,-0.529882621076539,-0.10330622590426113,-0.15989489492741246,0.0,0.0,0.0,0.0,0.0,0.0,0.0
142,0.0,0.0,0.0,0.0,0.0,0.0,0.0,0.0,0.0,0.0,0.0,0.0,0.0,0.0,0.0,0.0,0.0,0.0,-0.04029834592310589,1.095433961692717,1.5463079980018575,-0.7402610924264903,-0.5997022772689107,-0.07345726393802587,-0.16384996629728216,0.0,0.0,0.0,0.0,0.0,0.0,0.0
143,0.0,0.0,0.0,0.0,0.0,0.0,0.0,0.0,0.0,0.0,0.0,0.0,0.0,0.0,0.0,0.0,0.0,0.0,-0.04464114809812333,1.0971004508258098,1.5474161301247453,-0.7468773301716047,-0.5980261814393052,-0.0920031457533161,-0.18117683196539724,0.0,0.0,0.0,0.0,0.0,0.0,0.0
144,0.0,0.0,0.0,0.0,0.0,0.0,0.0,0.0,0.0,0.0,0.0,0.0,0.0,0.0,0.0,0.0,0.0,0.0,-0.03324416949058662,1.0859706904977615,1.5468364530947218,-0.7491664595460448,-0.6755763934741469,-0.09645274605570765,-0.18249547721904344,0.0,0.0,0.0,0.0,0.0,0.0,0.0
145,0.0,0.0,0.0,0.0,0.0,0.0,0.0,0.0,0.0,0.0,0.0,0.0,0.0,0.0,0.0,0.0,0.0,0.0,-0.03768545402192684,1.1043914626995093,1.545515764645929,-0.7324219644064212,-0.5745055519180895,-0.09143840640416526,-0.14910899241965422,0.0,0.0,0.0,0.0,0.0,0.0,0.0
146,0.0,0.0,0.0,0.0,0.0,0.0,0.0,0.0,0.0,0.0,0.0,0.0,0.0,0.0,0.0,0.0,0.0,0.0,-0.0385907813958775,1.1057065820576018,1.5435931545713055,-0.7081057726378248,-0.5855311808187604,-0.1083185410714044,-0.15601083761521364,0.0,0.0,0.0,0.0,0.0,0.0,0.0
147,0.0,0.0,0.0,0.0,0.0,0.0,0.0,0.0,0.0,0.0,0.0,0.0,0.0,0.0,0.0,0.0,0.0,0.0,-0.03853398593469349,1.1200744820710544,1.5428158992448218,-0.6688617765899129,-0.5496402917670582,-0.10063367845653069,-0.1447773478450982,0.0,0.0,0.0,0.0,0.0,0.0,0.0
148,0.0,0.0,0.0,0.0,0.0,0.0,0.0,0.0,0.0,0.0,0.0,0.0,0.0,0.0,0.0,0.0,0.0,0.0,-0.03986099963789115,1.1209128548355982,1.5460574726408918,-0.6289651374588242,-0.5471664077538778,-0.10088465159498629,-0.16003319456651077,0.0,0.0,0.0,0.0,0.0,0.0,0.0
149,0.0,0.0,0.0,0.0,0.0,0.0,0.0,0.0,0.0,0.0,0.0,0.0,0.0,0.0,0.0,0.0,0.0,0.0,-0.03716342705827219,1.1357853355216019,1.546499356794113,-0.5846146693794249,-0.5896013560146273,-0.08644552827751088,-0.19982364967642882,0.0,0.0,0.0,0.0,0.0,0.0,0.0
150,0.0,0.0,0.0,0.0,0.0,0.0,0.0,0.0,0.0,0.0,0.0,0.0,0.0,0.0,0.0,0.0,0.0,0.0,-0.041497439830596713,1.1674083823461536,1.5522548547934225,-0.5219768464696671,-0.534670417538226,-0.06735625865214805,-0.17656962806370832,0.0,0.0,0.0,0.0,0.0,0.0,0.0
151,0.0,0.0,0.0,0.0,0.0,0.0,0.0,0.0,0.0,0.0,0.0,0.0,0.0,0.0,0.0,0.0,0.0,0.0,-0.03856400405912217,1.1600427822502772,1.5542145977389785,-0.42062165780528965,-0.46626813943608447,-0.11652501925560411,-0.18626734661381028,0.0,0.0,0.0,0.0,0.0,0.0,0.0
152,0.0,0.0,0.0,0.0,0.0,0.0,0.0,0.0,0.0,0.0,0.0,0.0,0.0,0.0,0.0,0.0,0.0,0.0,-0.03380502215870192,1.171559731269634,1.5494076704426956,-0.35982513623646656,-0.498608427735101,-0.13756676787156186,-0.17825839993945303,0.0,0.0,0.0,0.0,0.0,0.0,0.0
153,0.0,0.0,0.0,0.0,0.0,0.0,0.0,0.0,0.0,0.0,0.0,0.0,0.0,0.0,0.0,0.0,0.0,0.0,-0.03324560190253515,1.1906902915890445,1.5458619982967998,-0.2940127923377843,-0.46939536007296634,-0.15780295403214428,-0.16969648571863233,0.0,0.0,0.0,0.0,0.0,0.0,0.0
154,0.0,0.0,0.0,0.0,0.0,0.0,0.0,0.0,0.0,0.0,0.0,0.0,0.0,0.0,0.0,0.0,0.0,0.0,-0.0339780655155709,1.208208001051654,1.546764980308384,-0.2280156886242287,-0.4357851752576228,-0.16873959472779157,-0.17284811627389396,0.0,0.0,0.0,0.0,0.0,0.0,0.0
155,0.0,0.0,0.0,0.0,0.0,0.0,0.0,0.0,0.0,0.0,0.0,0.0,0.0,0.0,0.0,0.0,0.0,0.0,-0.03508686941401394,1.2310879229257525,1.547577381974754,-0.16480316025136652,-0.4134097630624498,-0.17168041582596502,-0.17488493251496748,0.0,0.0,0.0,0.0,0.0,0.0,0.0
156,0.0,0.0,0.0,0.0,0.0,0.0,0.0,0.0,0.0,0.0,0.0,0.0,0.0,0.0,0.0,0.0,0.0,0.0,-0.0398451492621505,1.238407946177104,1.5509820332336963,-0.09938697866983234,-0.3426132223236927,-0.17837889396398462,-0.18270512366679936,0.0,0.0,0.0,0.0,0.0,0.0,0.0
157,0.0,0.0,0.0,0.0,0.0,0.0,0.0,0.0,0.0,0.0,0.0,0.0,0.0,0.0,0.0,0.0,0.0,0.0,-0.03816399716315677,1.2521893910389996,1.5512601311073224,-0.025662344164142852,-0.35063811981025944,-0.18769796427875038,-0.19090318472468787,0.0,0.0,0.0,0.0,0.0,0.0,0.0
158,0.0,0.0,0.0,0.0,0.0,0.0,0.0,0.0,0.0,0.0,0.0,0.0,0.0,0.0,0.0,0.0,0.0,0.0,-0.03628161656013698,1.264706492127874,1.5541156211958878,0.07731237842963425,-0.383928297108924,-0.20819208804578954,-0.2434638134011906,0.0,0.0,0.0,0.0,0.0,0.0,0.0
159,0.0,0.0,0.0,0.0,0.0,0.0,0.0,0.0,0.0,0.0,0.0,0.0,0.0,0.0,0.0,0.0,0.0,0.0,-0.030379999761712437,1.2799152650894394,1.551675635429226,0.19794912867278214,-0.40810148887378134,-0.23749151913109487,-0.2680071677840282,0.0,0.0,0.0,0.0,0.0,0.0,0.0
160,0.0,0.0,0.0,0.0,0.0,0.0,0.0,0.0,0.0,0.0,0.0,0.0,0.0,0.0,0.0,0.0,0.0,0.0,-0.027531157502288402,1.2682608141357774,1.5526553299560315,0.27638520570315134,-0.35042294675118313,-0.28700568863579884,-0.25737246470846686,0.0,0.0,0.0,0.0,0.0,0.0,0.0
161,0.0,0.0,0.0,0.0,0.0,0.0,0.0,0.0,0.0,0.0,0.0,0.0,0.0,0.0,0.0,0.0,0.0,0.0,-0.02982528330053131,1.2883318036494726,1.5536261737524841,0.3724260004979185,-0.3036026863538726,-0.2634056045448537,-0.22649617213472856,0.0,0.0,0.0,0.0,0.0,0.0,0.0
162,0.0,0.0,0.0,0.0,0.0,0.0,0.0,0.0,0.0,0.0,0.0,0.0,0.0,0.0,0.0,0.0,0.0,0.0,-0.030916239748309534,1.2982365077016196,1.5551307166720385,0.4480287611587238,-0.3336966142072899,-0.2534951393814781,-0.25483234864588894,0.0,0.0,0.0,0.0,0.0,0.0,0.0
163,0.0,0.0,0.0,0.0,0.0,0.0,0.0,0.0,0.0,0.0,0.0,0.0,0.0,0.0,0.0,0.0,0.0,0.0,-0.028719982641267072,1.323897088974204,1.5542714826521886,0.5518144900405226,-0.40946794488959537,-0.24120028782415542,-0.32838319754148426,0.0,0.0,0.0,0.0,0.0,0.0,0.0
164,0.0,0.0,0.0,0.0,0.0,0.0,0.0,0.0,0.0,0.0,0.0,0.0,0.0,0.0,0.0,0.0,0.0,0.0,-0.02487832444698393,1.3090951022345174,1.556546627416727,0.6310600093212646,-0.430988268388096,-0.2563775854054798,-0.34143850063860415,0.0,0.0,0.0,0.0,0.0,0.0,0.0
165,0.0,0.0,0.0,0.0,0.0,0.0,0.0,0.0,0.0,0.0,0.0,0.0,0.0,0.0,0.0,0.0,0.0,0.0,-0.03572159476183665,1.2851732927210677,1.554526640829392,0.6889641912466298,-0.4860373848000278,-0.22932448894774335,-0.42272977684015983,0.0,0.0,0.0,0.0,0.0,0.0,0.0
166,0.0,0.0,0.0,0.0,0.0,0.0,0.0,0.0,0.0,0.0,0.0,0.0,0.0,0.0,0.0,0.0,0.0,0.0,-0.022935707841595026,1.2525075470971927,1.5563421181494699,0.7396979947716352,-0.5571109470333391,-0.1934123828761598,-0.44555120843462304,0.0,0.0,0.0,0.0,0.0,0.0,0.0
167,0.0,0.0,0.0,0.0,0.0,0.0,0.0,0.0,0.0,0.0,0.0,0.0,0.0,0.0,0.0,0.0,0.0,0.0,-0.020332491699500695,1.1597435451355214,1.5656248351433317,0.7123460838551157,-0.504213677837186,-0.20456696438545352,-0.4144463692866414,0.0,0.0,0.0,0.0,0.0,0.0,0.0
168,0.0,0.0,0.0,0.0,0.0,0.0,0.0,0.0,0.0,0.0,0.0,0.0,0.0,0.0,0.0,0.0,0.0,0.0,-0.013434809342725514,1.1137193563797236,1.5587700723570175,0.7533382147311836,-0.5001939167754557,-0.2135283384177281,-0.4322342431821274,0.0,0.0,0.0,0.0,0.0,0.0,0.0
169,0.0,0.0,0.0,0.0,0.0,0.0,0.0,0.0,0.0,0.0,0.0,0.0,0.0,0.0,0.0,0.0,0.0,0.0,-0.011185099808674909,1.0744631837838594,1.5615779429966412,0.7543146632078931,-0.5017610266435183,-0.1896713730650057,-0.412297497125629,0.0,0.0,0.0,0.0,0.0,0.0,0.0
170,0.0,0.0,0.0,0.0,0.0,0.0,0.0,0.0,0.0,0.0,0.0,0.0,0.0,0.0,0.0,0.0,0.0,0.0,-0.007333283730130606,1.0150048630879733,1.5623370018525984,0.7353453026273922,-0.5293275751251416,-0.17938278325185533,-0.44193192052217634,0.0,0.0,0.0,0.0,0.0,0.0,0.0
171,0.0,0.0,0.0,0.0,0.0,0.0,0.0,0.0,0.0,0.0,0.0,0.0,0.0,0.0,0.0,0.0,0.0,0.0,-0.004930042675841379,0.9515816560525102,1.5637222945930875,0.7465562414374105,-0.5432616132780517,-0.16763156886723884,-0.46177064608173307,0.0,0.0,0.0,0.0,0.0,0.0,0.0
172,0.0,0.0,0.0,0.0,0.0,0.0,0.0,0.0,0.0,0.0,0.0,0.0,0.0,0.0,0.0,0.0,0.0,0.0,-0.0064183097658515,0.92683609047409,1.5654430993727622,0.8186791675931695,-0.47563403374019037,-0.19117807979710613,-0.4620758077509719,0.0,0.0,0.0,0.0,0.0,0.0,0.0
173,0.0,0.0,0.0,0.0,0.0,0.0,0.0,0.0,0.0,0.0,0.0,0.0,0.0,0.0,0.0,0.0,0.0,0.0,-0.0016757572577582817,0.8630812529586014,1.5680547509861573,0.8281495917772893,-0.5337222901378207,-0.15280369143526323,-0.4952518306047602,0.0,0.0,0.0,0.0,0.0,0.0,0.0
174,0.0,0.0,0.0,0.0,0.0,0.0,0.0,0.0,0.0,0.0,0.0,0.0,0.0,0.0,0.0,0.0,0.0,0.0,-0.0033632262311820904,0.8424877004590007,1.5675651230062342,0.8697850389291683,-0.5516750160939016,-0.13711017401676823,-0.5121563415692834,0.0,0.0,0.0,0.0,0.0,0.0,0.0
175,0.0,0.0,0.0,0.0,0.0,0.0,0.0,0.0,0.0,0.0,0.0,0.0,0.0,0.0,0.0,0.0,0.0,0.0,-0.00048721449583340615,0.7808167886424422,1.5607928798868331,0.8273168928061655,-0.6460406041123039,-0.09152418863049261,-0.49449991684616795,0.0,0.0,0.0,0.0,0.0,0.0,0.0
176,0.0,0.0,0.0,0.0,0.0,0.0,0.0,0.0,0.0,0.0,0.0,0.0,0.0,0.0,0.0,0.0,0.0,0.0,0.010552679587390038,0.7202230627331424,1.5494479596363788,0.845131342000318,-0.6803668720315762,-0.08607873203088504,-0.5209178713849103,0.0,0.0,0.0,0.0,0.0,0.0,0.0
177,0.0,0.0,0.0,0.0,0.0,0.0,0.0,0.0,0.0,0.0,0.0,0.0,0.0,0.0,0.0,0.0,0.0,0.0,0.010720693871573886,0.7000933314068236,1.5588526739163424,0.9051588887462488,-0.6078130702572186,-0.08615253767552164,-0.5259025483560025,0.0,0.0,0.0,0.0,0.0,0.0,0.0
178,0.0,0.0,0.0,0.0,0.0,0.0,0.0,0.0,0.0,0.0,0.0,0.0,0.0,0.0,0.0,0.0,0.0,0.0,0.008130734940571014,0.6440109663642071,1.568505416697596,1.0071004123305467,-0.4791557730171981,-0.11080632811850903,-0.5151524510221273,0.0,0.0,0.0,0.0,0.0,0.0,0.0
179,0.0,0.0,0.0,0.0,0.0,0.0,0.0,0.0,0.0,0.0,0.0,0.0,0.0,0.0,0.0,0.0,0.0,0.0,0.007811176092071673,0.6053519122579287,1.566846668287913,1.0635809033809043,-0.4273753876653885,-0.11255517549051308,-0.504640007200387,0.0,0.0,0.0,0.0,0.0,0.0,0.0
180,0.0,0.0,0.0,0.0,0.0,0.0,0.0,0.0,0.0,0.0,0.0,0.0,0.0,0.0,0.0,0.0,0.0,0.0,0.00980809913532088,0.5485810696342759,1.5569210221747445,1.0986682614075276,-0.34270447035911616,-0.11633654862939634,-0.4859241660587558,0.0,0.0,0.0,0.0,0.0,0.0,0.0
181,0.0,0.0,0.0,0.0,0.0,0.0,0.0,0.0,0.0,0.0,0.0,0.0,0.0,0.0,0.0,0.0,0.0,0.0,0.012299518491940385,0.47961646578789263,1.5425931203223937,1.1292359160993655,-0.24986200979495882,-0.12378003663230895,-0.46322696006894354,0.0,0.0,0.0,0.0,0.0,0.0,0.0
182,0.0,0.0,0.0,0.0,0.0,0.0,0.0,0.0,0.0,0.0,0.0,0.0,0.0,0.0,0.0,0.0,0.0,0.0,0.015320733772072784,0.40371336598808766,1.520281100587255,1.1351745314949038,-0.1587980920637031,-0.127143220404554,-0.4384739336442599,0.0,0.0,0.0,0.0,0.0,0.0,0.0
183,0.0,0.0,0.0,0.0,0.0,0.0,0.0,0.0,0.0,0.0,0.0,0.0,0.0,0.0,0.0,0.0,0.0,0.0,0.017469291507085996,0.3559431405517814,1.509904756627093,1.149914241430337,-0.10293476993299697,-0.13416689885544472,-0.4242727331794372,0.0,0.0,0.0,0.0,0.0,0.0,0.0
184,0.0,0.0,0.0,0.0,0.0,0.0,0.0,0.0,0.0,0.0,0.0,0.0,0.0,0.0,0.0,0.0,0.0,0.0,0.018292524465161705,0.3110258749369406,1.4959901214702056,1.1757285030468976,0.005033380953892792,-0.13171658932094954,-0.4042625606874181,0.0,0.0,0.0,0.0,0.0,0.0,0.0
185,0.0,0.0,0.0,0.0,0.0,0.0,0.0,0.0,0.0,0.0,0.0,0.0,0.0,0.0,0.0,0.0,0.0,0.0,0.020070976339902007,0.2620183649117699,1.4733757540861787,1.169341587389597,0.13207204065418354,-0.12270046219932257,-0.39742038492099835,0.0,0.0,0.0,0.0,0.0,0.0,0.0
186,0.0,0.0,0.0,0.0,0.0,0.0,0.0,0.0,0.0,0.0,0.0,0.0,0.0,0.0,0.0,0.0,0.0,0.0,0.021759409055824616,0.21592999532801826,1.45589208573749,1.1730190603530302,0.23880815833773403,-0.11827544027360751,-0.38747994153850823,0.0,0.0,0.0,0.0,0.0,0.0,0.0
187,0.0,0.0,0.0,0.0,0.0,0.0,0.0,0.0,0.0,0.0,0.0,0.0,0.0,0.0,0.0,0.0,0.0,0.0,0.022511199671879353,0.17726571797048152,1.4409228571196564,1.17531374880465,0.320666319926845,-0.12190399136432754,-0.37556424402738026,0.0,0.0,0.0,0.0,0.0,0.0,0.0
188,0.0,0.0,0.0,0.0,0.0,0.0,0.0,0.0,0.0,0.0,0.0,0.0,0.0,0.0,0.0,0.0,0.0,0.0,0.024200907775396182,0.1369533569308909,1.4279878637518866,1.1745452797056835,0.3307632445783393,-0.13014605261468098,-0.3546032565244808,0.0,0.0,0.0,0.0,0.0,0.0,0.0
189,0.0,0.0,0.0,0.0,0.0,0.0,0.0,0.0,0.0,0.0,0.0,0.0,0.0,0.0,0.0,0.0,0.0,0.0,0.024565090428660473,0.14673346059358505,1.4292409289830568,1.2138807212951594,0.31793937170644904,-0.13984377015355454,-0.34504356325412194,0.0,0.0,0.0,0.0,0.0,0.0,0.0
190,0.0,0.0,0.0,0.0,0.0,0.0,0.0,0.0,0.0,0.0,0.0,0.0,0.0,0.0,0.0,0.0,0.0,0.0,0.02505609917747462,0.1104753424117649,1.408682609004893,1.2017901054267188,0.4063702656279271,-0.1365794179709154,-0.3355894595718668,0.0,0.0,0.0,0.0,0.0,0.0,0.0
191,0.0,0.0,0.0,0.0,0.0,0.0,0.0,0.0,0.0,0.0,0.0,0.0,0.0,0.0,0.0,0.0,0.0,0.0,0.027048464998583984,0.09444722728767735,1.3982022051532126,1.2277865096329024,0.40664022129784133,-0.14651409548533761,-0.3165246609735379,0.0,0.0,0.0,0.0,0.0,0.0,0.0
192,0.0,0.0,0.0,0.0,0.0,0.0,0.0,0.0,0.0,0.0,0.0,0.0,0.0,0.0,0.0,0.0,0.0,0.0,0.027509104985111485,0.08288515791596436,1.384122729010654,1.2449279760595278,0.4215196323565563,-0.15243767897302582,-0.3001756349239284,0.0,0.0,0.0,0.0,0.0,0.0,0.0
193,0.0,0.0,0.0,0.0,0.0,0.0,0.0,0.0,0.0,0.0,0.0,0.0,0.0,0.0,0.0,0.0,0.0,0.0,0.028571255869513926,0.06697147628819011,1.3447708244667949,1.2613203408370495,0.5096987401542699,-0.14908289599264318,-0.28731832258496415,0.0,0.0,0.0,0.0,0.0,0.0,0.0
194,0.0,0.0,0.0,0.0,0.0,0.0,0.0,0.0,0.0,0.0,0.0,0.0,0.0,0.0,0.0,0.0,0.0,0.0,0.030897351210471227,0.031492103624008234,1.3073992016319052,1.249039386191205,0.6166314726535084,-0.1408238413448668,-0.2823647608090764,0.0,0.0,0.0,0.0,0.0,0.0,0.0
195,0.0,0.0,0.0,0.0,0.0,0.0,0.0,0.0,0.0,0.0,0.0,0.0,0.0,0.0,0.0,0.0,0.0,0.0,0.03407034562000953,0.024519194575651142,1.298126351286498,1.2768562955171727,0.598565562948818,-0.15571389659996557,-0.26561360299731523,0.0,0.0,0.0,0.0,0.0,0.0,0.0
196,0.0,0.0,0.0,0.0,0.0,0.0,0.0,0.0,0.0,0.0,0.0,0.0,0.0,0.0,0.0,0.0,0.0,0.0,0.03343427050869923,0.021951343870493183,1.2658674175385562,1.2962836391089154,0.6662893278981024,-0.15533939057231141,-0.2586449204721015,0.0,0.0,0.0,0.0,0.0,0.0,0.0
197,0.0,0.0,0.0,0.0,0.0,0.0,0.0,0.0,0.0,0.0,0.0,0.0,0.0,0.0,0.0,0.0,0.0,0.0,0.034549592818781026,0.01718212173126984,1.2336704552274804,1.312568020522347,0.6698147918240277,-0.16101465957247943,-0.24407720152185472,0.0,0.0,0.0,0.0,0.0,0.0,0.0
198,0.0,0.0,0.0,0.0,0.0,0.0,0.0,0.0,0.0,0.0,0.0,0.0,0.0,0.0,0.0,0.0,0.0,0.0,0.03635538149052437,0.007298345147867268,1.1911549253113018,1.330736527780932,0.7544584502913941,-0.16193585788408282,-0.24135050646808548,0.0,0.0,0.0,0.0,0.0,0.0,0.0
199,0.0,0.0,0.0,0.0,0.0,0.0,0.0,0.0,0.0,0.0,0.0,0.0,0.0,0.0,0.0,0.0,0.0,0.0,0.03751951320977897,0.003458560193627532,1.1796085223331347,1.3329614015747508,0.7107985810153838,-0.16891089447430938,-0.2267356549272755,0.0,0.0,0.0,0.0,0.0,0.0,0.0
200,0.0,0.0,0.0,0.0,0.0,0.0,0.0,0.0,0.0,0.0,0.0,0.0,0.0,0.0,0.0,0.0,0.0,0.0,0.03897556332127661,-0.003047026461438328,1.1681938398786724,1.3327209589512414,0.7003159810619877,-0.1668277671878272,-0.22102711132801267,0.0,0.0,0.0,0.0,0.0,0.0,0.0
201,0.0,0.0,0.0,0.0,0.0,0.0,0.0,0.0,0.0,0.0,0.0,0.0,0.0,0.0,0.0,0.0,0.0,0.0,0.0401285575409461,-0.008941555860978351,1.1392531197900337,1.3390629465180657,0.7025906998852486,-0.1664683592035434,-0.21220451515069882,0.0,0.0,0.0,0.0,0.0,0.0,0.0
202,0.0,0.0,0.0,0.0,0.0,0.0,0.0,0.0,0.0,0.0,0.0,0.0,0.0,0.0,0.0,0.0,0.0,0.0,0.04167510782205701,-0.01547206112323195,1.129430375424341,1.3388218752548464,0.7084489576011591,-0.16718771062223378,-0.20931884460141517,0.0,0.0,0.0,0.0,0.0,0.0,0.0
