njanwani/something/primitives/data/Wave.csv
,left_hip_pitch_joint,left_hip_roll_joint,left_hip_yaw_joint,left_knee_joint,left_ankle_pitch_joint,left_ankle_roll_joint,right_hip_pitch_joint,right_hip_roll_joint,right_hip_yaw_joint,right_knee_joint,right_ankle_pitch_joint,right_ankle_roll_joint,waist_yaw_joint,waist_roll_joint,waist_pitch_joint,head_pitch_joint,head_yaw_joint,head_roll_joint,left_shoulder_pitch_joint,left_shoulder_roll_joint,left_shoulder_yaw_joint,left_elbow_joint,left_wrist_roll_joint,left_wrist_pitch_joint,left_wrist_yaw_joint,right_shoulder_pitch_joint,right_shoulder_roll_joint,right_shoulder_yaw_joint,right_elbow_joint,right_wrist_roll_joint,right_wrist_pitch_joint,right_wrist_yaw_joint
0,0.0,0.0,0.0,0.0,0.0,0.0,0.0,0.0,0.0,0.0,0.0,0.0,0.0,0.0,0.0,0.0,0.0,0.0,0.07283752635628206,0.08321632749004487,0.6148054032703592,1.392445846067697,0.1982528790376154,-0.1794959055052953,-0.16023831709274533,0.012557206808907177,0.05802652619982518,-1.3871848297679232,1.3483866530916289,-0.9827543979207398,-0.20685757967059235,0.19893437539153647
1,0.0,0.0,0.0,0.0,0.0,0.0,0.0,0.0,0.0,0.0,0.0,0.0,0.0,0.0,0.0,0.0,0.0,0.0,0.07104622576029598,0.07911644940156629,0.6587074627206203,1.3851663669955632,0.22847020460371334,-0.17355627744522173,-0.17361467539799608,0.01678049677257495,0.05804176064843495,-1.350405801879867,1.3468704163643481,-0.9377653269106927,-0.20291490787247538,0.19220226531620532
2,0.0,0.0,0.0,0.0,0.0,0.0,0.0,0.0,0.0,0.0,0.0,0.0,0.0,0.0,0.0,0.0,0.0,0.0,0.06903653093063358,0.07302412664416774,0.7194962080255761,1.374850789573507,0.2723739830486683,-0.16737112188969472,-0.182237646052152,0.022887482308155228,0.05860975826291962,-1.2982103428329534,1.3437757177917034,-0.877940717169203,-0.19731081458082514,0.18627428242068061
3,0.0,0.0,0.0,0.0,0.0,0.0,0.0,0.0,0.0,0.0,0.0,0.0,0.0,0.0,0.0,0.0,0.0,0.0,0.06674989229170546,0.06591387428642566,0.7834670619369442,1.3641146057263762,0.3162705067246021,-0.16194503954527842,-0.1901393912104569,0.028143636606971906,0.05862046082623607,-1.2540267814009927,1.3402793706149672,-0.8253234726686683,-0.19160560410236288,0.18197147885697354
4,0.0,0.0,0.0,0.0,0.0,0.0,0.0,0.0,0.0,0.0,0.0,0.0,0.0,0.0,0.0,0.0,0.0,0.0,0.06421395234765831,0.059140459692140886,0.8463282871758081,1.3531886210844615,0.3597437144998634,-0.1576610003997185,-0.19817236245052755,0.032605681933489346,0.05826965540541971,-1.2219238482922083,1.3362181121430499,-0.7773122860901426,-0.18645731144326952,0.1792193627555528
5,0.0,0.0,0.0,0.0,0.0,0.0,0.0,0.0,0.0,0.0,0.0,0.0,0.0,0.0,0.0,0.0,0.0,0.0,0.061602123587800345,0.05314623982823735,0.9031837381146222,1.3437315709406286,0.39744053209527364,-0.15495575540698073,-0.20523777967781656,0.03601103195344257,0.057049092193976914,-1.1995618407537998,1.3320157927770295,-0.7375187295352411,-0.18222166921576197,0.17803660075443498
6,0.0,0.0,0.0,0.0,0.0,0.0,0.0,0.0,0.0,0.0,0.0,0.0,0.0,0.0,0.0,0.0,0.0,0.0,0.059021260331722475,0.04775435313803969,0.952466829764565,1.3359390140921257,0.42618685157397074,-0.15334382373991887,-0.2104784380004926,0.038531775240091694,0.05486666330527094,-1.18500565569184,1.3279996237009193,-0.6996830432842609,-0.17874018905495076,0.17757940812096573
7,0.0,0.0,0.0,0.0,0.0,0.0,0.0,0.0,0.0,0.0,0.0,0.0,0.0,0.0,0.0,0.0,0.0,0.0,0.05655344451041155,0.04408420122950564,0.9945743094867153,1.329552948415697,0.4479885444116251,-0.1524245392365652,-0.21499517509505817,0.040329551051319544,0.0508163477706863,-1.176413589682518,1.3246034408047176,-0.6655453383687161,-0.17607951862464716,0.1784848321652271
8,0.0,0.0,0.0,0.0,0.0,0.0,0.0,0.0,0.0,0.0,0.0,0.0,0.0,0.0,0.0,0.0,0.0,0.0,0.05433880578029897,0.040851376752805924,1.0361761851777114,1.323989843291007,0.4609912094267402,-0.15341061536831124,-0.21903495164963074,0.04154812378578155,0.04536172593324859,-1.1727616800649026,1.3210780096645571,-0.6323021897514443,-0.17402799373027433,0.18033550781927898
9,0.0,0.0,0.0,0.0,0.0,0.0,0.0,0.0,0.0,0.0,0.0,0.0,0.0,0.0,0.0,0.0,0.0,0.0,0.05196164141448675,0.03834043346928686,1.0716878714538158,1.3196759318700362,0.48124395310224505,-0.15360626638246225,-0.22362827825197903,0.04236957670963128,0.03898056325474816,-1.1734645570336932,1.317046464045042,-0.6019070086649245,-0.1723232749548847,0.18344454363615087
10,0.0,0.0,0.0,0.0,0.0,0.0,0.0,0.0,0.0,0.0,0.0,0.0,0.0,0.0,0.0,0.0,0.0,0.0,0.04967056679100045,0.03635248756673009,1.1015348766450783,1.3163143102616155,0.49533351348598303,-0.15389881502495797,-0.22673022293671422,0.042850518639837014,0.031564797922631865,-1.178530156798204,1.312117809882945,-0.5723548937886225,-0.17126913226072252,0.18765993448485738
11,0.0,0.0,0.0,0.0,0.0,0.0,0.0,0.0,0.0,0.0,0.0,0.0,0.0,0.0,0.0,0.0,0.0,0.0,0.047570724457235675,0.03772109812659141,1.1260500026185007,1.3152439874803707,0.4979817315500655,-0.15538118642556123,-0.2291295724320444,0.042896841078098644,0.022618201454372832,-1.1892075974262426,1.3047493114394735,-0.5421890593155575,-0.16974766960511972,0.194602408446851
12,0.0,0.0,0.0,0.0,0.0,0.0,0.0,0.0,0.0,0.0,0.0,0.0,0.0,0.0,0.0,0.0,0.0,0.0,0.04583662977643928,0.037633233865231694,1.145624836341449,1.3134255170489622,0.5104963687563185,-0.1554435193472199,-0.23225445382365695,0.04260010865418979,0.011291742449006735,-1.204384271561212,1.29667350017063,-0.5102798920008317,-0.1683723149561708,0.20380377165797195
13,0.0,0.0,0.0,0.0,0.0,0.0,0.0,0.0,0.0,0.0,0.0,0.0,0.0,0.0,0.0,0.0,0.0,0.0,0.04430492440144782,0.0380630978052319,1.1614919141447615,1.3121005567117046,0.5211639789486309,-0.15513086150829608,-0.23540092163201318,0.041794328350507545,-0.004063768571427486,-1.2231854789896917,1.2891053060492983,-0.47684004367748734,-0.16702314828892614,0.22068738611871663
14,0.0,0.0,0.0,0.0,0.0,0.0,0.0,0.0,0.0,0.0,0.0,0.0,0.0,0.0,0.0,0.0,0.0,0.0,0.04304146323823015,0.03843960983035874,1.1744248855084867,1.3108953366947873,0.5281234841067229,-0.1549812346946198,-0.23745152926015387,0.04066441715262867,-0.021155053612783636,-1.243825970742409,1.2816588833602682,-0.447410444659466,-0.16518240034536488,0.2323568447143352
15,0.0,0.0,0.0,0.0,0.0,0.0,0.0,0.0,0.0,0.0,0.0,0.0,0.0,0.0,0.0,0.0,0.0,0.0,0.04206159411929155,0.03797434281193653,1.1842838471388362,1.30997242181419,0.5347855994099684,-0.15486798649626587,-0.2388465401531597,0.038976693890999184,-0.050752428262761606,-1.2625377979851784,1.28835468545415,-0.39790049401543137,-0.16718281528760234,0.24326721401777118
16,0.0,0.0,0.0,0.0,0.0,0.0,0.0,0.0,0.0,0.0,0.0,0.0,0.0,0.0,0.0,0.0,0.0,0.0,0.04134124284570694,0.036394076396872026,1.1915012855622173,1.3092500151237103,0.541173940710904,-0.15490438339633847,-0.23928675536353544,0.03684083094664919,-0.07619333824342905,-1.2802531108589958,1.2724423091926829,-0.3369997334866855,-0.15256662392558834,0.25196338165764365
17,0.0,0.0,0.0,0.0,0.0,0.0,0.0,0.0,0.0,0.0,0.0,0.0,0.0,0.0,0.0,0.0,0.0,0.0,0.04065355655664174,0.03799395405751588,1.1964894469759761,1.3111801470365876,0.5441547122755079,-0.15545153971267714,-0.2402738738602944,0.03610669888098865,-0.09963181425054521,-1.300977915001638,1.2582793947787507,-0.2942333722277743,-0.15090390578149976,0.27594895688268123
18,0.0,0.0,0.0,0.0,0.0,0.0,0.0,0.0,0.0,0.0,0.0,0.0,0.0,0.0,0.0,0.0,0.0,0.0,0.03997409073303092,0.03958891943712346,1.2003625917927583,1.3116433767243332,0.5469730183881696,-0.15551275384225927,-0.24139016900129204,0.03477150944322927,-0.1344739624668213,-1.3248827060590553,1.2626191058151248,-0.247932572672783,-0.15374803168907458,0.2923335306658214
19,0.0,0.0,0.0,0.0,0.0,0.0,0.0,0.0,0.0,0.0,0.0,0.0,0.0,0.0,0.0,0.0,0.0,0.0,0.039716678476704,0.03759701930777679,1.1997181164908883,1.3137724040402863,0.5655434170970972,-0.15574898547520327,-0.2421954058181625,0.031500532189817625,-0.17415839017959509,-1.3490598328575654,1.2481331589435596,-0.18425839976991812,-0.13919823302653345,0.3038268768911454
20,0.0,0.0,0.0,0.0,0.0,0.0,0.0,0.0,0.0,0.0,0.0,0.0,0.0,0.0,0.0,0.0,0.0,0.0,0.03920309984477634,0.04130967652487586,1.200442867732654,1.3165150133255685,0.5646355202872342,-0.15750876871048813,-0.2425671317654134,0.029787626586155875,-0.20813619899424088,-1.3729147213267432,1.233408078001779,-0.13531147612130162,-0.14897325884124318,0.32909623608455485
21,0.0,0.0,0.0,0.0,0.0,0.0,0.0,0.0,0.0,0.0,0.0,0.0,0.0,0.0,0.0,0.0,0.0,0.0,0.03924928653782459,0.03819610693620853,1.1998241087085169,1.3157078847054613,0.5573319623606037,-0.15803377883937522,-0.2389848490366607,0.027790726596596378,-0.2526849054602905,-1.4033307471884306,1.2309689978629503,-0.06570593851749695,-0.15707288008693487,0.35049076305158217
22,0.0,0.0,0.0,0.0,0.0,0.0,0.0,0.0,0.0,0.0,0.0,0.0,0.0,0.0,0.0,0.0,0.0,0.0,0.039380255495666316,0.03845258124480106,1.200374519465646,1.3155823820969814,0.5457669431325161,-0.15840971054128752,-0.2375361330718281,0.02473310988466768,-0.30210330468474694,-1.4320573357496251,1.2313181131565831,-0.0018525294440690232,-0.16532115058181682,0.36928597974661087
23,0.0,0.0,0.0,0.0,0.0,0.0,0.0,0.0,0.0,0.0,0.0,0.0,0.0,0.0,0.0,0.0,0.0,0.0,0.03946031553658602,0.038119926737531784,1.20095425896422,1.3143995712495915,0.549190810894679,-0.15784545463337848,-0.2385550689742333,0.02200153792850755,-0.3403275422609644,-1.4512183464083537,1.207105134268078,0.0614477812923382,-0.1614877950314099,0.37466973341991855
24,0.0,0.0,0.0,0.0,0.0,0.0,0.0,0.0,0.0,0.0,0.0,0.0,0.0,0.0,0.0,0.0,0.0,0.0,0.03950078121310347,0.037346490762117025,1.2024399785082798,1.3127200104201204,0.5478838126377145,-0.1575080574275235,-0.238738221684386,0.02002605899530925,-0.3865933148314864,-1.4728282194142908,1.1935304736692554,0.11102800086799677,-0.17597756952094273,0.4008767985128227
25,0.0,0.0,0.0,0.0,0.0,0.0,0.0,0.0,0.0,0.0,0.0,0.0,0.0,0.0,0.0,0.0,0.0,0.0,0.039617997803900795,0.0354561879552834,1.204768595268146,1.3103186553627824,0.5420934068458844,-0.15753284253321514,-0.23772955727065115,0.0173262623653659,-0.42801676687003537,-1.484902407949181,1.1591850434403348,0.17772371427190276,-0.1751476809690756,0.4044238233805469
26,0.0,0.0,0.0,0.0,0.0,0.0,0.0,0.0,0.0,0.0,0.0,0.0,0.0,0.0,0.0,0.0,0.0,0.0,0.039832398642318655,0.0321403362053698,1.2081480212588562,1.306685236977099,0.533936736842831,-0.1577651504883732,-0.2359573139755972,0.015523672584255157,-0.4731971645975669,-1.4995189836868719,1.103261292110206,0.24799822015701767,-0.1736354189920065,0.4135858351483882
27,0.0,0.0,0.0,0.0,0.0,0.0,0.0,0.0,0.0,0.0,0.0,0.0,0.0,0.0,0.0,0.0,0.0,0.0,0.04000880840862694,0.02968230045942982,1.212479134902071,1.3035407979772093,0.5266897660850146,-0.15807685737158614,-0.2351056525215963,0.012930419470697412,-0.5158794121010436,-1.5117356246795643,1.050831808971682,0.2836600827833667,-0.18592180949247863,0.4166615922802043
28,0.0,0.0,0.0,0.0,0.0,0.0,0.0,0.0,0.0,0.0,0.0,0.0,0.0,0.0,0.0,0.0,0.0,0.0,0.04002195469002905,0.02807414834831888,1.217254571236138,1.300934443218653,0.5215314936705263,-0.15829678894211488,-0.23492475059938256,0.010428914634160444,-0.5553431331390154,-1.5212945351095746,0.9942469930942106,0.30696409348471687,-0.20697244645282104,0.4117609425266666
29,0.0,0.0,0.0,0.0,0.0,0.0,0.0,0.0,0.0,0.0,0.0,0.0,0.0,0.0,0.0,0.0,0.0,0.0,0.03995444560136538,0.026602851818116367,1.2223043363948254,1.2982792637659406,0.514719257050363,-0.1586642806956642,-0.23440359296458294,0.007787312502606569,-0.6027560891846396,-1.5287562903715952,0.9379820054936938,0.294535726059114,-0.2553053354710442,0.38727493776292676
30,0.0,0.0,0.0,0.0,0.0,0.0,0.0,0.0,0.0,0.0,0.0,0.0,0.0,0.0,0.0,0.0,0.0,0.0,0.0398991641928767,0.025089222089055178,1.2272646291205827,1.2956149722160426,0.5077244769034444,-0.15914777922801795,-0.23380593179784703,0.005165258390111279,-0.6540945091057347,-1.5342469481996746,0.8740333468727849,0.26183357333398477,-0.3221363975790222,0.34290712055451167
31,0.0,0.0,0.0,0.0,0.0,0.0,0.0,0.0,0.0,0.0,0.0,0.0,0.0,0.0,0.0,0.0,0.0,0.0,0.039718401133987336,0.026354208486911543,1.2321372774781396,1.295084577420641,0.4977749717990215,-0.15990648391026327,-0.23400205857925646,0.0027572932100796872,-0.6942967447374969,-1.5398502987438962,0.7867463356669829,0.22592873346439546,-0.37191281265356174,0.29554567299397205
32,0.0,0.0,0.0,0.0,0.0,0.0,0.0,0.0,0.0,0.0,0.0,0.0,0.0,0.0,0.0,0.0,0.0,0.0,0.039498998341375366,0.026311047931453727,1.23616024951507,1.2934704019665555,0.49373546240856675,-0.16001522256354758,-0.23424085060450867,-0.00030012612217049806,-0.7246423929529197,-1.5467118781066824,0.6925604807331551,0.1805233201393803,-0.4217954408691851,0.24864614488838518
33,0.0,0.0,0.0,0.0,0.0,0.0,0.0,0.0,0.0,0.0,0.0,0.0,0.0,0.0,0.0,0.0,0.0,0.0,0.039344268828210925,0.026101923085886283,1.2401854918723803,1.2913592386254837,0.48938684862447374,-0.160172301101952,-0.23475632236762387,-0.004016006680406738,-0.752331260719802,-1.55375821729477,0.6029502940375205,0.1468617069244078,-0.45723350681176295,0.22099760919672126
34,0.0,0.0,0.0,0.0,0.0,0.0,0.0,0.0,0.0,0.0,0.0,0.0,0.0,0.0,0.0,0.0,0.0,0.0,0.03926257042785793,0.025345819198795402,1.2439686540907617,1.28926406375112,0.48653688618366114,-0.16034252047056402,-0.2351301410592663,-0.007307554967209062,-0.7936202813668403,-1.5593574026637813,0.5304252246488014,0.12263065570408921,-0.47694853441605095,0.19961122473230564
35,0.0,0.0,0.0,0.0,0.0,0.0,0.0,0.0,0.0,0.0,0.0,0.0,0.0,0.0,0.0,0.0,0.0,0.0,0.039097865459815306,0.025161797043970223,1.2478138397855052,1.2876590746805783,0.4856924894912921,-0.16038386722285086,-0.23619255574908962,-0.011723451182812497,-0.8307930266364111,-1.5639530668760455,0.45560402776947556,0.10364322565489854,-0.4769637679461784,0.18805555505347799
36,0.0,0.0,0.0,0.0,0.0,0.0,0.0,0.0,0.0,0.0,0.0,0.0,0.0,0.0,0.0,0.0,0.0,0.0,0.038825378126841587,0.025788247463843048,1.2514751226745016,1.28664811931016,0.4867923179849361,-0.16010372450278468,-0.23776414852729577,-0.017339705530429687,-0.8656377275891072,-1.5680149133598362,0.3724504868450039,0.08448898878870761,-0.46399248025646794,0.174013518040081
37,0.0,0.0,0.0,0.0,0.0,0.0,0.0,0.0,0.0,0.0,0.0,0.0,0.0,0.0,0.0,0.0,0.0,0.0,0.03852826093401085,0.02637157887005846,1.2544895346252318,1.2860544067170605,0.48869388409604125,-0.15982001247864325,-0.23893214553500405,-0.021354682247874422,-0.9072101829435097,-1.5694770320700582,0.3097487888927057,0.09126874944060094,-0.45089507386854033,0.17963530099708755
38,0.0,0.0,0.0,0.0,0.0,0.0,0.0,0.0,0.0,0.0,0.0,0.0,0.0,0.0,0.0,0.0,0.0,0.0,0.03818228905870446,0.027761913148181584,1.2570276164921703,1.286191764183643,0.49249791350916583,-0.15955625952114932,-0.24072664598677673,-0.023749819222210033,-0.9548278712717929,-1.5679624655402318,0.26675816749453485,0.11895317784046372,-0.44648709103074513,0.18891031218550836
39,0.0,0.0,0.0,0.0,0.0,0.0,0.0,0.0,0.0,0.0,0.0,0.0,0.0,0.0,0.0,0.0,0.0,0.0,0.037731191811482226,0.03192510573130448,1.2587758960786597,1.2890687822837872,0.4935523413161625,-0.15961199067471488,-0.2426950036945654,-0.023312433839432132,-1.0197053525100603,-1.565578403253037,0.22538637357772415,0.14585956004391026,-0.4169675191112326,0.19195266541417683
40,0.0,0.0,0.0,0.0,0.0,0.0,0.0,0.0,0.0,0.0,0.0,0.0,0.0,0.0,0.0,0.0,0.0,0.0,0.037315012150686,0.03413646655293763,1.2588135355545558,1.2905387652254865,0.4981633568132494,-0.15918420203298836,-0.24378772511488425,-0.02585868409696699,-1.0796962402383066,-1.5642152252650317,0.18523945259215369,0.16006274467639492,-0.3882301181550479,0.19392335834480154
41,0.0,0.0,0.0,0.0,0.0,0.0,0.0,0.0,0.0,0.0,0.0,0.0,0.0,0.0,0.0,0.0,0.0,0.0,0.03666994918995271,0.041241209373366894,1.2451782505403208,1.303059573317977,0.6285593671446407,-0.16181302733678396,-0.26615629170980354,-0.027868936621712467,-1.0854552500539376,-1.559731290229846,0.06609633142577942,0.19640455458012615,-0.3705581038516891,0.1912160156497422
42,0.0,0.0,0.0,0.0,0.0,0.0,0.0,0.0,0.0,0.0,0.0,0.0,0.0,0.0,0.0,0.0,0.0,0.0,0.035824918023640684,0.04648427016884107,1.2292718891860417,1.3169776378957812,0.6932422246229221,-0.16387988772584,-0.2734762434448732,-0.029923402873490126,-1.108308131586171,-1.5559902148848648,-0.026684277589812247,0.2263754062374724,-0.3399579319450685,0.1887992988125804
43,0.0,0.0,0.0,0.0,0.0,0.0,0.0,0.0,0.0,0.0,0.0,0.0,0.0,0.0,0.0,0.0,0.0,0.0,0.03533369306843672,0.05261237143137738,1.209522094876034,1.3310147033167803,0.7190658586957736,-0.1649248495032313,-0.2716329415651645,-0.033176738985440116,-1.1290002197436384,-1.5528777777868852,-0.10488096914587751,0.26188230967820303,-0.31685010077616516,0.19051857454669865
44,0.0,0.0,0.0,0.0,0.0,0.0,0.0,0.0,0.0,0.0,0.0,0.0,0.0,0.0,0.0,0.0,0.0,0.0,0.035277494091549885,0.0567616448241867,1.1875603094156084,1.3408927319672075,0.7287296133610752,-0.16427247656501195,-0.26872475893713454,-0.034718462972485466,-1.1488642890128618,-1.549458040780036,-0.16805386872323186,0.2849163785070511,-0.29943936693866796,0.19098609517732848
45,0.0,0.0,0.0,0.0,0.0,0.0,0.0,0.0,0.0,0.0,0.0,0.0,0.0,0.0,0.0,0.0,0.0,0.0,0.03606656098421277,0.055445445335377534,1.1719066466569705,1.344136055505151,0.7024784739825898,-0.1638026197388065,-0.25971992892855256,-0.037843416771059964,-1.1743036953397399,-1.5463753004152652,-0.19006738177491608,0.3493387327281807,-0.27441481310410865,0.209979544309271
46,0.0,0.0,0.0,0.0,0.0,0.0,0.0,0.0,0.0,0.0,0.0,0.0,0.0,0.0,0.0,0.0,0.0,0.0,0.03710842681111619,0.05503799804652353,1.1618361483207547,1.343953860604037,0.6782227973472424,-0.1622118202655443,-0.25497701910628184,-0.040289918570474925,-1.2052298818924434,-1.5448323698663402,-0.218457442141841,0.3748276023118236,-0.25576847494372346,0.21553206328051225
47,0.0,0.0,0.0,0.0,0.0,0.0,0.0,0.0,0.0,0.0,0.0,0.0,0.0,0.0,0.0,0.0,0.0,0.0,0.038087131761030846,0.054355583387958546,1.1555947988069604,1.3424240945532362,0.6582176260916353,-0.160388994202317,-0.25206831256369977,-0.042515984137317955,-1.233579771112373,-1.542460647362212,-0.24767101196568816,0.3813693102775231,-0.24578985378335247,0.21203416816573442
48,0.0,0.0,0.0,0.0,0.0,0.0,0.0,0.0,0.0,0.0,0.0,0.0,0.0,0.0,0.0,0.0,0.0,0.0,0.03888083733579289,0.053118505561749435,1.151274163148709,1.3409624362280554,0.6474496917981487,-0.15885768964650665,-0.2505710609150608,-0.0478463420825211,-1.260605346005847,-1.5384368680059497,-0.28374204007138115,0.38405341799231363,-0.2355715850095705,0.20883578798264796
49,0.0,0.0,0.0,0.0,0.0,0.0,0.0,0.0,0.0,0.0,0.0,0.0,0.0,0.0,0.0,0.0,0.0,0.0,0.03942350247694831,0.052413291910564014,1.1482630724619427,1.339980064759659,0.6423484461518004,-0.1577141574648955,-0.2501498213892098,-0.055328187443754374,-1.2891091619690715,-1.5336545159963018,-0.3273319332388314,0.3961500791527829,-0.22001540129249594,0.21047155000627057
50,0.0,0.0,0.0,0.0,0.0,0.0,0.0,0.0,0.0,0.0,0.0,0.0,0.0,0.0,0.0,0.0,0.0,0.0,0.03974627081997606,0.05206483966380468,1.1454975660671558,1.340085672444786,0.6462835860844923,-0.1572427830713312,-0.25090521433448904,-0.06242233479024065,-1.3150365590060467,-1.5273350470320701,-0.3748781007329893,0.4363773514561544,-0.2004409732194682,0.21048042347208082
51,0.0,0.0,0.0,0.0,0.0,0.0,0.0,0.0,0.0,0.0,0.0,0.0,0.0,0.0,0.0,0.0,0.0,0.0,0.03986593398785925,0.05253082330338206,1.1431156619528107,1.340921590417884,0.649817217759813,-0.15714911475993787,-0.2516254604261535,-0.06539438509547545,-1.333058009893697,-1.523522943939463,-0.41740035853662877,0.48767454591279297,-0.18512341488064732,0.2176744463096959
52,0.0,0.0,0.0,0.0,0.0,0.0,0.0,0.0,0.0,0.0,0.0,0.0,0.0,0.0,0.0,0.0,0.0,0.0,0.04016401230612144,0.05055130190012608,1.145839061303922,1.3372282708271508,0.615950249767483,-0.15896443486396825,-0.24475442775568026,-0.07305615692728652,-1.3698717838919454,-1.5181041782872777,-0.4549473775958424,0.5082684999058247,-0.15738622563815102,0.20196796589488414
53,0.0,0.0,0.0,0.0,0.0,0.0,0.0,0.0,0.0,0.0,0.0,0.0,0.0,0.0,0.0,0.0,0.0,0.0,0.040846680321506144,0.0470583061383572,1.1520604520251985,1.3308506482747913,0.5853372774458403,-0.15871340324914732,-0.24043563024172235,-0.07728887871123055,-1.3942097815695578,-1.5150937972013472,-0.48995868682845056,0.5597465143647848,-0.13468474611787057,0.197684123451986
54,0.0,0.0,0.0,0.0,0.0,0.0,0.0,0.0,0.0,0.0,0.0,0.0,0.0,0.0,0.0,0.0,0.0,0.0,0.0413691360573024,0.044321154486548955,1.1606810802407062,1.3243969013846077,0.5602336401288265,-0.15818495904541693,-0.2381660467787983,-0.07978572581505103,-1.4115701296205074,-1.5128386985572067,-0.5197645815706369,0.6162203778558016,-0.10890728630956154,0.19210341904621223
55,0.0,0.0,0.0,0.0,0.0,0.0,0.0,0.0,0.0,0.0,0.0,0.0,0.0,0.0,0.0,0.0,0.0,0.0,0.04159048847510456,0.0425226754257477,1.1704620273428272,1.3186844057511218,0.5428136938675165,-0.15761081413757003,-0.2376698558478282,-0.08405861541834157,-1.4278566595684614,-1.5094883556335486,-0.5469314757424976,0.6911073931260935,-0.08446782343970922,0.1886505406146974
56,0.0,0.0,0.0,0.0,0.0,0.0,0.0,0.0,0.0,0.0,0.0,0.0,0.0,0.0,0.0,0.0,0.0,0.0,0.04160612850983804,0.04033904212964793,1.1802440876707518,1.3136473712933574,0.5305864871985084,-0.1572859040605839,-0.2372012581462694,-0.08663983756401243,-1.4398012977234718,-1.5070191272928957,-0.5644422879017479,0.7697523343029066,-0.07358399405176033,0.19597929931378388
57,0.0,0.0,0.0,0.0,0.0,0.0,0.0,0.0,0.0,0.0,0.0,0.0,0.0,0.0,0.0,0.0,0.0,0.0,0.04141636794245883,0.03887388088232311,1.189559580105469,1.3098273249800843,0.5248903054883758,-0.1569750420108938,-0.23789760175807337,-0.08687942249203122,-1.4497368011395744,-1.5047641673188294,-0.5693843955528601,0.8109737469581235,-0.07401027515716659,0.20020209511958684
58,0.0,0.0,0.0,0.0,0.0,0.0,0.0,0.0,0.0,0.0,0.0,0.0,0.0,0.0,0.0,0.0,0.0,0.0,0.041045089150500084,0.03817228522250248,1.198231398279258,1.3069093464447612,0.5216987988380938,-0.15683203641727353,-0.23890198744986776,-0.09282939629850488,-1.4621729504595862,-1.4996274365385094,-0.561770709381714,0.7798983178190554,-0.07757381417231343,0.1939350342219901
59,0.0,0.0,0.0,0.0,0.0,0.0,0.0,0.0,0.0,0.0,0.0,0.0,0.0,0.0,0.0,0.0,0.0,0.0,0.04063629521233523,0.03744360518148222,1.2057427161435943,1.3047277261623365,0.5207255630553745,-0.15679566787284718,-0.23966324016135623,-0.097009750584001,-1.4729197041085247,-1.4961430397100937,-0.5488054748635935,0.7462432925753387,-0.08321540425694289,0.18689785097413103
60,0.0,0.0,0.0,0.0,0.0,0.0,0.0,0.0,0.0,0.0,0.0,0.0,0.0,0.0,0.0,0.0,0.0,0.0,0.04003021324906706,0.03800532867461431,1.2068594464227347,1.3087512845011737,0.5630495393322421,-0.15573719486616547,-0.25112515349189835,-0.08232821945754532,-1.4563802834822726,-1.5036636661071419,-0.5295074896301728,0.7497787445892962,-0.10339619481269324,0.1998898561631432
61,0.0,0.0,0.0,0.0,0.0,0.0,0.0,0.0,0.0,0.0,0.0,0.0,0.0,0.0,0.0,0.0,0.0,0.0,0.03908015539832996,0.03869399316774014,1.2041852724788455,1.3146109814724534,0.602428525783652,-0.15685440780547832,-0.25318442625097154,-0.0793535864696047,-1.4499639353589637,-1.504302592177179,-0.5003654332450449,0.8150404550979623,-0.09385532609125573,0.2133012366556361
62,0.0,0.0,0.0,0.0,0.0,0.0,0.0,0.0,0.0,0.0,0.0,0.0,0.0,0.0,0.0,0.0,0.0,0.0,0.038365888933696794,0.039714570396357285,1.199383968996241,1.320581304895553,0.6275640503374863,-0.15780696252515217,-0.2532249753694254,-0.08035296775824581,-1.4441637708912254,-1.5057831386701193,-0.46159505208911883,0.7932104416359681,-0.10431717654621422,0.22670329510622453
63,0.0,0.0,0.0,0.0,0.0,0.0,0.0,0.0,0.0,0.0,0.0,0.0,0.0,0.0,0.0,0.0,0.0,0.0,0.037962188421169295,0.040481223316050884,1.1933925724084835,1.3253319099814558,0.6402741345659339,-0.15846213693543193,-0.2519113539384472,-0.07180339845285368,-1.4366786657273558,-1.5115878562268295,-0.4096124564848979,0.7734308376027191,-0.1180866232909011,0.2326280870110703
64,0.0,0.0,0.0,0.0,0.0,0.0,0.0,0.0,0.0,0.0,0.0,0.0,0.0,0.0,0.0,0.0,0.0,0.0,0.037847241916466504,0.04175390660046495,1.187802957453304,1.3282593910272442,0.6398594154832286,-0.15851951051416974,-0.25014339440566846,-0.06812373915381163,-1.4328802183777347,-1.5163804528548666,-0.34807356227697583,0.7114497243099174,-0.13481249796627304,0.24480163816739936
65,0.0,0.0,0.0,0.0,0.0,0.0,0.0,0.0,0.0,0.0,0.0,0.0,0.0,0.0,0.0,0.0,0.0,0.0,0.03772259592379441,0.04895739568791844,1.180023450179129,1.3350640746442257,0.6461219890277583,-0.158761123823337,-0.25293361325242675,-0.06425179384571393,-1.4297456056200746,-1.5194399212849488,-0.2903980710287633,0.6625971804192171,-0.15829387675682305,0.24508169346977643
66,0.0,0.0,0.0,0.0,0.0,0.0,0.0,0.0,0.0,0.0,0.0,0.0,0.0,0.0,0.0,0.0,0.0,0.0,0.03755069657176739,0.05296142160701997,1.166609868943807,1.340032232480519,0.6571702737162682,-0.15807532735766974,-0.2538816396720287,-0.06991490282986561,-1.4319084487955756,-1.516647352578122,-0.2191097480814202,0.6042494400322191,-0.1829055578085362,0.24329528218698088
67,0.0,0.0,0.0,0.0,0.0,0.0,0.0,0.0,0.0,0.0,0.0,0.0,0.0,0.0,0.0,0.0,0.0,0.0,0.037964071612107415,0.055120244501055696,1.1566756542380885,1.3426480050177436,0.6561157602042756,-0.15814272476798547,-0.2533385379872657,-0.07182558146499766,-1.438095120744018,-1.5180866989985913,-0.1474137040937234,0.5484392109761637,-0.19649703180573844,0.241549791029824
68,0.0,0.0,0.0,0.0,0.0,0.0,0.0,0.0,0.0,0.0,0.0,0.0,0.0,0.0,0.0,0.0,0.0,0.0,0.03848347762435347,0.05626844600571018,1.1500370774071955,1.343446671749674,0.650089531361671,-0.15806263294554676,-0.2524532010916234,-0.06684299516666649,-1.4451082397416264,-1.521407241054592,-0.06558804867391174,0.5265336706650419,-0.21392221313307647,0.251167087844925
69,0.0,0.0,0.0,0.0,0.0,0.0,0.0,0.0,0.0,0.0,0.0,0.0,0.0,0.0,0.0,0.0,0.0,0.0,0.03892114502053696,0.05799634602706267,1.145838038163155,1.3437357836130495,0.6438038589711965,-0.1576048589852316,-0.2526677670585347,-0.059812636113996696,-1.4527125130551923,-1.5236375316822397,0.008669203210450865,0.511236321585675,-0.23137318177812913,0.2480868691153445
70,0.0,0.0,0.0,0.0,0.0,0.0,0.0,0.0,0.0,0.0,0.0,0.0,0.0,0.0,0.0,0.0,0.0,0.0,0.03924770782496228,0.059351510447661224,1.1432722616109914,1.3434654844715483,0.6371075344481645,-0.1570600280226915,-0.2527005099793039,-0.06946046062119605,-1.4685560744363892,-1.5223744236823398,0.09282446563764411,0.4721880335962801,-0.24191972576449033,0.2692218140406955
71,0.0,0.0,0.0,0.0,0.0,0.0,0.0,0.0,0.0,0.0,0.0,0.0,0.0,0.0,0.0,0.0,0.0,0.0,0.03957415490626415,0.05910523440424763,1.141947857684387,1.342445498274904,0.6286816745758979,-0.1566663599740465,-0.2516529480005155,-0.06965249924454286,-1.4859352329341158,-1.5228242460820118,0.17964576708313001,0.45737258170982337,-0.25164550498737,0.28120486274084416
72,0.0,0.0,0.0,0.0,0.0,0.0,0.0,0.0,0.0,0.0,0.0,0.0,0.0,0.0,0.0,0.0,0.0,0.0,0.040364526202180735,0.04296248133031648,1.1431849892177994,1.332240089028769,0.6489621786309724,-0.1547680335161706,-0.24793842320971893,-0.06363945229909358,-1.507482932690376,-1.5240130062705826,0.2921462608048526,0.47761613747114023,-0.24919815459963623,0.2931279461205531
73,0.0,0.0,0.0,0.0,0.0,0.0,0.0,0.0,0.0,0.0,0.0,0.0,0.0,0.0,0.0,0.0,0.0,0.0,0.041103875102113226,0.042343653001606224,1.1531362105312095,1.3272411575955523,0.608975700525632,-0.15818262782257753,-0.2434503931472177,-0.07193105364512418,-1.5530347173464523,-1.5176445231037674,0.4016312752172076,0.6684769527961927,-0.1949460181767451,0.35323466541265897
74,0.0,0.0,0.0,0.0,0.0,0.0,0.0,0.0,0.0,0.0,0.0,0.0,0.0,0.0,0.0,0.0,0.0,0.0,0.041674781896976716,0.029353598500624634,1.1622190665240666,1.3163591017139809,0.6310383478671453,-0.15690991128741033,-0.24416367335935357,-0.07445887761433126,-1.563175764443919,-1.5187508279721587,0.46237560254243326,0.6902717341360014,-0.17037134587492542,0.3622425917494641
75,0.0,0.0,0.0,0.0,0.0,0.0,0.0,0.0,0.0,0.0,0.0,0.0,0.0,0.0,0.0,0.0,0.0,0.0,0.041869013333421315,0.024762222596418706,1.1700205429347563,1.3158113701848588,0.6317867760184301,-0.15920390548385985,-0.24232521246178196,-0.07362166588694494,-1.5662220948731784,-1.5204048854030425,0.5161230084509215,0.7007673660658885,-0.15551316887052385,0.362520039261515
76,0.0,0.0,0.0,0.0,0.0,0.0,0.0,0.0,0.0,0.0,0.0,0.0,0.0,0.0,0.0,0.0,0.0,0.0,0.04134761537752264,0.022759446967507275,1.1757586033362697,1.3169157015334993,0.6294533240108666,-0.1600504719788426,-0.24000370270920005,-0.07222059729872629,-1.5670774209576945,-1.5222066852317115,0.559472801311543,0.7024622690456757,-0.14612344441012803,0.36322764406058605
77,0.0,0.0,0.0,0.0,0.0,0.0,0.0,0.0,0.0,0.0,0.0,0.0,0.0,0.0,0.0,0.0,0.0,0.0,0.040770326217641276,0.022243988192489884,1.1789861466196412,1.318632606499861,0.6276890482027554,-0.16031800224785314,-0.2382103684844788,-0.07077274979571682,-1.5747795189168672,-1.5230663117162793,0.6005348583252859,0.6965677206325124,-0.1463590018403064,0.3648085278906215
78,0.0,0.0,0.0,0.0,0.0,0.0,0.0,0.0,0.0,0.0,0.0,0.0,0.0,0.0,0.0,0.0,0.0,0.0,0.04029130785311489,0.022819872476503904,1.1799922096954503,1.3206958404475855,0.6282599980289022,-0.16031067259663662,-0.23756451586078345,-0.07006189236532208,-1.578118925074307,-1.5241346246351275,0.6258333076461455,0.677457710430493,-0.14915872718766868,0.3595288291466556
79,0.0,0.0,0.0,0.0,0.0,0.0,0.0,0.0,0.0,0.0,0.0,0.0,0.0,0.0,0.0,0.0,0.0,0.0,0.040021478382802726,0.022941879979608844,1.1789459217668268,1.3225340131299914,0.6290480140821739,-0.16030732779530757,-0.23661267167349617,-0.06962645263029207,-1.5763370660571778,-1.5259448405196652,0.6352672352658582,0.6402741081600506,-0.15758782804472224,0.3488691933037195
80,0.0,0.0,0.0,0.0,0.0,0.0,0.0,0.0,0.0,0.0,0.0,0.0,0.0,0.0,0.0,0.0,0.0,0.0,0.03987749536064472,0.023357167349873986,1.1769637047629191,1.3242723753853678,0.6305555645109908,-0.16027522793153048,-0.23610572725875068,-0.06805874169092192,-1.5726801120862919,-1.5280469779663866,0.63293757136814,0.5896838368562028,-0.1683010473117586,0.33286830994718103
81,0.0,0.0,0.0,0.0,0.0,0.0,0.0,0.0,0.0,0.0,0.0,0.0,0.0,0.0,0.0,0.0,0.0,0.0,0.039533719493658734,0.03305661930950382,1.1810571895813975,1.3244517683076933,0.5929557571915686,-0.1622453261758249,-0.23566397952324544,-0.06719419534322182,-1.5769976139568769,-1.5273796547164147,0.6311881881428762,0.5744654088888407,-0.18209687135102165,0.33688671593438174
82,0.0,0.0,0.0,0.0,0.0,0.0,0.0,0.0,0.0,0.0,0.0,0.0,0.0,0.0,0.0,0.0,0.0,0.0,0.0396036932960734,0.038833621884892325,1.1862086260340332,1.3212116241966263,0.5624809703980056,-0.16209559012723362,-0.23651442737095804,-0.05209249389916517,-1.5663800167164144,-1.5314599888286229,0.6021467508019172,0.5242255398494988,-0.2305097872740792,0.33108237687321207
83,0.0,0.0,0.0,0.0,0.0,0.0,0.0,0.0,0.0,0.0,0.0,0.0,0.0,0.0,0.0,0.0,0.0,0.0,0.03960854562107562,0.0437951371954901,1.1881562918163604,1.3215908998708419,0.5755676679243906,-0.16023914160905872,-0.24848099020356207,-0.045370587982672496,-1.507200662647609,-1.5376133580099591,0.4797891531590383,0.42158197182331714,-0.23899841304242114,0.2591307006842508
84,0.0,0.0,0.0,0.0,0.0,0.0,0.0,0.0,0.0,0.0,0.0,0.0,0.0,0.0,0.0,0.0,0.0,0.0,0.03912361180360492,0.04984280450257903,1.1871286798205067,1.3258080931458158,0.5930232861193288,-0.15895475131030543,-0.25258073323021096,-0.045702020037833364,-1.460539423032446,-1.5411304592059685,0.3625716994070878,0.37580261225097644,-0.23539559516563177,0.23369511072116
85,0.0,0.0,0.0,0.0,0.0,0.0,0.0,0.0,0.0,0.0,0.0,0.0,0.0,0.0,0.0,0.0,0.0,0.0,0.03841823195808567,0.056723660622949,1.1831868956954905,1.3316030088538768,0.603932701459805,-0.15819405899600514,-0.2551789526379487,-0.04561594778099008,-1.4255129249136087,-1.5431064320725534,0.2525000044293683,0.3608736238088951,-0.2260753471970088,0.22441790925000277
86,0.0,0.0,0.0,0.0,0.0,0.0,0.0,0.0,0.0,0.0,0.0,0.0,0.0,0.0,0.0,0.0,0.0,0.0,0.037939962554302965,0.06120701088412205,1.1772298901871363,1.3354276939008662,0.6183577898436285,-0.15708928882672665,-0.25766768522071243,-0.04263463790845576,-1.3826156459240586,-1.545945925986634,0.1420817142739961,0.45479009960837624,-0.20413654654812668,0.24808117116776815
87,0.0,0.0,0.0,0.0,0.0,0.0,0.0,0.0,0.0,0.0,0.0,0.0,0.0,0.0,0.0,0.0,0.0,0.0,0.03782759851362113,0.06380501188562603,1.1714798016928143,1.3377743036139529,0.6244389848372911,-0.15648858563660692,-0.25847932336327295,-0.03773390702064119,-1.3435574513549202,-1.5473653874190108,0.047888360352059456,0.4465397980115418,-0.21382268187667144,0.2512001400979966
88,0.0,0.0,0.0,0.0,0.0,0.0,0.0,0.0,0.0,0.0,0.0,0.0,0.0,0.0,0.0,0.0,0.0,0.0,0.03792117534343176,0.0657952165996857,1.1662827730327936,1.3393079526060576,0.6273569410802535,-0.15585338387326586,-0.2591848752786701,-0.036192965748548224,-1.3138119226661817,-1.5489225753280864,-0.04828314100413397,0.43363059312570057,-0.20312741341191723,0.2343223634939936
89,0.0,0.0,0.0,0.0,0.0,0.0,0.0,0.0,0.0,0.0,0.0,0.0,0.0,0.0,0.0,0.0,0.0,0.0,0.0380404689425395,0.06949414362328155,1.1596538456952437,1.3430936671908602,0.6300259681124634,-0.15579557474990213,-0.26049207911538796,-0.03664195837762586,-1.2782749804334756,-1.5479998681859568,-0.14149766752537174,0.4645196500040781,-0.19521691105203978,0.23230538370157827
90,0.0,0.0,0.0,0.0,0.0,0.0,0.0,0.0,0.0,0.0,0.0,0.0,0.0,0.0,0.0,0.0,0.0,0.0,0.03811844270472035,0.07116674760095017,1.1523664130259699,1.3453482437748046,0.6387118378535487,-0.15529376128330338,-0.26166634881840983,-0.0372654313667435,-1.2463162978598288,-1.5467730438505902,-0.238203005868265,0.5071089051932197,-0.17994325924460183,0.23389282226531327
91,0.0,0.0,0.0,0.0,0.0,0.0,0.0,0.0,0.0,0.0,0.0,0.0,0.0,0.0,0.0,0.0,0.0,0.0,0.038309685626469095,0.07259881190977063,1.1456143841425088,1.3473785612445497,0.6482728146238823,-0.1552554834453574,-0.26311818954718985,-0.034313753142244656,-1.2224949408018944,-1.5465276076572225,-0.32772074597248135,0.560739661348568,-0.1653438779390647,0.2358177608225875
92,0.0,0.0,0.0,0.0,0.0,0.0,0.0,0.0,0.0,0.0,0.0,0.0,0.0,0.0,0.0,0.0,0.0,0.0,0.038625993830864444,0.07248773228263318,1.1429787318706695,1.3462924794204527,0.6389429782882556,-0.15529906511078387,-0.2609907416981723,-0.03441118527767316,-1.2125806753797925,-1.5434052365127493,-0.38242934865446815,0.5923681076990803,-0.16844588219287157,0.23626578152517605
93,0.0,0.0,0.0,0.0,0.0,0.0,0.0,0.0,0.0,0.0,0.0,0.0,0.0,0.0,0.0,0.0,0.0,0.0,0.039053293884209125,0.07229731563265591,1.142578558668675,1.3444488484414197,0.6287725582437819,-0.15472430496245226,-0.2600353948034138,-0.03847662740074985,-1.2066214520912386,-1.5417456286338607,-0.4472648526424237,0.6040096632699714,-0.15224576236732038,0.2346209477391828
94,0.0,0.0,0.0,0.0,0.0,0.0,0.0,0.0,0.0,0.0,0.0,0.0,0.0,0.0,0.0,0.0,0.0,0.0,0.03933026655667147,0.07301146898195263,1.1430412181029708,1.3429566903870072,0.6239554240185899,-0.15374664703796564,-0.26083423171920544,-0.03994130821011523,-1.1986558410352706,-1.5399951928631728,-0.5051990892669529,0.6630518033703617,-0.14255330734869626,0.2453625002522337
95,0.0,0.0,0.0,0.0,0.0,0.0,0.0,0.0,0.0,0.0,0.0,0.0,0.0,0.0,0.0,0.0,0.0,0.0,0.039568724893129334,0.07261507370206213,1.1489103401758196,1.3376511398081932,0.5939676263907759,-0.15484776261389985,-0.2570729503779134,-0.03621854253158449,-1.2006103207043293,-1.5404302129721086,-0.5591099200498044,0.6751230430352051,-0.13969996808407492,0.23010012328672064
96,0.0,0.0,0.0,0.0,0.0,0.0,0.0,0.0,0.0,0.0,0.0,0.0,0.0,0.0,0.0,0.0,0.0,0.0,0.040055157944743715,0.07153286202410887,1.1574814630158101,1.3316370916216105,0.5646901227136636,-0.15468465925716524,-0.25489628027728517,-0.035256023910069774,-1.2009749616407077,-1.5385528041042926,-0.6132249387986929,0.6315077923405167,-0.14397933886398648,0.21106605385206315
97,0.0,0.0,0.0,0.0,0.0,0.0,0.0,0.0,0.0,0.0,0.0,0.0,0.0,0.0,0.0,0.0,0.0,0.0,0.040400881510116476,0.06872878572303408,1.1668544535807504,1.3253199042326265,0.5446659765981988,-0.1540909565827895,-0.25324988720389535,-0.03791514290036504,-1.1983332093845485,-1.5359802864651784,-0.6611556259543154,0.6112495045721678,-0.14300610191364863,0.19510066553214522
98,0.0,0.0,0.0,0.0,0.0,0.0,0.0,0.0,0.0,0.0,0.0,0.0,0.0,0.0,0.0,0.0,0.0,0.0,0.040489958203332094,0.06651378780632036,1.1762776265639567,1.3205565275035684,0.5337502640297103,-0.15356188781603938,-0.2531290490307701,-0.040528930497399224,-1.1959290187474363,-1.5332033373956395,-0.7046997239773107,0.6078364467572662,-0.13983121603701382,0.1835453625577754
99,0.0,0.0,0.0,0.0,0.0,0.0,0.0,0.0,0.0,0.0,0.0,0.0,0.0,0.0,0.0,0.0,0.0,0.0,0.040348554830928834,0.06405292573979003,1.1847083735151882,1.3170836292397743,0.5294659297880373,-0.15327234859903388,-0.2529643337979314,-0.04426678694280825,-1.2011240426383287,-1.5306078331098483,-0.7332387309197611,0.6002103620652821,-0.13173509551592305,0.17454019335190324
100,0.0,0.0,0.0,0.0,0.0,0.0,0.0,0.0,0.0,0.0,0.0,0.0,0.0,0.0,0.0,0.0,0.0,0.0,0.04006460069492082,0.061903463333331264,1.192254147893766,1.3144674195861388,0.5275900009152557,-0.15326044517658444,-0.25277362884530763,-0.04572322350942108,-1.2009464858961474,-1.530199705528319,-0.7497237791409375,0.6146257250594478,-0.13053432864174072,0.17930756161754607
101,0.0,0.0,0.0,0.0,0.0,0.0,0.0,0.0,0.0,0.0,0.0,0.0,0.0,0.0,0.0,0.0,0.0,0.0,0.039764960670771024,0.05963192012861029,1.1986901036062672,1.312432938981797,0.5272397209094576,-0.15341914289039638,-0.25229516447624817,-0.04227495317480801,-1.2000540534803539,-1.5297631430919545,-0.7518245687827574,0.6331182896657689,-0.1314719979888197,0.17279287654619077
102,0.0,0.0,0.0,0.0,0.0,0.0,0.0,0.0,0.0,0.0,0.0,0.0,0.0,0.0,0.0,0.0,0.0,0.0,0.03950259387572351,0.057117020160234656,1.2043439938612743,1.3104550805528943,0.5253927666104633,-0.1538082878283566,-0.25142000563909567,-0.04291863857220807,-1.2004548843828633,-1.5288922094889734,-0.7438046940544422,0.626263608101873,-0.12939222373773226,0.16489488389275125
103,0.0,0.0,0.0,0.0,0.0,0.0,0.0,0.0,0.0,0.0,0.0,0.0,0.0,0.0,0.0,0.0,0.0,0.0,0.03901774978834302,0.05957860092207844,1.2046271933886614,1.315703729931844,0.5574101630930971,-0.15314935769431348,-0.2619529816086937,-0.04140579195562098,-1.1967285522010374,-1.528492993685267,-0.7202042448670192,0.6333343480896271,-0.13956090564635207,0.175607798277164
104,0.0,0.0,0.0,0.0,0.0,0.0,0.0,0.0,0.0,0.0,0.0,0.0,0.0,0.0,0.0,0.0,0.0,0.0,0.03837228010595614,0.05977312826862915,1.206094327818802,1.3164183466461348,0.5517213422052384,-0.15496225111670184,-0.2555614829060382,-0.044069774410987736,-1.1998483257735066,-1.5310037880071345,-0.6955866296406854,0.5750412141417459,-0.1302567852190762,0.157046345984208
105,0.0,0.0,0.0,0.0,0.0,0.0,0.0,0.0,0.0,0.0,0.0,0.0,0.0,0.0,0.0,0.0,0.0,0.0,0.038219139659817776,0.059055455850296784,1.2035031171215176,1.319329778628306,0.5781903476899212,-0.15396284640312077,-0.26294248788930696,-0.04201505408779428,-1.195082724685336,-1.5320500147356095,-0.660322242835538,0.6069731753070221,-0.14144236138427402,0.17710706788156427
106,0.0,0.0,0.0,0.0,0.0,0.0,0.0,0.0,0.0,0.0,0.0,0.0,0.0,0.0,0.0,0.0,0.0,0.0,0.03791568936431917,0.0575001591251097,1.1992291333301168,1.322439900034011,0.6031256942285682,-0.15470762732662682,-0.26209263741518657,-0.044163472626295386,-1.1994376816282972,-1.5310342276523359,-0.6204712153830827,0.5979701615393709,-0.14708335483868504,0.19581137857895214
107,0.0,0.0,0.0,0.0,0.0,0.0,0.0,0.0,0.0,0.0,0.0,0.0,0.0,0.0,0.0,0.0,0.0,0.0,0.0377849937448938,0.055760207997850565,1.1948388216232526,1.3250457540995793,0.6150889191128328,-0.1552857973674522,-0.2597410009988467,-0.04317580441777219,-1.2027686186782078,-1.532514687377081,-0.5742045587284624,0.5837101120262659,-0.1560616993601826,0.1956248161198566
108,0.0,0.0,0.0,0.0,0.0,0.0,0.0,0.0,0.0,0.0,0.0,0.0,0.0,0.0,0.0,0.0,0.0,0.0,0.03778824914838643,0.05453773749635587,1.1908209434587995,1.3266901023010518,0.6184226583775816,-0.15547597185096868,-0.2573379641267589,-0.044532631172944794,-1.2040946382879387,-1.5327901743127235,-0.5282375754888471,0.6163116037898779,-0.13824031664614178,0.20519430134527225
109,0.0,0.0,0.0,0.0,0.0,0.0,0.0,0.0,0.0,0.0,0.0,0.0,0.0,0.0,0.0,0.0,0.0,0.0,0.03768014872610653,0.058595061150320586,1.1783986788539704,1.3339862774607258,0.6404311562598229,-0.15550725198734122,-0.2640299041250612,-0.05069112640103337,-1.2004705161072924,-1.5341532323922649,-0.49800057473981135,0.6148692530338599,-0.13608870262176467,0.2216993816759713
110,0.0,0.0,0.0,0.0,0.0,0.0,0.0,0.0,0.0,0.0,0.0,0.0,0.0,0.0,0.0,0.0,0.0,0.0,0.03798025292707733,0.056196678731104746,1.1693694941676611,1.3358948420433592,0.6354408535615115,-0.15706360145785164,-0.2542530397306133,-0.044655473236650374,-1.209907011330915,-1.535535457169991,-0.41899710478497704,0.6057081701074903,-0.15975313994600548,0.2247363276053801
111,0.0,0.0,0.0,0.0,0.0,0.0,0.0,0.0,0.0,0.0,0.0,0.0,0.0,0.0,0.0,0.0,0.0,0.0,0.03830250002383865,0.06080122429084587,1.1599772088931464,1.3416004302406694,0.6407777992006689,-0.15758318720364115,-0.2604848440889297,-0.04262621424973327,-1.2191406451703912,-1.5381316764735007,-0.3704192695690161,0.5597569673934125,-0.16870773233556727,0.2175675535915227
112,0.0,0.0,0.0,0.0,0.0,0.0,0.0,0.0,0.0,0.0,0.0,0.0,0.0,0.0,0.0,0.0,0.0,0.0,0.03838614348924612,0.06287499954919815,1.1509985401910896,1.3449106537960207,0.6507415153776149,-0.157344293904924,-0.2602273364975206,-0.04432225516786892,-1.2383204002952688,-1.5368341055623151,-0.3186019981973185,0.599864766777784,-0.13803223240999382,0.21305342953808468
113,0.0,0.0,0.0,0.0,0.0,0.0,0.0,0.0,0.0,0.0,0.0,0.0,0.0,0.0,0.0,0.0,0.0,0.0,0.03862913422900491,0.06375945021507809,1.1440167502157275,1.3465633088162736,0.6507661484133606,-0.15717353166131362,-0.258818176009387,-0.041840340611611335,-1.2460943809951315,-1.5401895081679833,-0.26090733538801475,0.5745724584158682,-0.15208651253832117,0.2203062065684303
114,0.0,0.0,0.0,0.0,0.0,0.0,0.0,0.0,0.0,0.0,0.0,0.0,0.0,0.0,0.0,0.0,0.0,0.0,0.03898296936314095,0.06383223987840934,1.1385424781358588,1.3472228376598445,0.6493792756143276,-0.15692077999550932,-0.25760102080746594,-0.03999879743391823,-1.2617882716285118,-1.5410466639062192,-0.20589349946229263,0.5477686568100972,-0.14777268463268578,0.21860797290449963
115,0.0,0.0,0.0,0.0,0.0,0.0,0.0,0.0,0.0,0.0,0.0,0.0,0.0,0.0,0.0,0.0,0.0,0.0,0.03931858987770737,0.06412963826845709,1.134709642505472,1.3473543337679645,0.6471819819861501,-0.1566231326367913,-0.256981380706446,-0.0399846800008065,-1.2739517111272731,-1.541327579524309,-0.1447259074813067,0.5309606855449388,-0.16406094018650563,0.22116952564237644
116,0.0,0.0,0.0,0.0,0.0,0.0,0.0,0.0,0.0,0.0,0.0,0.0,0.0,0.0,0.0,0.0,0.0,0.0,0.039673717623167314,0.06289277188338513,1.1325447992115751,1.3464436342452053,0.6390590128507142,-0.1564668495817558,-0.25478173371664514,-0.04471936568634708,-1.2887427301701448,-1.5420798252416725,-0.08540823067287438,0.5770131674588278,-0.1410693191845388,0.23307901084950944
117,0.0,0.0,0.0,0.0,0.0,0.0,0.0,0.0,0.0,0.0,0.0,0.0,0.0,0.0,0.0,0.0,0.0,0.0,0.04040170136398359,0.04883570735514286,1.1397039886920084,1.321344740504966,0.6056936512751597,-0.1420045268697363,-0.24928014496233813,-0.041165406653371414,-1.3115815177156007,-1.5450146287147422,0.030356568920220012,0.6222124709476345,-0.14074434196771604,0.27564260746689273
118,0.0,0.0,0.0,0.0,0.0,0.0,0.0,0.0,0.0,0.0,0.0,0.0,0.0,0.0,0.0,0.0,0.0,0.0,0.04421131808556047,0.037685794080136635,1.1296875429464655,1.3134776480842856,0.5981568491140281,-0.14163236761536976,-0.24667150175332506,-0.03921291513518108,-1.32994814597086,-1.5458880072262007,0.11082573449741823,0.6293167776039672,-0.14816644196050738,0.2904156244737535
119,0.0,0.0,0.0,0.0,0.0,0.0,0.0,0.0,0.0,0.0,0.0,0.0,0.0,0.0,0.0,0.0,0.0,0.0,0.04545557447187217,0.038680126830779926,1.1369177246890496,1.3116664159199396,0.5620803528203463,-0.14706595983479145,-0.24324827729581902,-0.03615554411983982,-1.3761156182844791,-1.5418290807542634,0.2060911698138678,0.5869961865283568,-0.18783160686310002,0.2991199420988843
120,0.0,0.0,0.0,0.0,0.0,0.0,0.0,0.0,0.0,0.0,0.0,0.0,0.0,0.0,0.0,0.0,0.0,0.0,0.045293233346582355,0.03913216551203515,1.1487380993242202,1.3096351950121337,0.5384124726031875,-0.15006466979223126,-0.24092908016013875,-0.04143279667943313,-1.4071663751772632,-1.5383574268940228,0.2766925628736189,0.5518093415130674,-0.20274598309464745,0.29463433933681443
121,0.0,0.0,0.0,0.0,0.0,0.0,0.0,0.0,0.0,0.0,0.0,0.0,0.0,0.0,0.0,0.0,0.0,0.0,0.04462625871523651,0.0393155088008191,1.1615530942331367,1.307911899955355,0.5261782050080919,-0.1518715070095391,-0.24030753695744925,-0.045660903781816226,-1.4280862693947924,-1.5367260601132526,0.3368573143299956,0.5215890527294672,-0.22057443471934496,0.2932687757953774
122,0.0,0.0,0.0,0.0,0.0,0.0,0.0,0.0,0.0,0.0,0.0,0.0,0.0,0.0,0.0,0.0,0.0,0.0,0.04377510772742935,0.03901861180145917,1.174084973540544,1.3060691811111784,0.5182327923760078,-0.153294409691676,-0.23980006105790772,-0.048312566439502616,-1.448198328098616,-1.5355453306677584,0.38143360616148864,0.49296956580244106,-0.22790530561103192,0.2841689491949654
123,0.0,0.0,0.0,0.0,0.0,0.0,0.0,0.0,0.0,0.0,0.0,0.0,0.0,0.0,0.0,0.0,0.0,0.0,0.0428956266203453,0.03896174048146779,1.1854886705580059,1.3045706337588274,0.5152446541525583,-0.15403989759356915,-0.240375584040307,-0.051788352987110264,-1.4625362790103325,-1.5353337578479527,0.4098000240646669,0.458573414186754,-0.23730671456113023,0.2783800646012486
124,0.0,0.0,0.0,0.0,0.0,0.0,0.0,0.0,0.0,0.0,0.0,0.0,0.0,0.0,0.0,0.0,0.0,0.0,0.04205189584433697,0.03874146579834221,1.1953258586210065,1.3034026930884497,0.5149847309638927,-0.1546334497264884,-0.2410188863905841,-0.05490049449783179,-1.4699915079166772,-1.5360142401281975,0.42392970653894846,0.4179115711223539,-0.24978839273003703,0.2708626582205836
125,0.0,0.0,0.0,0.0,0.0,0.0,0.0,0.0,0.0,0.0,0.0,0.0,0.0,0.0,0.0,0.0,0.0,0.0,0.041274416334462535,0.03874945258348266,1.2037452089977805,1.302499554672485,0.5157809217160774,-0.1551052061054229,-0.2417977010888081,-0.05229413272608741,-1.4590102392402644,-1.5397991748612836,0.4103416467109377,0.34366866927927664,-0.2753138984148631,0.24566930781895216
126,0.0,0.0,0.0,0.0,0.0,0.0,0.0,0.0,0.0,0.0,0.0,0.0,0.0,0.0,0.0,0.0,0.0,0.0,0.040550393039720856,0.039429452079575975,1.2107591428854834,1.302244297258015,0.5191484863879797,-0.15545158652699814,-0.2431760990322539,-0.05733676163292938,-1.4452279313847147,-1.542637586601995,0.3835539548467491,0.27159693670674395,-0.3052646365565576,0.22653548174020183
127,0.0,0.0,0.0,0.0,0.0,0.0,0.0,0.0,0.0,0.0,0.0,0.0,0.0,0.0,0.0,0.0,0.0,0.0,0.04000949071968325,0.03850764954673715,1.2135492279318543,1.3045747816843798,0.5360293520238699,-0.15581780541216853,-0.24436870937966018,-0.05202891957345222,-1.4008745088133234,-1.5467248474642468,0.3315780608400514,0.26073361300890396,-0.2909798267105364,0.22105714318941963
128,0.0,0.0,0.0,0.0,0.0,0.0,0.0,0.0,0.0,0.0,0.0,0.0,0.0,0.0,0.0,0.0,0.0,0.0,0.03897791663596806,0.04476100162302756,1.2119569778846024,1.312998883006192,0.5684671738091731,-0.155940383952993,-0.2551392100900907,-0.056529200035887565,-1.3558518425737156,-1.547602668232097,0.22764135121227733,0.2440219090365598,-0.274331153930398,0.2161984808664181
129,0.0,0.0,0.0,0.0,0.0,0.0,0.0,0.0,0.0,0.0,0.0,0.0,0.0,0.0,0.0,0.0,0.0,0.0,0.03789374443499668,0.04964978215303949,1.2066290332316962,1.3202573222444811,0.6026121320702112,-0.15595471765326263,-0.25817526490389087,-0.04753907040331376,-1.3192261029451742,-1.5512271522674246,0.13560342045763824,0.2318757974620908,-0.27698495321901556,0.19884281417669242
130,0.0,0.0,0.0,0.0,0.0,0.0,0.0,0.0,0.0,0.0,0.0,0.0,0.0,0.0,0.0,0.0,0.0,0.0,0.03762388071310827,0.05010161721779342,1.2062063518504367,1.3185319149966643,0.5696824276132388,-0.15899322511791067,-0.2496957157046891,-0.044558499134004885,-1.2984559469295485,-1.5516884087594516,0.09662682426585167,0.2596166194711656,-0.24832597147072713,0.19535547196732098
131,0.0,0.0,0.0,0.0,0.0,0.0,0.0,0.0,0.0,0.0,0.0,0.0,0.0,0.0,0.0,0.0,0.0,0.0,0.03794785993721974,0.05408046288201021,1.2016738006238652,1.3231264925625126,0.5856068277644839,-0.1587345339718336,-0.25864511185767525,-0.042780622961913296,-1.2629425883390542,-1.552771484821154,0.014724991694274797,0.2435413772513465,-0.2664516218048931,0.2002445442551116
132,0.0,0.0,0.0,0.0,0.0,0.0,0.0,0.0,0.0,0.0,0.0,0.0,0.0,0.0,0.0,0.0,0.0,0.0,0.03764061531609905,0.056919305639770275,1.1949399320157073,1.327834721401266,0.6135210022330392,-0.15768985617781706,-0.26091575041261905,-0.040817130415997674,-1.2311272674867637,-1.5533865568673069,-0.06084953555910144,0.2355282182601636,-0.2801940729594927,0.18699838409528902
133,0.0,0.0,0.0,0.0,0.0,0.0,0.0,0.0,0.0,0.0,0.0,0.0,0.0,0.0,0.0,0.0,0.0,0.0,0.03734910027003873,0.0595696616892006,1.1875878676689922,1.3323360489126062,0.6322461026160885,-0.15726135836468738,-0.26191866824145343,-0.042818407694369044,-1.204379454247817,-1.5534017610534065,-0.1440728357108586,0.23630401826303474,-0.25580286714706124,0.1791782878100501
134,0.0,0.0,0.0,0.0,0.0,0.0,0.0,0.0,0.0,0.0,0.0,0.0,0.0,0.0,0.0,0.0,0.0,0.0,0.03724352606659924,0.06184575643658826,1.1797027537739984,1.3364032792626228,0.6454452746849202,-0.15704737345708064,-0.2624618089900102,-0.04135391818181058,-1.1757241676829062,-1.5522382369539263,-0.2215994879474047,0.2874916734255893,-0.24148943579560234,0.18704456335679318
135,0.0,0.0,0.0,0.0,0.0,0.0,0.0,0.0,0.0,0.0,0.0,0.0,0.0,0.0,0.0,0.0,0.0,0.0,0.03725855916337864,0.06439261955437424,1.1716415350567437,1.3401234737245487,0.6555565705131652,-0.15689023470257368,-0.26326644752959816,-0.04158717438693905,-1.1565377290372711,-1.551189346822668,-0.29657797349176207,0.33408536843375497,-0.21697027224344825,0.18775121641149767
136,0.0,0.0,0.0,0.0,0.0,0.0,0.0,0.0,0.0,0.0,0.0,0.0,0.0,0.0,0.0,0.0,0.0,0.0,0.03734802657689076,0.06709620632401786,1.1631176335767979,1.3438318190769376,0.667489881957437,-0.15686151913242383,-0.2648020339078291,-0.03834321968611159,-1.1364233682425777,-1.5497624332227378,-0.3605270890721604,0.3698551312625966,-0.2157186976495252,0.1916500977442616
137,0.0,0.0,0.0,0.0,0.0,0.0,0.0,0.0,0.0,0.0,0.0,0.0,0.0,0.0,0.0,0.0,0.0,0.0,0.037797407560965834,0.06688983870736519,1.1635195097843318,1.3392016509822469,0.614147115268726,-0.15932845108204197,-0.25502680239282166,-0.037871513026204756,-1.1517726123147076,-1.5500551421364286,-0.3753531855093722,0.38675987885618385,-0.1867721110684595,0.18348517617554772
138,0.0,0.0,0.0,0.0,0.0,0.0,0.0,0.0,0.0,0.0,0.0,0.0,0.0,0.0,0.0,0.0,0.0,0.0,0.038903976872918154,0.06574982874611118,1.1693070971059871,1.3312685210214577,0.5611091466222913,-0.1587597965381115,-0.2497399420904321,-0.03761066755159013,-1.151958057880126,-1.5503426374852594,-0.41064068116778235,0.39409524602969415,-0.1745306897465436,0.1802171572186723
139,0.0,0.0,0.0,0.0,0.0,0.0,0.0,0.0,0.0,0.0,0.0,0.0,0.0,0.0,0.0,0.0,0.0,0.0,0.03969477414891688,0.06458848277573212,1.172489278833805,1.3279754513777258,0.5674315341560696,-0.15648760682932195,-0.25848504870254185,-0.03848363589652525,-1.1299708467794964,-1.5458764993967609,-0.46964933878762555,0.5112572094914588,-0.16382194333114994,0.20552672516515405
140,0.0,0.0,0.0,0.0,0.0,0.0,0.0,0.0,0.0,0.0,0.0,0.0,0.0,0.0,0.0,0.0,0.0,0.0,0.03963153410484271,0.06423376540997791,1.1745575592571578,1.3275551003517045,0.5882321229713023,-0.15475074688090218,-0.2609493426641079,-0.035925227611894595,-1.1167306963265575,-1.543679885658231,-0.5194226176900449,0.5359361432702531,-0.16846564706930856,0.20481210444932976
141,0.0,0.0,0.0,0.0,0.0,0.0,0.0,0.0,0.0,0.0,0.0,0.0,0.0,0.0,0.0,0.0,0.0,0.0,0.03933367133851425,0.06394365206638897,1.181079788670034,1.3234043808213984,0.5680824475902178,-0.15609557544610705,-0.25697731617168096,-0.03784183398564006,-1.117485166597179,-1.5447550758800257,-0.5614381877023665,0.5211435463681037,-0.14893547393082882,0.1892004786262009
142,0.0,0.0,0.0,0.0,0.0,0.0,0.0,0.0,0.0,0.0,0.0,0.0,0.0,0.0,0.0,0.0,0.0,0.0,0.03953276780168085,0.0625597003153948,1.1891926401369461,1.3182954755798884,0.5411495579120484,-0.1562858676274749,-0.2538159898073765,-0.03995308214409648,-1.120142358928679,-1.5455038418221392,-0.596730171390464,0.5128027534646169,-0.12635911630442506,0.17763872563088584
143,0.0,0.0,0.0,0.0,0.0,0.0,0.0,0.0,0.0,0.0,0.0,0.0,0.0,0.0,0.0,0.0,0.0,0.0,0.03969119070063102,0.060819877054701765,1.197489373216284,1.3133514232212768,0.5224994501999107,-0.15588591158649037,-0.25222231133767536,-0.041831138180571624,-1.123401094874717,-1.5448917643457383,-0.6189192183320672,0.5427631384799213,-0.11761348728145404,0.17999451092268906
144,0.0,0.0,0.0,0.0,0.0,0.0,0.0,0.0,0.0,0.0,0.0,0.0,0.0,0.0,0.0,0.0,0.0,0.0,0.039646138336750736,0.059514952844850415,1.2058668383357851,1.3090826594692668,0.5104773495577632,-0.1554310868744524,-0.25182529048122015,-0.0400227554800047,-1.1237564071530861,-1.5454138025737376,-0.6326800514546341,0.5600318356826204,-0.11554444496393648,0.17473969466355319
145,0.0,0.0,0.0,0.0,0.0,0.0,0.0,0.0,0.0,0.0,0.0,0.0,0.0,0.0,0.0,0.0,0.0,0.0,0.03951121901471664,0.05747604746866861,1.2132732086566664,1.3056940392848913,0.5048487734147774,-0.15509590784203303,-0.25144155698370063,-0.03968851114873353,-1.1261892605455972,-1.545572392592167,-0.6420289208812539,0.5474937989189674,-0.1097009915871656,0.16332842705961573
146,0.0,0.0,0.0,0.0,0.0,0.0,0.0,0.0,0.0,0.0,0.0,0.0,0.0,0.0,0.0,0.0,0.0,0.0,0.03926214873899575,0.055753801669937264,1.2201639568025375,1.3028726751334287,0.5007580288191438,-0.15503128708793698,-0.2511368229915035,-0.03991657367967693,-1.1273289298056401,-1.5455556209781938,-0.6398846471933755,0.5265355863402852,-0.10849043953682176,0.15547907757381316
147,0.0,0.0,0.0,0.0,0.0,0.0,0.0,0.0,0.0,0.0,0.0,0.0,0.0,0.0,0.0,0.0,0.0,0.0,0.03901601126890788,0.053819787292438755,1.226224221597064,1.3005067410348787,0.49823203039827046,-0.1551401780249115,-0.25073952211072376,-0.040047136813189235,-1.1286252747177594,-1.5456326369971505,-0.6232981848187051,0.5230435943716689,-0.1079993824491559,0.16772140110545572
148,0.0,0.0,0.0,0.0,0.0,0.0,0.0,0.0,0.0,0.0,0.0,0.0,0.0,0.0,0.0,0.0,0.0,0.0,0.03876750506723898,0.05196449917406731,1.231501673280957,1.2986127370148575,0.49711348245557374,-0.15532298160704364,-0.2504150128531294,-0.03894581348727731,-1.13737134786758,-1.5438645897402814,-0.5892589139790174,0.5392996374536592,-0.11635540177922855,0.167161317973115
149,0.0,0.0,0.0,0.0,0.0,0.0,0.0,0.0,0.0,0.0,0.0,0.0,0.0,0.0,0.0,0.0,0.0,0.0,0.03854916259611899,0.049837985768775114,1.2358817988755735,1.2970541418278598,0.4968902494519215,-0.15559989599796922,-0.24975419440945318,-0.03873161296896052,-1.1553815507131162,-1.5432636646077045,-0.5500348833791063,0.5355276202576067,-0.10830135044058582,0.16649611723822075
150,0.0,0.0,0.0,0.0,0.0,0.0,0.0,0.0,0.0,0.0,0.0,0.0,0.0,0.0,0.0,0.0,0.0,0.0,0.038340427055045354,0.04795958338616647,1.2396374258987937,1.2957915361993253,0.4969711287742377,-0.15593162523333615,-0.2492699701955988,-0.037781319955086504,-1.165183201493075,-1.5465669109832332,-0.4963768708586279,0.5110428739670638,-0.11367028832606767,0.1727631818610325
151,0.0,0.0,0.0,0.0,0.0,0.0,0.0,0.0,0.0,0.0,0.0,0.0,0.0,0.0,0.0,0.0,0.0,0.0,0.03804988600311613,0.04655840014460895,1.238548048971158,1.2995815773809487,0.5371768736422139,-0.15458487340217067,-0.25398991749870214,-0.03853124381655268,-1.1596640627066033,-1.5476276452852926,-0.45453894846827614,0.4967242426082329,-0.13131917949139213,0.19683049339600542
152,0.0,0.0,0.0,0.0,0.0,0.0,0.0,0.0,0.0,0.0,0.0,0.0,0.0,0.0,0.0,0.0,0.0,0.0,0.03735871825850994,0.045305957490206994,1.2350453360500138,1.3044519774249923,0.5672289010983206,-0.15525480412528733,-0.2548172097137118,-0.03581404857952244,-1.1614571280962267,-1.5466180370552,-0.4034542086508293,0.49153914213144284,-0.15360529861346994,0.1951905538406644
153,0.0,0.0,0.0,0.0,0.0,0.0,0.0,0.0,0.0,0.0,0.0,0.0,0.0,0.0,0.0,0.0,0.0,0.0,0.03652386725271432,0.052808809325477706,1.222432243241929,1.3165967477432559,0.611952290845693,-0.15534424838841504,-0.2653204686492773,-0.03505297822821986,-1.1559145557924766,-1.5476182384638006,-0.38311203992589643,0.4488791532539851,-0.16861482746400727,0.18959208852699397
154,0.0,0.0,0.0,0.0,0.0,0.0,0.0,0.0,0.0,0.0,0.0,0.0,0.0,0.0,0.0,0.0,0.0,0.0,0.03632899498005118,0.05223918101452009,1.2110802553615303,1.3221880701221649,0.6201536760662906,-0.15706250897298885,-0.25560560709341434,-0.03613019248700162,-1.1679237768890776,-1.5485668829391648,-0.3049916023427772,0.449635946923699,-0.17753128453587405,0.20896990061363754
155,0.0,0.0,0.0,0.0,0.0,0.0,0.0,0.0,0.0,0.0,0.0,0.0,0.0,0.0,0.0,0.0,0.0,0.0,0.03671841284759819,0.05162253557472453,1.2033545397433776,1.3240930742443693,0.6142386922533373,-0.15762080201854886,-0.2525485653502296,-0.03720072941066571,-1.1875847136254207,-1.550280914094458,-0.23339894560866675,0.4261650534061874,-0.17658663703056282,0.21134949588149324
156,0.0,0.0,0.0,0.0,0.0,0.0,0.0,0.0,0.0,0.0,0.0,0.0,0.0,0.0,0.0,0.0,0.0,0.0,0.037300733185223006,0.05050043990860777,1.1983982472805967,1.3240073629570965,0.6033019384516508,-0.15740578056857518,-0.2501133528345155,-0.03698650099327366,-1.2063056740051854,-1.551109917553065,-0.1643497358594465,0.39981455763030493,-0.1809460852227224,0.20522729529387185
157,0.0,0.0,0.0,0.0,0.0,0.0,0.0,0.0,0.0,0.0,0.0,0.0,0.0,0.0,0.0,0.0,0.0,0.0,0.03786137509847148,0.049114257751260215,1.1954620854967066,1.322891433916598,0.5927077856096536,-0.15698890244123334,-0.24823146072647367,-0.03701832741914897,-1.2256816293173263,-1.5512498896779505,-0.08881878092884213,0.4028691168139985,-0.18452601400293414,0.21545425584617248
158,0.0,0.0,0.0,0.0,0.0,0.0,0.0,0.0,0.0,0.0,0.0,0.0,0.0,0.0,0.0,0.0,0.0,0.0,0.03840261658862903,0.046781632456384295,1.1945316844425884,1.3205766498286458,0.5786714065713554,-0.15693228552844976,-0.24560288523578733,-0.0361919448078395,-1.2209700193717496,-1.5516537255451759,-0.025243820627645824,0.4224234853680603,-0.18605505634804057,0.2311094491268593
159,0.0,0.0,0.0,0.0,0.0,0.0,0.0,0.0,0.0,0.0,0.0,0.0,0.0,0.0,0.0,0.0,0.0,0.0,0.038961179520640606,0.04335843960951705,1.1952803952280484,1.3173289941762465,0.5660122919479098,-0.15696779411847478,-0.24302227451605624,-0.03513444235116268,-1.2425344502387068,-1.5521818197398727,0.06151230127306816,0.3913450527067164,-0.20332134027247098,0.23702068451056965
160,0.0,0.0,0.0,0.0,0.0,0.0,0.0,0.0,0.0,0.0,0.0,0.0,0.0,0.0,0.0,0.0,0.0,0.0,0.0394698667298017,0.0394837451401697,1.197408008159005,1.3139005674896795,0.5544086419682339,-0.15719406840862316,-0.24044699818992915,-0.0349290408287685,-1.2604629450412494,-1.5536068885937206,0.14141043597415587,0.35148647034201275,-0.21380434395268938,0.23207155178528327
161,0.0,0.0,0.0,0.0,0.0,0.0,0.0,0.0,0.0,0.0,0.0,0.0,0.0,0.0,0.0,0.0,0.0,0.0,0.03984106680877482,0.036000160618499005,1.2003229406221207,1.3108585117782603,0.5461177348093595,-0.15744942772200538,-0.2384892665130406,-0.03898808663356324,-1.2798124457287399,-1.55419264516462,0.22612421089612306,0.3244090609876404,-0.2206254897579337,0.24901931094344648
162,0.0,0.0,0.0,0.0,0.0,0.0,0.0,0.0,0.0,0.0,0.0,0.0,0.0,0.0,0.0,0.0,0.0,0.0,0.04009355250154381,0.03243644795723789,1.2038872573702823,1.3077822046399015,0.5377958871179769,-0.15788353684771295,-0.2364661194268235,-0.03563224183459558,-1.2869057610693393,-1.555210289851917,0.3074252772565493,0.32493014494461386,-0.23433354514410656,0.25289283372413535
163,0.0,0.0,0.0,0.0,0.0,0.0,0.0,0.0,0.0,0.0,0.0,0.0,0.0,0.0,0.0,0.0,0.0,0.0,0.04019249868272823,0.031123207581403606,1.2109180368916304,1.302429600305626,0.5195707432870225,-0.15985451031571668,-0.2346372593053849,-0.03679336653818136,-1.325077728364342,-1.560593982451878,0.416912482999649,0.5386532815960697,-0.1636974419301101,0.31983243162390224
164,0.0,0.0,0.0,0.0,0.0,0.0,0.0,0.0,0.0,0.0,0.0,0.0,0.0,0.0,0.0,0.0,0.0,0.0,0.0404970367129166,0.02810112521405809,1.2189793750765272,1.296513720214496,0.5016701466557951,-0.16061913549862986,-0.23350207068120413,-0.03435103279461345,-1.33445943333954,-1.5622644179575966,0.48859719700343485,0.6476860321600693,-0.13483741135811986,0.3636250313946146
165,0.0,0.0,0.0,0.0,0.0,0.0,0.0,0.0,0.0,0.0,0.0,0.0,0.0,0.0,0.0,0.0,0.0,0.0,0.04071780362966691,0.02447430511799726,1.227317424282628,1.2908402387435847,0.48508243261821044,-0.16138252258536392,-0.2322150979608153,-0.03595682718542791,-1.3252264646540954,-1.5625250339358099,0.5370561934447545,0.7133523920712481,-0.10479039850701855,0.38429330942151946
166,0.0,0.0,0.0,0.0,0.0,0.0,0.0,0.0,0.0,0.0,0.0,0.0,0.0,0.0,0.0,0.0,0.0,0.0,0.04078297786151372,0.02121467727803406,1.2357543896783094,1.2858497276927385,0.4724262411116534,-0.16206712497024664,-0.23133837884609135,-0.032720252456265225,-1.306583581927986,-1.5639894617774472,0.5784527810496048,0.7763877433085995,-0.08250301756936695,0.41529185919497325
167,0.0,0.0,0.0,0.0,0.0,0.0,0.0,0.0,0.0,0.0,0.0,0.0,0.0,0.0,0.0,0.0,0.0,0.0,0.0406521481214663,0.01870368774677439,1.2436703209759907,1.282134579813299,0.46667654129313,-0.162393862798555,-0.23163094187729064,-0.029420131856623823,-1.3008631488315734,-1.5672290154542483,0.6529906526366439,0.7793062589544678,-0.08496409941367769,0.437658429499987
168,0.0,0.0,0.0,0.0,0.0,0.0,0.0,0.0,0.0,0.0,0.0,0.0,0.0,0.0,0.0,0.0,0.0,0.0,0.04032557147393081,0.017033067192577626,1.2508451413771058,1.2794347324093522,0.4643878833446295,-0.1626228255426874,-0.2322664981342009,-0.02478769009509738,-1.2814447465821772,-1.5676246136813312,0.6950544607641961,0.7743360848832216,-0.08869696277566157,0.44850192766292196
169,0.0,0.0,0.0,0.0,0.0,0.0,0.0,0.0,0.0,0.0,0.0,0.0,0.0,0.0,0.0,0.0,0.0,0.0,0.0400324181399009,0.014505294227523603,1.256583918083043,1.2772481569122185,0.46357125517120573,-0.16300836425735882,-0.23200214183619527,-0.02010092294024906,-1.2436319045997908,-1.5680455431077973,0.7202914008761547,0.770687622177348,-0.09246446128140574,0.46796255162046024
170,0.0,0.0,0.0,0.0,0.0,0.0,0.0,0.0,0.0,0.0,0.0,0.0,0.0,0.0,0.0,0.0,0.0,0.0,0.03979489584194336,0.011628091198842866,1.2611906798654438,1.2754638758841053,0.4636340520721909,-0.1634965545819351,-0.2312756492755201,-0.01629347208616927,-1.204936002079142,-1.5681022437663357,0.7369755651931714,0.7559943066771134,-0.0943461422464308,0.47312882009703067
171,0.0,0.0,0.0,0.0,0.0,0.0,0.0,0.0,0.0,0.0,0.0,0.0,0.0,0.0,0.0,0.0,0.0,0.0,0.03958001070157399,0.008981180259433,1.2649436804254783,1.2740067046097652,0.464442187085406,-0.16375861337173922,-0.2303609059800349,-0.013918942684300313,-1.1618990634777548,-1.5682294471592702,0.7537583454742957,0.7338693709101702,-0.10327821613045116,0.48076795723194277
172,0.0,0.0,0.0,0.0,0.0,0.0,0.0,0.0,0.0,0.0,0.0,0.0,0.0,0.0,0.0,0.0,0.0,0.0,0.03942996214861832,0.006157610883350959,1.2677631327611314,1.2729902302800062,0.46665307788033894,-0.16404722328212132,-0.22937696749576741,-0.01130854970828594,-1.1142072363431084,-1.5680307141539938,0.7724860851066099,0.7146831021460099,-0.11082558681881106,0.488600758104976
173,0.0,0.0,0.0,0.0,0.0,0.0,0.0,0.0,0.0,0.0,0.0,0.0,0.0,0.0,0.0,0.0,0.0,0.0,0.03926806033815235,0.003640255416176847,1.27008419998724,1.2723262767492611,0.46929591915889357,-0.16436329267378,-0.22848048710105962,-0.008550555807592182,-1.0583617376850778,-1.5674386420953004,0.7927480463136908,0.6880909792867105,-0.11666868160961927,0.4954635373719841
174,0.0,0.0,0.0,0.0,0.0,0.0,0.0,0.0,0.0,0.0,0.0,0.0,0.0,0.0,0.0,0.0,0.0,0.0,0.039196892026250485,0.0006421687253819024,1.2713653394661817,1.2716566131435392,0.4713505369235837,-0.16475954662473752,-0.22710505832280561,-0.005863631568325594,-0.9991453096499853,-1.5668834630832795,0.8135300265160194,0.6670754761928335,-0.11933109898725248,0.5015406112824085
175,0.0,0.0,0.0,0.0,0.0,0.0,0.0,0.0,0.0,0.0,0.0,0.0,0.0,0.0,0.0,0.0,0.0,0.0,0.03907941444258447,-0.00101926405925878,1.272584026898093,1.2715805414489572,0.47481546742661507,-0.16507378263193237,-0.2266629132904791,-0.0032849959105236345,-0.9412585011562417,-1.5671830052015845,0.8435582815299515,0.6528888063189606,-0.11546455875440018,0.5101096961246419
176,0.0,0.0,0.0,0.0,0.0,0.0,0.0,0.0,0.0,0.0,0.0,0.0,0.0,0.0,0.0,0.0,0.0,0.0,0.0389335171334489,-0.0022677463829550272,1.2734023771090401,1.2719837070585562,0.4795039491656318,-0.16526451293383007,-0.22626895438107458,-0.0015652487348770652,-0.891894710195371,-1.5668115958271511,0.8732351675960084,0.6503649196440325,-0.10444464561888106,0.5168453666051949
177,0.0,0.0,0.0,0.0,0.0,0.0,0.0,0.0,0.0,0.0,0.0,0.0,0.0,0.0,0.0,0.0,0.0,0.0,0.038431826674941126,0.0026399971277444615,1.2744176252020802,1.2760790036697733,0.48277729995661306,-0.16518094248298676,-0.22840527931980698,0.002203765658940167,-0.8421997777725998,-1.5633848055907804,0.9081283616522502,0.6261535296456778,-0.10282148325253682,0.5180921524093959
178,0.0,0.0,0.0,0.0,0.0,0.0,0.0,0.0,0.0,0.0,0.0,0.0,0.0,0.0,0.0,0.0,0.0,0.0,0.03794872297023346,0.005224858170487866,1.2731821883581318,1.2786856610701482,0.4971792195947834,-0.1643345387521371,-0.23056062371381278,0.004440110842184132,-0.7794940704474456,-1.5623272563395723,0.9449458265838794,0.5873549295134367,-0.1043233621737537,0.515819323241043
179,0.0,0.0,0.0,0.0,0.0,0.0,0.0,0.0,0.0,0.0,0.0,0.0,0.0,0.0,0.0,0.0,0.0,0.0,0.03789065686461281,0.003477775154686301,1.2696748594693836,1.2808292465007338,0.5039079050877162,-0.16502985417420962,-0.22859044989475252,0.005839755314115583,-0.7226946721913493,-1.5617031878165206,0.9815430989466088,0.534121334981427,-0.100897945193361,0.510402735410793
180,0.0,0.0,0.0,0.0,0.0,0.0,0.0,0.0,0.0,0.0,0.0,0.0,0.0,0.0,0.0,0.0,0.0,0.0,0.03801369730613779,0.0014307233760045852,1.2658968342845665,1.282527719750818,0.5119522922392254,-0.16489089839042156,-0.22707027962087029,0.00819151029278015,-0.6582516904072381,-1.5553862776935818,1.0142692267167737,0.47060750208440816,-0.10514467343284173,0.49958832110222817
181,0.0,0.0,0.0,0.0,0.0,0.0,0.0,0.0,0.0,0.0,0.0,0.0,0.0,0.0,0.0,0.0,0.0,0.0,0.03814556366701568,-0.0004152144708146244,1.2623692579674914,1.283624830411625,0.516972604841605,-0.16465864764853833,-0.22558362404197327,0.01083816175000716,-0.5908424036469941,-1.545711464457632,1.0410674289419821,0.4042668836817439,-0.11257763633570028,0.4858317027676958
182,0.0,0.0,0.0,0.0,0.0,0.0,0.0,0.0,0.0,0.0,0.0,0.0,0.0,0.0,0.0,0.0,0.0,0.0,0.03836562780618386,-0.0025045083239184284,1.258930029612078,1.2845396239036158,0.5217055895367795,-0.16457249048257622,-0.22407421671191743,0.012340518351498861,-0.5292917700951768,-1.538727482885644,1.066423195444862,0.3302994267360187,-0.11677562356116743,0.47219310790985997
183,0.0,0.0,0.0,0.0,0.0,0.0,0.0,0.0,0.0,0.0,0.0,0.0,0.0,0.0,0.0,0.0,0.0,0.0,0.038629341545548174,-0.004863903921171246,1.2560252068785351,1.2847713967671504,0.5222175411523112,-0.1648041670835816,-0.2219482074207762,0.01395463378706937,-0.47211942069448265,-1.5273344694722104,1.0931952038621293,0.24257722611995658,-0.11910103447748242,0.4565635446252735
184,0.0,0.0,0.0,0.0,0.0,0.0,0.0,0.0,0.0,0.0,0.0,0.0,0.0,0.0,0.0,0.0,0.0,0.0,0.03847924171234831,0.0006450404736660763,1.2547172800356965,1.2886098336736025,0.5204231111057933,-0.164830163543536,-0.22394650496517257,0.015196778671547074,-0.4209459457878579,-1.5115424682140453,1.125462753176532,0.12466824966654541,-0.1178069440945709,0.4402621219295545
185,0.0,0.0,0.0,0.0,0.0,0.0,0.0,0.0,0.0,0.0,0.0,0.0,0.0,0.0,0.0,0.0,0.0,0.0,0.038290764186668116,0.0033477952142360783,1.251681426025336,1.2908498527327747,0.5323957180198775,-0.16373739394918108,-0.22617285747963112,0.016734087873059675,-0.3725034851455461,-1.4902941209314466,1.1510027094183644,0.005208444678938606,-0.11605081366605281,0.42375565974692675
186,0.0,0.0,0.0,0.0,0.0,0.0,0.0,0.0,0.0,0.0,0.0,0.0,0.0,0.0,0.0,0.0,0.0,0.0,0.03821830888273357,0.00440984005229101,1.2482812821980467,1.2925679859949561,0.5398164456028254,-0.16311769631460807,-0.22685069933478513,0.01858309859728637,-0.32581061879186957,-1.4662955257064014,1.1728696202152515,-0.10481435230686884,-0.11585496846532538,0.4076831111060096
187,0.0,0.0,0.0,0.0,0.0,0.0,0.0,0.0,0.0,0.0,0.0,0.0,0.0,0.0,0.0,0.0,0.0,0.0,0.03823323764229823,0.005554414732341055,1.2455023526403075,1.2935913665623286,0.5421407939693194,-0.1626156954594219,-0.227036294183351,0.02059422737174335,-0.28152761986004016,-1.4417168325696272,1.1906356255317827,-0.19331929926841107,-0.11825103094979951,0.3901410740961657
188,0.0,0.0,0.0,0.0,0.0,0.0,0.0,0.0,0.0,0.0,0.0,0.0,0.0,0.0,0.0,0.0,0.0,0.0,0.0384381202608161,0.00464555284898772,1.2422450512819134,1.2942471517989618,0.5462954697633535,-0.16214450546495823,-0.2265641424259913,0.022773381186328993,-0.24042075679120417,-1.4223191890479354,1.2042524980127602,-0.2509623072374411,-0.12315248727545768,0.3723354772651864
189,0.0,0.0,0.0,0.0,0.0,0.0,0.0,0.0,0.0,0.0,0.0,0.0,0.0,0.0,0.0,0.0,0.0,0.0,0.03862730513086432,0.003922943432156972,1.2396482462444625,1.2946433212897686,0.5474734806067307,-0.16194268378026122,-0.2257998927033193,0.02470029459538724,-0.20263750593312266,-1.4054804376596817,1.2159412141994994,-0.30930792991926453,-0.1279805071955068,0.3568555417600143
190,0.0,0.0,0.0,0.0,0.0,0.0,0.0,0.0,0.0,0.0,0.0,0.0,0.0,0.0,0.0,0.0,0.0,0.0,0.038775993694102034,0.00409234389916365,1.2378325474387166,1.2949809305969888,0.5475256058664517,-0.16181108532645774,-0.2257103562808655,0.026028220872224356,-0.17052898626853327,-1.3905541958251184,1.227364839838325,-0.36733354446367084,-0.13244036901242442,0.34328501651106474
191,0.0,0.0,0.0,0.0,0.0,0.0,0.0,0.0,0.0,0.0,0.0,0.0,0.0,0.0,0.0,0.0,0.0,0.0,0.03888465278831137,0.004537848292150477,1.2361740325088668,1.2955887330268718,0.5493886263665441,-0.16169432306065315,-0.22603989216658824,0.027212133830329405,-0.13961591616640392,-1.371483686686404,1.2370701590427269,-0.42025632998403106,-0.13662546346436097,0.3272673953218591
192,0.0,0.0,0.0,0.0,0.0,0.0,0.0,0.0,0.0,0.0,0.0,0.0,0.0,0.0,0.0,0.0,0.0,0.0,0.038920060206905305,0.005031100823261311,1.2342776610571111,1.2967604030822721,0.5548226070260737,-0.161483751772932,-0.22671511034105918,0.028704549525947396,-0.11198215743469589,-1.3553434295470899,1.2457892287535026,-0.4576357830479485,-0.1413945073457922,0.3121159040912084
193,0.0,0.0,0.0,0.0,0.0,0.0,0.0,0.0,0.0,0.0,0.0,0.0,0.0,0.0,0.0,0.0,0.0,0.0,0.03898650231605362,0.004485383158585332,1.2317921164785925,1.2978197912201062,0.5587587943877614,-0.1615431290672356,-0.22620611157404566,0.030074477790026935,-0.08673296263953018,-1.3405358311009448,1.25342636907549,-0.4945619784134295,-0.1458279915008595,0.29802075123331534
194,0.0,0.0,0.0,0.0,0.0,0.0,0.0,0.0,0.0,0.0,0.0,0.0,0.0,0.0,0.0,0.0,0.0,0.0,0.039123188864785594,0.0032089515065111436,1.2292997518221775,1.2984582869570063,0.560389411156429,-0.1616535704888906,-0.22495694575180128,0.031180466520076385,-0.06488647674729725,-1.3224229320496739,1.2615219576629566,-0.536085309655198,-0.14848247796380878,0.2852701410723312
195,0.0,0.0,0.0,0.0,0.0,0.0,0.0,0.0,0.0,0.0,0.0,0.0,0.0,0.0,0.0,0.0,0.0,0.0,0.039285323944395906,0.002156577393978607,1.2272058499318725,1.2988509273652962,0.5610508840070875,-0.16171693026330483,-0.22391047410330378,0.03246402232564917,-0.04415707373359726,-1.3021775548594416,1.269516897205039,-0.574780539460852,-0.15175805324247793,0.2720667380034834
196,0.0,0.0,0.0,0.0,0.0,0.0,0.0,0.0,0.0,0.0,0.0,0.0,0.0,0.0,0.0,0.0,0.0,0.0,0.03951195525513292,-0.00021941317425735497,1.2243164209152249,1.2996169077700146,0.5723393841920246,-0.16187176752069432,-0.22349407240814753,0.03384018089386907,-0.026437103978183243,-1.2856578361622,1.2770865842972483,-0.6011150499033702,-0.1556603119741244,0.2596936390770246
197,0.0,0.0,0.0,0.0,0.0,0.0,0.0,0.0,0.0,0.0,0.0,0.0,0.0,0.0,0.0,0.0,0.0,0.0,0.03967627405158428,-0.003181937128218161,1.2207537831735291,1.3010682549135137,0.5813195736524992,-0.16226136756055984,-0.22187695814098335,0.0348957234595153,-0.013572696136368422,-1.2667986329931071,1.2866825939297943,-0.6258437848758098,-0.15826940724342706,0.24853437834317343
198,0.0,0.0,0.0,0.0,0.0,0.0,0.0,0.0,0.0,0.0,0.0,0.0,0.0,0.0,0.0,0.0,0.0,0.0,0.039800524346767945,-0.005499006742461586,1.2168914027203626,1.3028274571819634,0.5891402385889954,-0.16264482823348145,-0.22026842238089211,0.035830066327876865,-0.00404713175737776,-1.2457805680551823,1.296967965419418,-0.6494445851534669,-0.16031877992598625,0.23896050902196908
199,0.0,0.0,0.0,0.0,0.0,0.0,0.0,0.0,0.0,0.0,0.0,0.0,0.0,0.0,0.0,0.0,0.0,0.0,0.03983964466952006,-0.006144903992607568,1.213263991758103,1.30483155141306,0.5962452568542977,-0.16285813767524351,-0.21966184404062036,0.036756198631979785,0.002894502924585805,-1.2235389085349757,1.3069105596319441,-0.669235580342796,-0.16209695190216464,0.23071334975888097
200,0.0,0.0,0.0,0.0,0.0,0.0,0.0,0.0,0.0,0.0,0.0,0.0,0.0,0.0,0.0,0.0,0.0,0.0,0.03987855235541188,-0.006298040580705243,1.2093120637008088,1.3069355783695884,0.6028607138473097,-0.16301814144757698,-0.21923363629901008,0.03776401234213771,0.00854917650352801,-1.2008783225125126,1.3157208093539312,-0.6822274008528507,-0.16361128798096466,0.22291903253218281
201,0.0,0.0,0.0,0.0,0.0,0.0,0.0,0.0,0.0,0.0,0.0,0.0,0.0,0.0,0.0,0.0,0.0,0.0,0.039961615373170646,-0.006748232175262053,1.2050337572857266,1.3089379573146473,0.6088690980964679,-0.16317052951557237,-0.21857399593559745,0.03887312026227434,0.01487541414272932,-1.1789386862401197,1.3219524356238896,-0.7016405528772365,-0.1644276234946594,0.21726647557510992
202,0.0,0.0,0.0,0.0,0.0,0.0,0.0,0.0,0.0,0.0,0.0,0.0,0.0,0.0,0.0,0.0,0.0,0.0,0.04007030937723371,-0.007082187725349151,1.2006689389893013,1.3108438904806217,0.6141234260622972,-0.1633385409033248,-0.2179454094561036,0.03998460033317158,0.01808583232582353,-1.1578884316323363,1.3290594910951903,-0.7135509587089814,-0.166564434388427,0.21261912656702392
